(G-CODE GENERATED BY FLATCAM v8.994 - www.flatcam.org - Version Date: 2020/11/7)

(Name: PCB.GTL_iso_combined_cnc)
(Type: G-code from Geometry)
(Units: MM)

(Created on Monday, 20 March 2023 at 11:35)

(This preprocessor is the default preprocessor used by FlatCAM.)
(It is made to work with MACH3 compatible motion controllers.)

(TOOL DIAMETER: 0.13 mm)
(Feedrate_XY: 100.0 mm/min)
(Feedrate_Z: 40.0 mm/min)
(Feedrate rapids 1500.0 mm/min)

(Z_Cut: -0.03 mm)
(Z_Move: 2.0 mm)
(Z Start: None mm)
(Z End: 15.0 mm)
(X,Y End: None mm)
(Steps per circle: 64)
(Preprocessor Geometry: default)

(X range:  -50.0160 ...   50.0140  mm)
(Y range:  -50.0040 ...   49.9750  mm)

(Spindle Speed: 10000.0 RPM)
G21
G90
G94

G01 F100.00

M5
G00 Z15.0000
G00 X0.0000 Y0.0000
T2
M6    
(MSG, Change to Tool Dia = 0.1300)
M0
G00 Z15.0000

M03 S10000.0
G01 F100.00
G00 X4.2710 Y0.2200
G01 F40.00
G01 Z-0.0300
G01 F100.00
G01 X3.6470 Y0.2200
G01 X3.6470 Y0.0960
G01 X4.2710 Y0.0960
G01 X4.2710 Y0.2200
G00 Z2.0000
G00 X4.2710 Y0.7360
G01 F40.00
G01 Z-0.0300
G01 F100.00
G01 X3.6470 Y0.7360
G01 X3.6470 Y0.6120
G01 X4.2710 Y0.6120
G01 X4.2710 Y0.7360
G00 Z2.0000
G00 X4.2710 Y1.4900
G01 F40.00
G01 Z-0.0300
G01 F100.00
G01 X3.6470 Y1.4900
G01 X3.6470 Y1.3660
G01 X4.2710 Y1.3660
G01 X4.2710 Y1.4900
G00 Z2.0000
G00 X5.5250 Y1.4900
G01 F40.00
G01 Z-0.0300
G01 F100.00
G01 X4.9010 Y1.4900
G01 X4.9010 Y1.3660
G01 X5.5250 Y1.3660
G01 X5.5250 Y1.4900
G00 Z2.0000
G00 X5.5250 Y0.7360
G01 F40.00
G01 Z-0.0300
G01 F100.00
G01 X4.9010 Y0.7360
G01 X4.9010 Y0.6120
G01 X5.5250 Y0.6120
G01 X5.5250 Y0.7360
G00 Z2.0000
G00 X5.5250 Y0.2200
G01 F40.00
G01 Z-0.0300
G01 F100.00
G01 X4.9010 Y0.2200
G01 X4.9010 Y0.0960
G01 X5.5250 Y0.0960
G01 X5.5250 Y0.2200
G00 Z2.0000
G00 X5.5250 Y-0.5340
G01 F40.00
G01 Z-0.0300
G01 F100.00
G01 X4.9010 Y-0.5340
G01 X4.9010 Y-0.6580
G01 X5.5250 Y-0.6580
G01 X5.5250 Y-0.5340
G00 Z2.0000
G00 X5.3360 Y-1.1740
G01 F40.00
G01 Z-0.0300
G01 F100.00
G01 X5.5250 Y-1.1740
G01 X5.5250 Y-1.0500
G01 X4.9010 Y-1.0500
G01 X4.9010 Y-1.1740
G01 X5.3360 Y-1.1740
G00 Z2.0000
G00 X5.5250 Y-1.8040
G01 F40.00
G01 Z-0.0300
G01 F100.00
G01 X4.9010 Y-1.8040
G01 X4.9010 Y-1.9280
G01 X5.5250 Y-1.9280
G01 X5.5250 Y-1.8040
G00 Z2.0000
G00 X5.3360 Y-2.4440
G01 F40.00
G01 Z-0.0300
G01 F100.00
G01 X5.5250 Y-2.4440
G01 X5.5250 Y-2.3200
G01 X4.9010 Y-2.3200
G01 X4.9010 Y-2.4440
G01 X5.3360 Y-2.4440
G00 Z2.0000
G00 X5.5250 Y-3.0740
G01 F40.00
G01 Z-0.0300
G01 F100.00
G01 X4.9010 Y-3.0740
G01 X4.9010 Y-3.1980
G01 X5.5250 Y-3.1980
G01 X5.5250 Y-3.0740
G00 Z2.0000
G00 X4.2710 Y-3.0740
G01 F40.00
G01 Z-0.0300
G01 F100.00
G01 X3.6470 Y-3.0740
G01 X3.6470 Y-3.1980
G01 X4.2710 Y-3.1980
G01 X4.2710 Y-3.0740
G00 Z2.0000
G00 X4.2710 Y-2.3200
G01 F40.00
G01 Z-0.0300
G01 F100.00
G01 X3.6470 Y-2.3200
G01 X3.6470 Y-2.4440
G01 X4.2710 Y-2.4440
G01 X4.2710 Y-2.3200
G00 Z2.0000
G00 X4.2710 Y-1.8040
G01 F40.00
G01 Z-0.0300
G01 F100.00
G01 X3.6470 Y-1.8040
G01 X3.6470 Y-1.9280
G01 X4.2710 Y-1.9280
G01 X4.2710 Y-1.8040
G00 Z2.0000
G00 X4.2710 Y-1.0500
G01 F40.00
G01 Z-0.0300
G01 F100.00
G01 X3.6470 Y-1.0500
G01 X3.6470 Y-1.1740
G01 X4.2710 Y-1.1740
G01 X4.2710 Y-1.0500
G00 Z2.0000
G00 X4.2710 Y-0.5340
G01 F40.00
G01 Z-0.0300
G01 F100.00
G01 X3.6470 Y-0.5340
G01 X3.6470 Y-0.6580
G01 X4.2710 Y-0.6580
G01 X4.2710 Y-0.5340
G00 Z2.0000
G00 X8.3363 Y-5.1407
G01 F40.00
G01 Z-0.0300
G01 F100.00
G01 X10.0254 Y-6.8297
G01 X10.1226 Y-6.9321
G01 X10.2181 Y-7.0441
G01 X10.3056 Y-7.1591
G01 X10.3853 Y-7.2772
G01 X10.4570 Y-7.3983
G01 X10.5209 Y-7.5225
G01 X10.5770 Y-7.6499
G01 X10.6253 Y-7.7804
G01 X10.6658 Y-7.9141
G01 X10.6990 Y-8.0529
G01 X10.7017 Y-8.0616
G01 X10.7268 Y-8.1616
G01 X10.7286 Y-8.1678
G01 X10.7711 Y-8.2862
G01 X10.8263 Y-8.4029
G01 X10.8926 Y-8.5136
G01 X10.9695 Y-8.6172
G01 X11.0562 Y-8.7128
G01 X11.1518 Y-8.7995
G01 X11.2528 Y-8.8745
G01 X11.2581 Y-8.8781
G01 X11.3661 Y-8.9427
G01 X11.4799 Y-8.9966
G01 X11.4857 Y-8.9990
G01 X11.6023 Y-9.0408
G01 X11.7822 Y-9.0986
G01 X12.1124 Y-9.2233
G01 X12.2608 Y-9.2894
G01 X12.5312 Y-9.4320
G01 X12.6500 Y-9.5069
G01 X12.7595 Y-9.5849
G01 X12.8592 Y-9.6657
G01 X12.9459 Y-9.7463
G01 X13.8738 Y-10.6742
G01 X13.9004 Y-10.6983
G01 X13.9265 Y-10.7178
G01 X13.9318 Y-10.7213
G01 X13.9613 Y-10.7388
G01 X13.9923 Y-10.7534
G01 X14.0260 Y-10.7654
G01 X14.0608 Y-10.7741
G01 X14.0930 Y-10.7790
G01 X14.0994 Y-10.7796
G01 X14.1320 Y-10.7811
G01 X14.7450 Y-10.7812
G01 X14.7450 Y-10.8926
G01 X14.7460 Y-10.9021
G01 X14.7483 Y-10.9114
G01 X14.7512 Y-10.9188
G01 X14.7560 Y-10.9271
G01 X14.7618 Y-10.9347
G01 X14.7688 Y-10.9412
G01 X14.7766 Y-10.9468
G01 X14.7837 Y-10.9504
G01 X14.7927 Y-10.9536
G01 X14.8020 Y-10.9555
G01 X14.8100 Y-10.9560
G01 X15.4116 Y-10.9560
G01 X15.4227 Y-10.9548
G01 X15.4334 Y-10.9516
G01 X15.4434 Y-10.9468
G01 X15.4525 Y-10.9402
G01 X15.4571 Y-10.9358
G01 X15.4612 Y-10.9310
G01 X15.4649 Y-10.9258
G01 X15.4688 Y-10.9188
G01 X15.4717 Y-10.9114
G01 X15.4734 Y-10.9052
G01 X15.4745 Y-10.8990
G01 X15.4750 Y-10.8910
G01 X15.4750 Y-9.9394
G01 X15.4740 Y-9.9299
G01 X15.4712 Y-9.9191
G01 X15.4666 Y-9.9090
G01 X15.4602 Y-9.8998
G01 X15.4560 Y-9.8950
G01 X15.4512 Y-9.8908
G01 X15.4448 Y-9.8861
G01 X15.4392 Y-9.8829
G01 X15.4319 Y-9.8798
G01 X15.4258 Y-9.8779
G01 X15.4180 Y-9.8765
G01 X15.4116 Y-9.8760
G01 X14.8100 Y-9.8760
G01 X14.8020 Y-9.8765
G01 X14.7927 Y-9.8784
G01 X14.7837 Y-9.8816
G01 X14.7766 Y-9.8852
G01 X14.7688 Y-9.8908
G01 X14.7618 Y-9.8973
G01 X14.7560 Y-9.9049
G01 X14.7519 Y-9.9118
G01 X14.7483 Y-9.9206
G01 X14.7460 Y-9.9299
G01 X14.7450 Y-9.9394
G01 X14.7450 Y-10.0509
G01 X14.2833 Y-10.0508
G01 X13.5924 Y-9.3600
G01 X13.5363 Y-9.2923
G01 X13.4858 Y-9.2063
G01 X13.4404 Y-9.1001
G01 X13.4008 Y-8.9737
G01 X13.3674 Y-8.8275
G01 X13.3409 Y-8.6628
G01 X13.3005 Y-8.0451
G01 X13.3009 Y-7.8018
G01 X13.3005 Y-7.7946
G01 X13.3010 Y-7.7814
G01 X13.2949 Y-7.6573
G01 X13.2943 Y-7.6509
G01 X13.2760 Y-7.5280
G01 X13.2444 Y-7.4013
G01 X13.2009 Y-7.2798
G01 X13.1457 Y-7.1631
G01 X13.0811 Y-7.0551
G01 X13.0775 Y-7.0498
G01 X13.0025 Y-6.9488
G01 X12.9180 Y-6.8555
G01 X12.9135 Y-6.8510
G01 X12.8226 Y-6.7686
G01 X12.8177 Y-6.7645
G01 X12.7166 Y-6.6896
G01 X12.6087 Y-6.6248
G01 X12.6030 Y-6.6218
G01 X12.4892 Y-6.5681
G01 X12.3708 Y-6.5256
G01 X12.3646 Y-6.5238
G01 X12.2457 Y-6.4940
G01 X12.2394 Y-6.4927
G01 X12.1165 Y-6.4745
G01 X12.0940 Y-6.4732
G01 X12.0852 Y-6.4717
G01 X11.9096 Y-6.4542
G01 X11.7441 Y-6.4286
G01 X11.5874 Y-6.3948
G01 X11.4391 Y-6.3529
G01 X11.2994 Y-6.3028
G01 X11.1683 Y-6.2448
G01 X11.0455 Y-6.1787
G01 X10.9310 Y-6.1046
G01 X10.8247 Y-6.0225
G01 X10.7299 Y-5.9355
G01 X9.1534 Y-4.3590
G01 X9.1011 Y-3.3423
G01 X9.1011 Y-3.2618
G01 X9.2383 Y-3.1246
G01 X9.8019 Y-3.1268
G01 X9.8275 Y-3.1458
G01 X9.8667 Y-3.1693
G01 X9.9080 Y-3.1888
G01 X9.9479 Y-3.2032
G01 X9.9540 Y-3.2050
G01 X9.9921 Y-3.2146
G01 X9.9984 Y-3.2158
G01 X10.0404 Y-3.2220
G01 X10.0828 Y-3.2241
G01 X11.6374 Y-3.2242
G01 X11.6830 Y-3.2220
G01 X11.7250 Y-3.2158
G01 X11.7313 Y-3.2146
G01 X11.7694 Y-3.2050
G01 X11.7755 Y-3.2032
G01 X11.8154 Y-3.1888
G01 X11.8567 Y-3.1693
G01 X11.8959 Y-3.1458
G01 X11.9300 Y-3.1206
G01 X11.9349 Y-3.1165
G01 X11.9663 Y-3.0879
G01 X13.2951 Y-1.7592
G01 X13.3246 Y-1.7265
G01 X13.3518 Y-1.6899
G01 X13.3753 Y-1.6507
G01 X13.3954 Y-1.6079
G01 X13.4102 Y-1.5664
G01 X13.4213 Y-1.5222
G01 X13.4280 Y-1.4770
G01 X13.4302 Y-1.4330
G01 X13.4302 Y0.7073
G01 X15.5026 Y2.7797
G01 X15.5265 Y2.7780
G01 X15.6177 Y2.7663
G01 X15.7000 Y2.7502
G01 X15.7731 Y2.7297
G01 X15.8372 Y2.7052
G01 X15.8922 Y2.6770
G01 X15.9384 Y2.6455
G01 X15.9763 Y2.6107
G01 X15.9902 Y2.5932
G01 X15.9972 Y2.5814
G01 X16.0059 Y2.5699
G01 X16.0135 Y2.5615
G01 X16.0207 Y2.5549
G01 X16.0321 Y2.5461
G01 X16.0459 Y2.5378
G01 X16.0562 Y2.5330
G01 X16.0653 Y2.5297
G01 X16.0808 Y2.5255
G01 X16.0968 Y2.5234
G01 X16.1065 Y2.5230
G01 X19.3435 Y2.5230
G01 X19.3596 Y2.5240
G01 X19.3692 Y2.5255
G01 X19.3817 Y2.5287
G01 X19.3967 Y2.5343
G01 X19.4055 Y2.5385
G01 X19.4152 Y2.5443
G01 X19.4269 Y2.5528
G01 X19.4387 Y2.5638
G01 X19.4452 Y2.5711
G01 X19.4510 Y2.5788
G01 X19.4595 Y2.5925
G01 X19.4656 Y2.6057
G01 X19.4702 Y2.6194
G01 X19.4725 Y2.6288
G01 X19.4740 Y2.6384
G01 X19.4750 Y2.6529
G01 X19.4750 Y4.4231
G01 X19.4744 Y4.4344
G01 X19.4725 Y4.4472
G01 X19.4693 Y4.4597
G01 X19.4661 Y4.4688
G01 X19.4609 Y4.4806
G01 X19.4579 Y4.4863
G01 X19.4519 Y4.4959
G01 X19.4441 Y4.5061
G01 X19.4353 Y4.5156
G01 X19.4244 Y4.5251
G01 X19.4166 Y4.5308
G01 X19.4083 Y4.5359
G01 X19.3967 Y4.5417
G01 X19.3832 Y4.5469
G01 X19.3707 Y4.5501
G01 X19.3564 Y4.5524
G01 X19.3435 Y4.5530
G01 X16.1065 Y4.5530
G01 X16.0936 Y4.5524
G01 X16.0808 Y4.5505
G01 X16.0683 Y4.5473
G01 X16.0592 Y4.5441
G01 X16.0474 Y4.5389
G01 X16.0417 Y4.5359
G01 X16.0321 Y4.5299
G01 X16.0219 Y4.5221
G01 X16.0135 Y4.5145
G01 X16.0048 Y4.5049
G01 X15.9972 Y4.4946
G01 X15.9905 Y4.4835
G01 X15.9850 Y4.4718
G01 X15.9807 Y4.4597
G01 X15.9775 Y4.4472
G01 X15.9758 Y4.4360
G01 X15.9750 Y4.4215
G01 X15.9750 Y3.9347
G01 X15.9746 Y3.9306
G01 X15.9595 Y3.8916
G01 X15.9334 Y3.8564
G01 X15.8936 Y3.8232
G01 X15.8380 Y3.7929
G01 X15.7660 Y3.7666
G01 X15.6777 Y3.7455
G01 X15.5732 Y3.7300
G01 X15.4530 Y3.7206
G01 X15.3158 Y3.7176
G01 X15.2734 Y3.7155
G01 X15.2266 Y3.7087
G01 X15.1824 Y3.6976
G01 X15.1424 Y3.6833
G01 X15.1365 Y3.6809
G01 X15.0981 Y3.6627
G01 X15.0616 Y3.6409
G01 X15.0563 Y3.6374
G01 X15.0223 Y3.6120
G01 X14.9885 Y3.5813
G01 X12.6361 Y1.2289
G01 X12.6054 Y1.1951
G01 X12.5782 Y1.1585
G01 X12.5563 Y1.1221
G01 X12.5533 Y1.1164
G01 X12.5352 Y1.0780
G01 X12.5198 Y1.0350
G01 X12.5094 Y0.9939
G01 X12.5082 Y0.9876
G01 X12.5020 Y0.9456
G01 X12.4998 Y0.9016
G01 X12.4998 Y-1.2387
G01 X11.4447 Y-2.2938
G01 X10.0828 Y-2.2939
G01 X10.0404 Y-2.2960
G01 X9.9984 Y-2.3022
G01 X9.9921 Y-2.3034
G01 X9.9540 Y-2.3130
G01 X9.9479 Y-2.3148
G01 X9.9080 Y-2.3292
G01 X9.8667 Y-2.3487
G01 X9.8275 Y-2.3722
G01 X9.8034 Y-2.3900
G01 X9.0859 Y-2.3939
G01 X9.0517 Y-2.3956
G01 X9.0163 Y-2.4009
G01 X8.9846 Y-2.4087
G01 X8.9785 Y-2.4106
G01 X8.9478 Y-2.4216
G01 X8.9182 Y-2.4355
G01 X8.9126 Y-2.4385
G01 X8.8846 Y-2.4554
G01 X8.8546 Y-2.4778
G01 X8.8293 Y-2.5008
G01 X8.4778 Y-2.8523
G01 X8.4527 Y-2.8801
G01 X8.4324 Y-2.9076
G01 X8.4155 Y-2.9356
G01 X8.4125 Y-2.9412
G01 X8.3986 Y-2.9708
G01 X8.3866 Y-3.0045
G01 X8.3786 Y-3.0361
G01 X8.3773 Y-3.0424
G01 X8.3725 Y-3.0763
G01 X8.3709 Y-3.1105
G01 X8.3709 Y-3.3489
G01 X8.3576 Y-4.0961
G01 X8.3449 Y-4.2640
G01 X8.3376 Y-4.3166
G01 X8.3310 Y-4.3449
G01 X8.3283 Y-4.3500
G01 X8.2991 Y-4.3824
G01 X8.2660 Y-4.4270
G01 X8.2375 Y-4.4745
G01 X8.2144 Y-4.5232
G01 X8.1951 Y-4.5769
G01 X8.1823 Y-4.6276
G01 X8.1811 Y-4.6339
G01 X8.1739 Y-4.6824
G01 X8.1732 Y-4.6888
G01 X8.1707 Y-4.7410
G01 X8.1732 Y-4.7932
G01 X8.1739 Y-4.7996
G01 X8.1811 Y-4.8481
G01 X8.1823 Y-4.8544
G01 X8.1951 Y-4.9051
G01 X8.2126 Y-4.9543
G01 X8.2151 Y-4.9602
G01 X8.2375 Y-5.0075
G01 X8.2660 Y-5.0550
G01 X8.2991 Y-5.0996
G01 X8.3363 Y-5.1407
G00 Z2.0000
G00 X7.1683 Y-6.0167
G01 F40.00
G01 Z-0.0300
G01 F100.00
G01 X9.2185 Y-8.0669
G01 X9.2174 Y-8.0954
G01 X9.2053 Y-8.2063
G01 X9.1883 Y-8.3077
G01 X9.1666 Y-8.3989
G01 X9.1406 Y-8.4799
G01 X9.1103 Y-8.5505
G01 X9.0761 Y-8.6109
G01 X9.0385 Y-8.6612
G01 X8.9938 Y-8.7059
G01 X8.9885 Y-8.7120
G01 X8.9215 Y-8.7729
G01 X8.8369 Y-8.8661
G01 X8.8328 Y-8.8710
G01 X8.7598 Y-8.9695
G01 X8.7562 Y-8.9748
G01 X8.6916 Y-9.0828
G01 X8.6364 Y-9.1995
G01 X8.5929 Y-9.3210
G01 X8.5616 Y-9.4462
G01 X8.5426 Y-9.5738
G01 X8.5363 Y-9.7011
G01 X8.5426 Y-9.8316
G01 X8.5610 Y-9.9561
G01 X8.5623 Y-9.9624
G01 X8.5929 Y-10.0844
G01 X8.6353 Y-10.2030
G01 X8.6377 Y-10.2088
G01 X8.6916 Y-10.3226
G01 X8.7562 Y-10.4306
G01 X8.7598 Y-10.4359
G01 X8.8348 Y-10.5369
G01 X8.9193 Y-10.6302
G01 X8.9238 Y-10.6347
G01 X9.0171 Y-10.7192
G01 X9.1207 Y-10.7961
G01 X9.2286 Y-10.8609
G01 X9.2343 Y-10.8639
G01 X9.3481 Y-10.9176
G01 X9.4681 Y-10.9606
G01 X9.5932 Y-10.9921
G01 X9.6112 Y-10.9950
G01 X9.6192 Y-10.9970
G01 X9.8321 Y-11.0382
G01 X10.0290 Y-11.0829
G01 X10.3817 Y-11.1841
G01 X10.5348 Y-11.2396
G01 X10.6739 Y-11.2990
G01 X10.7982 Y-11.3616
G01 X10.9077 Y-11.4275
G01 X11.0024 Y-11.4964
G01 X11.0823 Y-11.5678
G01 X11.1910 Y-11.6764
G01 X11.2153 Y-11.6983
G01 X11.2440 Y-11.7196
G01 X11.2748 Y-11.7380
G01 X11.3072 Y-11.7534
G01 X11.3409 Y-11.7654
G01 X11.3725 Y-11.7734
G01 X11.3788 Y-11.7747
G01 X11.4111 Y-11.7794
G01 X11.4469 Y-11.7811
G01 X15.5850 Y-11.7810
G01 X15.5930 Y-11.7805
G01 X15.6023 Y-11.7786
G01 X15.6099 Y-11.7761
G01 X15.6170 Y-11.7726
G01 X15.6237 Y-11.7682
G01 X15.6298 Y-11.7631
G01 X15.6352 Y-11.7572
G01 X15.6408 Y-11.7494
G01 X15.6444 Y-11.7423
G01 X15.6472 Y-11.7349
G01 X15.6490 Y-11.7271
G01 X15.6499 Y-11.7192
G01 X15.6500 Y-11.1144
G01 X15.6488 Y-11.1033
G01 X15.6456 Y-11.0926
G01 X15.6416 Y-11.0840
G01 X15.6352 Y-11.0748
G01 X15.6275 Y-11.0668
G01 X15.6184 Y-11.0602
G01 X15.6084 Y-11.0554
G01 X15.5977 Y-11.0522
G01 X15.5914 Y-11.0513
G01 X15.5850 Y-11.0510
G01 X11.6020 Y-11.0508
G01 X11.5632 Y-11.0062
G01 X11.5016 Y-10.9146
G01 X11.4435 Y-10.8057
G01 X11.3895 Y-10.6799
G01 X11.3397 Y-10.5367
G01 X11.2948 Y-10.3781
G01 X11.1859 Y-9.7940
G01 X11.1593 Y-9.5669
G01 X11.1410 Y-9.4462
G01 X11.1097 Y-9.3210
G01 X11.0668 Y-9.2010
G01 X11.0125 Y-9.0857
G01 X11.0095 Y-9.0800
G01 X10.9447 Y-8.9721
G01 X10.8688 Y-8.8697
G01 X10.7833 Y-8.7752
G01 X10.7788 Y-8.7707
G01 X10.6855 Y-8.6862
G01 X10.6174 Y-8.6356
G01 X10.6110 Y-8.6295
G01 X10.5621 Y-8.5892
G01 X10.5212 Y-8.5438
G01 X10.4843 Y-8.4893
G01 X10.4516 Y-8.4255
G01 X10.4234 Y-8.3523
G01 X10.4000 Y-8.2692
G01 X10.3818 Y-8.1776
G01 X10.3601 Y-7.9616
G01 X10.3576 Y-7.8398
G01 X10.3552 Y-7.7892
G01 X10.3545 Y-7.7828
G01 X10.3468 Y-7.7311
G01 X10.3333 Y-7.6773
G01 X10.3146 Y-7.6251
G01 X10.2909 Y-7.5749
G01 X10.2633 Y-7.5287
G01 X10.2293 Y-7.4828
G01 X10.1921 Y-7.4417
G01 X7.9854 Y-5.2350
G01 X7.9331 Y-4.2183
G01 X7.9332 Y-2.2032
G01 X8.2822 Y-1.8541
G01 X9.7982 Y-1.8541
G01 X9.8275 Y-1.8758
G01 X9.8639 Y-1.8977
G01 X9.8696 Y-1.9007
G01 X9.9080 Y-1.9188
G01 X9.9510 Y-1.9342
G01 X9.9921 Y-1.9446
G01 X9.9984 Y-1.9458
G01 X10.0420 Y-1.9521
G01 X10.0860 Y-1.9542
G01 X11.4084 Y-1.9542
G01 X11.4540 Y-1.9520
G01 X11.4992 Y-1.9453
G01 X11.5434 Y-1.9342
G01 X11.5864 Y-1.9188
G01 X11.6277 Y-1.8993
G01 X11.6669 Y-1.8758
G01 X11.7035 Y-1.8486
G01 X11.7362 Y-1.8191
G01 X12.2059 Y-1.3493
G01 X12.2356 Y-1.3167
G01 X12.2620 Y-1.2815
G01 X12.2655 Y-1.2762
G01 X12.2873 Y-1.2397
G01 X12.3055 Y-1.2013
G01 X12.3079 Y-1.1954
G01 X12.3222 Y-1.1554
G01 X12.3336 Y-1.1096
G01 X12.3400 Y-1.0660
G01 X12.3422 Y-1.0204
G01 X12.3422 Y1.5733
G01 X17.2087 Y6.4398
G01 X19.4432 Y6.4399
G01 X19.4856 Y6.4420
G01 X19.5308 Y6.4487
G01 X19.5750 Y6.4598
G01 X19.6150 Y6.4741
G01 X19.6209 Y6.4765
G01 X19.6564 Y6.4933
G01 X19.6621 Y6.4963
G01 X19.6985 Y6.5182
G01 X19.7339 Y6.5444
G01 X19.7689 Y6.5761
G01 X27.6957 Y14.5028
G01 X29.5316 Y14.5028
G01 X29.6741 Y14.4991
G01 X29.8065 Y14.4875
G01 X29.9216 Y14.4684
G01 X30.0191 Y14.4423
G01 X30.0989 Y14.4098
G01 X30.1611 Y14.3719
G01 X30.2068 Y14.3296
G01 X30.2378 Y14.2828
G01 X30.2563 Y14.2298
G01 X30.2580 Y14.2131
G01 X30.2580 Y13.9669
G01 X30.2586 Y13.9556
G01 X30.2600 Y13.9460
G01 X30.2612 Y13.9397
G01 X30.2641 Y13.9288
G01 X30.2680 Y13.9182
G01 X30.2721 Y13.9094
G01 X30.2802 Y13.8954
G01 X30.2899 Y13.8827
G01 X30.2965 Y13.8755
G01 X30.3061 Y13.8668
G01 X30.3164 Y13.8592
G01 X30.3247 Y13.8541
G01 X30.3392 Y13.8470
G01 X30.3544 Y13.8418
G01 X30.3638 Y13.8395
G01 X30.3750 Y13.8378
G01 X30.3895 Y13.8370
G01 X33.6265 Y13.8370
G01 X33.6426 Y13.8380
G01 X33.6522 Y13.8395
G01 X33.6647 Y13.8427
G01 X33.6768 Y13.8470
G01 X33.6856 Y13.8511
G01 X33.6996 Y13.8592
G01 X33.7123 Y13.8689
G01 X33.7195 Y13.8755
G01 X33.7282 Y13.8851
G01 X33.7358 Y13.8954
G01 X33.7409 Y13.9037
G01 X33.7480 Y13.9182
G01 X33.7523 Y13.9303
G01 X33.7555 Y13.9428
G01 X33.7574 Y13.9556
G01 X33.7579 Y13.9653
G01 X33.7580 Y14.2131
G01 X33.7597 Y14.2298
G01 X33.7782 Y14.2828
G01 X33.8092 Y14.3296
G01 X33.8549 Y14.3719
G01 X33.9171 Y14.4098
G01 X33.9969 Y14.4423
G01 X34.0944 Y14.4684
G01 X34.2095 Y14.4875
G01 X34.3419 Y14.4991
G01 X34.4844 Y14.5028
G01 X44.8330 Y14.5028
G01 X44.8786 Y14.5050
G01 X44.9222 Y14.5114
G01 X44.9650 Y14.5220
G01 X44.9711 Y14.5238
G01 X45.0110 Y14.5382
G01 X45.0523 Y14.5577
G01 X45.0888 Y14.5795
G01 X45.0941 Y14.5830
G01 X45.1281 Y14.6084
G01 X45.1608 Y14.6379
G01 X48.6719 Y18.1491
G01 X48.7026 Y18.1829
G01 X48.7298 Y18.2195
G01 X48.7533 Y18.2587
G01 X48.7728 Y18.3000
G01 X48.7872 Y18.3399
G01 X48.7890 Y18.3460
G01 X48.7986 Y18.3841
G01 X48.7998 Y18.3904
G01 X48.8060 Y18.4324
G01 X48.8082 Y18.4780
G01 X48.8082 Y27.7345
G01 X48.8060 Y27.7801
G01 X48.7993 Y27.8253
G01 X48.7882 Y27.8695
G01 X48.7722 Y27.9140
G01 X48.7533 Y27.9538
G01 X48.7298 Y27.9930
G01 X48.7026 Y28.0296
G01 X48.6719 Y28.0634
G01 X41.1464 Y35.5889
G01 X41.1126 Y35.6196
G01 X41.0760 Y35.6468
G01 X41.0368 Y35.6703
G01 X40.9955 Y35.6898
G01 X40.9556 Y35.7042
G01 X40.9495 Y35.7060
G01 X40.9114 Y35.7156
G01 X40.9051 Y35.7168
G01 X40.8631 Y35.7230
G01 X40.8175 Y35.7252
G01 X27.0494 Y35.7252
G01 X26.9073 Y35.7289
G01 X26.7753 Y35.7405
G01 X26.6604 Y35.7596
G01 X26.5630 Y35.7857
G01 X26.4833 Y35.8182
G01 X26.4210 Y35.8561
G01 X26.3752 Y35.8985
G01 X26.3439 Y35.9454
G01 X26.3250 Y35.9985
G01 X26.3230 Y36.0178
G01 X26.3230 Y36.1435
G01 X26.3225 Y36.1548
G01 X26.3205 Y36.1692
G01 X26.3173 Y36.1817
G01 X26.3130 Y36.1938
G01 X26.3082 Y36.2041
G01 X26.3008 Y36.2166
G01 X26.2911 Y36.2293
G01 X26.2845 Y36.2365
G01 X26.2773 Y36.2431
G01 X26.2659 Y36.2519
G01 X26.2535 Y36.2595
G01 X26.2403 Y36.2656
G01 X26.2266 Y36.2702
G01 X26.2172 Y36.2725
G01 X26.2076 Y36.2740
G01 X26.1915 Y36.2750
G01 X22.9545 Y36.2750
G01 X22.9432 Y36.2745
G01 X22.9304 Y36.2728
G01 X22.9194 Y36.2702
G01 X22.9072 Y36.2661
G01 X22.9013 Y36.2637
G01 X22.8925 Y36.2595
G01 X22.8814 Y36.2528
G01 X22.8711 Y36.2452
G01 X22.8615 Y36.2365
G01 X22.8528 Y36.2269
G01 X22.8452 Y36.2166
G01 X22.8385 Y36.2055
G01 X22.8343 Y36.1967
G01 X22.8319 Y36.1908
G01 X22.8278 Y36.1786
G01 X22.8252 Y36.1676
G01 X22.8235 Y36.1548
G01 X22.8230 Y36.1435
G01 X22.8230 Y34.3765
G01 X22.8235 Y34.3652
G01 X22.8255 Y34.3508
G01 X22.8282 Y34.3399
G01 X22.8324 Y34.3277
G01 X22.8371 Y34.3174
G01 X22.8401 Y34.3117
G01 X22.8470 Y34.3008
G01 X22.8539 Y34.2919
G01 X22.8638 Y34.2813
G01 X22.8711 Y34.2748
G01 X22.8814 Y34.2672
G01 X22.8925 Y34.2605
G01 X22.9042 Y34.2550
G01 X22.9163 Y34.2507
G01 X22.9288 Y34.2475
G01 X22.9416 Y34.2456
G01 X22.9529 Y34.2450
G01 X26.1915 Y34.2450
G01 X26.2044 Y34.2456
G01 X26.2203 Y34.2482
G01 X26.2297 Y34.2507
G01 X26.2388 Y34.2539
G01 X26.2521 Y34.2598
G01 X26.2646 Y34.2672
G01 X26.2773 Y34.2769
G01 X26.2845 Y34.2835
G01 X26.2911 Y34.2907
G01 X26.3008 Y34.3034
G01 X26.3082 Y34.3159
G01 X26.3130 Y34.3262
G01 X26.3173 Y34.3383
G01 X26.3205 Y34.3508
G01 X26.3225 Y34.3652
G01 X26.3230 Y34.3765
G01 X26.3230 Y34.5022
G01 X26.3250 Y34.5215
G01 X26.3439 Y34.5746
G01 X26.3752 Y34.6215
G01 X26.4210 Y34.6639
G01 X26.4833 Y34.7018
G01 X26.5630 Y34.7343
G01 X26.6604 Y34.7604
G01 X26.7753 Y34.7795
G01 X26.9073 Y34.7911
G01 X27.0494 Y34.7948
G01 X40.6248 Y34.7948
G01 X47.8778 Y27.5418
G01 X47.8778 Y18.6707
G01 X44.6403 Y15.4332
G01 X34.4843 Y15.4332
G01 X34.3408 Y15.4369
G01 X34.2075 Y15.4484
G01 X34.0914 Y15.4674
G01 X33.9928 Y15.4935
G01 X33.9119 Y15.5260
G01 X33.8486 Y15.5639
G01 X33.8020 Y15.6062
G01 X33.7701 Y15.6529
G01 X33.7580 Y15.6859
G01 X33.7579 Y15.7387
G01 X33.7572 Y15.7500
G01 X33.7551 Y15.7627
G01 X33.7523 Y15.7737
G01 X33.7480 Y15.7858
G01 X33.7425 Y15.7975
G01 X33.7349 Y15.8099
G01 X33.7271 Y15.8201
G01 X33.7172 Y15.8307
G01 X33.7074 Y15.8391
G01 X33.6996 Y15.8448
G01 X33.6913 Y15.8499
G01 X33.6783 Y15.8564
G01 X33.6662 Y15.8609
G01 X33.6522 Y15.8645
G01 X33.6394 Y15.8664
G01 X33.6265 Y15.8670
G01 X30.3895 Y15.8670
G01 X30.3750 Y15.8662
G01 X30.3607 Y15.8638
G01 X30.3513 Y15.8613
G01 X30.3422 Y15.8581
G01 X30.3275 Y15.8515
G01 X30.3151 Y15.8439
G01 X30.3037 Y15.8351
G01 X30.2965 Y15.8285
G01 X30.2899 Y15.8213
G01 X30.2820 Y15.8112
G01 X30.2743 Y15.7989
G01 X30.2686 Y15.7873
G01 X30.2637 Y15.7737
G01 X30.2609 Y15.7627
G01 X30.2588 Y15.7500
G01 X30.2581 Y15.7387
G01 X30.2580 Y15.6859
G01 X30.2459 Y15.6529
G01 X30.2140 Y15.6062
G01 X30.1674 Y15.5639
G01 X30.1041 Y15.5260
G01 X30.0233 Y15.4935
G01 X29.9246 Y15.4674
G01 X29.8085 Y15.4484
G01 X29.6752 Y15.4369
G01 X29.5317 Y15.4332
G01 X27.5014 Y15.4332
G01 X27.4574 Y15.4310
G01 X27.4154 Y15.4248
G01 X27.4091 Y15.4236
G01 X27.3680 Y15.4132
G01 X27.3280 Y15.3989
G01 X27.3221 Y15.3965
G01 X27.2837 Y15.3783
G01 X27.2472 Y15.3565
G01 X27.2419 Y15.3530
G01 X27.2079 Y15.3276
G01 X27.1741 Y15.2969
G01 X19.3621 Y7.4850
G01 X19.3508 Y7.4775
G01 X19.3240 Y7.4673
G01 X19.2819 Y7.4572
G01 X18.6874 Y7.4178
G01 X18.5591 Y7.4171
G01 X11.8760 Y7.4171
G01 X11.8500 Y7.4158
G01 X11.8227 Y7.4117
G01 X11.7975 Y7.4052
G01 X11.7760 Y7.3975
G01 X11.7640 Y7.3920
G01 X11.6228 Y7.3919
G01 X11.6149 Y7.3910
G01 X11.6071 Y7.3892
G01 X11.5997 Y7.3864
G01 X11.5926 Y7.3828
G01 X11.5860 Y7.3782
G01 X11.5800 Y7.3730
G01 X11.5748 Y7.3670
G01 X11.5702 Y7.3604
G01 X11.5672 Y7.3548
G01 X11.5643 Y7.3474
G01 X11.5622 Y7.3397
G01 X11.5612 Y7.3318
G01 X11.5611 Y6.9738
G01 X11.5626 Y6.9628
G01 X11.5659 Y6.9521
G01 X11.5687 Y6.9464
G01 X11.5720 Y6.9409
G01 X11.5789 Y6.9322
G01 X11.5873 Y6.9248
G01 X11.5968 Y6.9189
G01 X11.6071 Y6.9148
G01 X11.6180 Y6.9125
G01 X11.6260 Y6.9120
G01 X11.7640 Y6.9120
G01 X11.7760 Y6.9065
G01 X11.7975 Y6.8988
G01 X11.8227 Y6.8923
G01 X11.8500 Y6.8882
G01 X11.8760 Y6.8869
G01 X16.2458 Y6.8869
G01 X16.2474 Y6.8578
G01 X16.2536 Y6.8158
G01 X16.2566 Y6.8035
G01 X11.5481 Y2.0949
G01 X11.5174 Y2.0611
G01 X11.4893 Y2.0231
G01 X11.4667 Y1.9853
G01 X11.4485 Y1.9469
G01 X11.4461 Y1.9410
G01 X11.4318 Y1.9010
G01 X11.4214 Y1.8599
G01 X11.4202 Y1.8536
G01 X11.4140 Y1.8116
G01 X11.4118 Y1.7676
G01 X11.4118 Y-0.8277
G01 X11.2157 Y-1.0238
G01 X10.0860 Y-1.0238
G01 X10.0420 Y-1.0259
G01 X9.9984 Y-1.0322
G01 X9.9921 Y-1.0334
G01 X9.9510 Y-1.0438
G01 X9.9080 Y-1.0592
G01 X9.8696 Y-1.0773
G01 X9.8639 Y-1.0803
G01 X9.8275 Y-1.1022
G01 X9.7982 Y-1.1239
G01 X8.1309 Y-1.1239
G01 X8.0951 Y-1.1256
G01 X8.0597 Y-1.1309
G01 X8.0280 Y-1.1387
G01 X8.0219 Y-1.1406
G01 X7.9912 Y-1.1516
G01 X7.9616 Y-1.1655
G01 X7.9560 Y-1.1685
G01 X7.9280 Y-1.1854
G01 X7.9018 Y-1.2048
G01 X7.8968 Y-1.2088
G01 X7.8727 Y-1.2308
G01 X7.3098 Y-1.7937
G01 X7.2857 Y-1.8203
G01 X7.2653 Y-1.8477
G01 X7.2475 Y-1.8770
G01 X7.2445 Y-1.8826
G01 X7.2306 Y-1.9122
G01 X7.2186 Y-1.9459
G01 X7.2106 Y-1.9775
G01 X7.2093 Y-1.9838
G01 X7.2046 Y-2.0161
G01 X7.2029 Y-2.0503
G01 X7.2029 Y-4.2249
G01 X7.1896 Y-4.9721
G01 X7.1770 Y-5.1399
G01 X7.1697 Y-5.1926
G01 X7.1630 Y-5.2209
G01 X7.1603 Y-5.2260
G01 X7.1301 Y-5.2597
G01 X7.0980 Y-5.3030
G01 X7.0695 Y-5.3505
G01 X7.0458 Y-5.4007
G01 X7.0271 Y-5.4529
G01 X7.0136 Y-5.5067
G01 X7.0055 Y-5.5616
G01 X7.0028 Y-5.6154
G01 X7.0055 Y-5.6724
G01 X7.0136 Y-5.7273
G01 X7.0271 Y-5.7811
G01 X7.0458 Y-5.8333
G01 X7.0695 Y-5.8835
G01 X7.0980 Y-5.9310
G01 X7.1311 Y-5.9756
G01 X7.1683 Y-6.0167
G00 Z2.0000
G00 X1.5969 Y-13.1473
G01 F40.00
G01 Z-0.0300
G01 F100.00
G01 X14.7153 Y-26.2657
G01 X14.7540 Y-26.3009
G01 X14.7589 Y-26.3049
G01 X14.8010 Y-26.3360
G01 X14.8485 Y-26.3645
G01 X14.8987 Y-26.3882
G01 X14.9479 Y-26.4059
G01 X14.9540 Y-26.4078
G01 X15.0016 Y-26.4197
G01 X15.0128 Y-26.4217
G01 X23.6131 Y-35.0219
G01 X23.6481 Y-35.0536
G01 X23.6835 Y-35.0798
G01 X23.7227 Y-35.1033
G01 X23.7640 Y-35.1228
G01 X23.8039 Y-35.1372
G01 X23.8100 Y-35.1390
G01 X23.8481 Y-35.1486
G01 X23.8544 Y-35.1498
G01 X23.8964 Y-35.1560
G01 X23.9420 Y-35.1582
G01 X35.5367 Y-35.1582
G01 X35.7328 Y-35.3543
G01 X35.7328 Y-36.6690
G01 X35.7350 Y-36.7146
G01 X35.7417 Y-36.7598
G01 X35.7528 Y-36.8040
G01 X35.7682 Y-36.8470
G01 X35.7877 Y-36.8883
G01 X35.8112 Y-36.9275
G01 X35.8394 Y-36.9653
G01 X35.8702 Y-36.9991
G01 X35.9017 Y-37.0276
G01 X35.9110 Y-37.0347
G01 X35.9110 Y-37.7706
G01 X35.9117 Y-37.7785
G01 X35.9134 Y-37.7863
G01 X35.9159 Y-37.7939
G01 X35.9202 Y-37.8024
G01 X35.9258 Y-37.8102
G01 X35.9312 Y-37.8161
G01 X35.9373 Y-37.8212
G01 X35.9449 Y-37.8260
G01 X35.9449 Y-38.0258
G01 X35.9411 Y-38.2313
G01 X35.9298 Y-38.3956
G01 X35.9216 Y-38.4574
G01 X35.9119 Y-38.5063
G01 X35.9017 Y-38.5403
G01 X35.8963 Y-38.5515
G01 X35.8866 Y-38.5544
G01 X35.8766 Y-38.5592
G01 X35.8675 Y-38.5658
G01 X35.8608 Y-38.5725
G01 X35.8551 Y-38.5802
G01 X35.8499 Y-38.5901
G01 X35.8466 Y-38.6008
G01 X35.8451 Y-38.6118
G01 X35.8450 Y-40.0150
G01 X35.8455 Y-40.0230
G01 X35.8469 Y-40.0308
G01 X35.8506 Y-40.0413
G01 X35.8560 Y-40.0511
G01 X35.8618 Y-40.0587
G01 X35.8700 Y-40.0662
G01 X35.8794 Y-40.0723
G01 X35.8881 Y-40.0762
G01 X35.8973 Y-40.0788
G01 X35.9084 Y-40.0800
G01 X36.7116 Y-40.0800
G01 X36.7195 Y-40.0793
G01 X36.7258 Y-40.0781
G01 X36.7319 Y-40.0762
G01 X36.7392 Y-40.0731
G01 X36.7461 Y-40.0690
G01 X36.7512 Y-40.0652
G01 X36.7560 Y-40.0610
G01 X36.7612 Y-40.0550
G01 X36.7673 Y-40.0456
G01 X36.7712 Y-40.0369
G01 X36.7740 Y-40.0261
G01 X36.7750 Y-40.0150
G01 X36.7748 Y-38.6102
G01 X36.7734 Y-38.6008
G01 X36.7701 Y-38.5901
G01 X36.7658 Y-38.5816
G01 X36.7592 Y-38.5725
G01 X36.7525 Y-38.5658
G01 X36.7434 Y-38.5592
G01 X36.7334 Y-38.5544
G01 X36.7237 Y-38.5515
G01 X36.7183 Y-38.5403
G01 X36.7081 Y-38.5063
G01 X36.6988 Y-38.4594
G01 X36.6760 Y-38.1295
G01 X36.6751 Y-38.0349
G01 X36.6751 Y-37.5030
G01 X36.6734 Y-37.4672
G01 X36.6684 Y-37.4333
G01 X36.6594 Y-37.3970
G01 X36.6485 Y-37.3662
G01 X36.6461 Y-37.3603
G01 X36.6335 Y-37.3337
G01 X36.6305 Y-37.3281
G01 X36.6136 Y-37.3001
G01 X36.5923 Y-37.2714
G01 X36.5682 Y-37.2448
G01 X36.5410 Y-37.2202
G01 X36.5410 Y-36.9826
G01 X36.5586 Y-36.9629
G01 X36.5857 Y-36.9261
G01 X36.6083 Y-36.8883
G01 X36.6272 Y-36.8485
G01 X36.6432 Y-36.8040
G01 X36.6536 Y-36.7629
G01 X36.6548 Y-36.7566
G01 X36.6606 Y-36.7178
G01 X36.6612 Y-36.7114
G01 X36.6632 Y-36.6690
G01 X36.6632 Y-35.1616
G01 X36.6608 Y-35.1144
G01 X36.6543 Y-35.0708
G01 X36.6440 Y-35.0296
G01 X36.6422 Y-35.0235
G01 X36.6278 Y-34.9836
G01 X36.6097 Y-34.9452
G01 X36.6067 Y-34.9395
G01 X36.5848 Y-34.9031
G01 X36.5576 Y-34.8665
G01 X36.5269 Y-34.8327
G01 X36.0583 Y-34.3641
G01 X36.0245 Y-34.3334
G01 X35.9879 Y-34.3062
G01 X35.9515 Y-34.2843
G01 X35.9458 Y-34.2813
G01 X35.9074 Y-34.2632
G01 X35.8644 Y-34.2478
G01 X35.8202 Y-34.2367
G01 X35.7782 Y-34.2304
G01 X35.7718 Y-34.2298
G01 X35.7294 Y-34.2278
G01 X24.1347 Y-34.2278
G01 X16.1239 Y-26.2170
G01 X16.0224 Y-26.1080
G01 X15.9293 Y-25.9917
G01 X15.8474 Y-25.8711
G01 X15.7764 Y-25.7462
G01 X15.7165 Y-25.6168
G01 X15.6675 Y-25.4829
G01 X15.6293 Y-25.3444
G01 X15.6019 Y-25.2012
G01 X15.5938 Y-25.1276
G01 X19.5097 Y-21.2117
G01 X19.5449 Y-21.1730
G01 X19.5489 Y-21.1681
G01 X19.5800 Y-21.1260
G01 X19.6069 Y-21.0812
G01 X19.6099 Y-21.0756
G01 X19.6322 Y-21.0283
G01 X19.6499 Y-20.9791
G01 X19.6518 Y-20.9730
G01 X19.6637 Y-20.9254
G01 X19.6649 Y-20.9191
G01 X19.6725 Y-20.8674
G01 X19.6752 Y-20.8152
G01 X19.6752 Y-20.8088
G01 X19.6725 Y-20.7566
G01 X19.6641 Y-20.7002
G01 X19.6509 Y-20.6479
G01 X19.6334 Y-20.5987
G01 X19.6309 Y-20.5928
G01 X19.6092 Y-20.5470
G01 X19.5791 Y-20.4966
G01 X19.5479 Y-20.4547
G01 X19.5275 Y-20.4318
G01 X19.4751 Y-19.4133
G01 X19.4751 Y-15.7662
G01 X19.4789 Y-15.5608
G01 X19.4902 Y-15.3964
G01 X19.4984 Y-15.3345
G01 X19.5081 Y-15.2856
G01 X19.5183 Y-15.2516
G01 X19.5236 Y-15.2406
G01 X19.5334 Y-15.2376
G01 X19.5434 Y-15.2328
G01 X19.5512 Y-15.2272
G01 X19.5592 Y-15.2195
G01 X19.5658 Y-15.2104
G01 X19.5706 Y-15.2004
G01 X19.5734 Y-15.1912
G01 X19.5749 Y-15.1802
G01 X19.5750 Y-13.7770
G01 X19.5740 Y-13.7659
G01 X19.5712 Y-13.7551
G01 X19.5666 Y-13.7450
G01 X19.5602 Y-13.7358
G01 X19.5525 Y-13.7278
G01 X19.5434 Y-13.7212
G01 X19.5334 Y-13.7164
G01 X19.5236 Y-13.7134
G01 X19.5183 Y-13.7025
G01 X19.5081 Y-13.6683
G01 X19.4988 Y-13.6214
G01 X19.4760 Y-13.2916
G01 X19.4751 Y-13.1968
G01 X19.4750 Y-11.9394
G01 X19.4743 Y-11.9315
G01 X19.4731 Y-11.9252
G01 X19.4712 Y-11.9191
G01 X19.4688 Y-11.9132
G01 X19.4649 Y-11.9062
G01 X19.4612 Y-11.9010
G01 X19.4571 Y-11.8962
G01 X19.4512 Y-11.8908
G01 X19.4420 Y-11.8844
G01 X19.4319 Y-11.8798
G01 X19.4227 Y-11.8772
G01 X19.4116 Y-11.8760
G01 X18.8052 Y-11.8762
G01 X18.7942 Y-11.8779
G01 X18.7837 Y-11.8816
G01 X18.7739 Y-11.8870
G01 X18.7652 Y-11.8939
G01 X18.7578 Y-11.9023
G01 X18.7542 Y-11.9076
G01 X18.7512 Y-11.9132
G01 X18.7474 Y-11.9237
G01 X18.7453 Y-11.9346
G01 X18.7450 Y-11.9410
G01 X18.7449 Y-13.1877
G01 X18.7411 Y-13.3933
G01 X18.7298 Y-13.5575
G01 X18.7216 Y-13.6194
G01 X18.7119 Y-13.6683
G01 X18.7017 Y-13.7024
G01 X18.6964 Y-13.7135
G01 X18.6866 Y-13.7164
G01 X18.6766 Y-13.7212
G01 X18.6675 Y-13.7278
G01 X18.6598 Y-13.7358
G01 X18.6534 Y-13.7450
G01 X18.6488 Y-13.7551
G01 X18.6460 Y-13.7659
G01 X18.6450 Y-13.7770
G01 X18.6451 Y-15.1802
G01 X18.6466 Y-15.1912
G01 X18.6499 Y-15.2019
G01 X18.6551 Y-15.2118
G01 X18.6608 Y-15.2195
G01 X18.6688 Y-15.2272
G01 X18.6766 Y-15.2328
G01 X18.6866 Y-15.2376
G01 X18.6963 Y-15.2405
G01 X18.7018 Y-15.2517
G01 X18.7119 Y-15.2856
G01 X18.7212 Y-15.3325
G01 X18.7440 Y-15.6625
G01 X18.7449 Y-15.7571
G01 X18.7449 Y-19.4199
G01 X18.7316 Y-20.1671
G01 X18.7189 Y-20.3350
G01 X18.7116 Y-20.3876
G01 X18.7050 Y-20.4159
G01 X18.7031 Y-20.4195
G01 X15.5802 Y-23.5424
G01 X15.5802 Y-14.9310
G01 X15.5790 Y-14.9050
G01 X15.5790 Y-13.8000
G01 X15.5780 Y-13.7889
G01 X15.5752 Y-13.7781
G01 X15.5706 Y-13.7680
G01 X15.5642 Y-13.7588
G01 X15.5565 Y-13.7508
G01 X15.5474 Y-13.7442
G01 X15.5374 Y-13.7394
G01 X15.5313 Y-13.7374
G01 X15.5257 Y-13.7361
G01 X15.5199 Y-13.7245
G01 X15.5093 Y-13.6908
G01 X15.4997 Y-13.6442
G01 X15.4760 Y-13.3144
G01 X15.4751 Y-13.2198
G01 X15.4748 Y-11.9362
G01 X15.4740 Y-11.9299
G01 X15.4726 Y-11.9237
G01 X15.4688 Y-11.9132
G01 X15.4658 Y-11.9076
G01 X15.4622 Y-11.9023
G01 X15.4548 Y-11.8939
G01 X15.4500 Y-11.8898
G01 X15.4448 Y-11.8861
G01 X15.4349 Y-11.8809
G01 X15.4289 Y-11.8788
G01 X15.4227 Y-11.8772
G01 X15.4116 Y-11.8760
G01 X14.8052 Y-11.8762
G01 X14.7958 Y-11.8776
G01 X14.7866 Y-11.8804
G01 X14.7780 Y-11.8844
G01 X14.7713 Y-11.8888
G01 X14.7640 Y-11.8950
G01 X14.7578 Y-11.9023
G01 X14.7534 Y-11.9090
G01 X14.7494 Y-11.9176
G01 X14.7462 Y-11.9283
G01 X14.7453 Y-11.9346
G01 X14.7450 Y-11.9410
G01 X14.7449 Y-13.2112
G01 X14.7413 Y-13.4164
G01 X14.7304 Y-13.5809
G01 X14.7226 Y-13.6429
G01 X14.7132 Y-13.6921
G01 X14.7034 Y-13.7262
G01 X14.6984 Y-13.7369
G01 X14.6891 Y-13.7399
G01 X14.6792 Y-13.7451
G01 X14.6703 Y-13.7518
G01 X14.6628 Y-13.7600
G01 X14.6567 Y-13.7694
G01 X14.6523 Y-13.7796
G01 X14.6497 Y-13.7905
G01 X14.6490 Y-13.8000
G01 X14.6490 Y-15.2000
G01 X14.6498 Y-15.2101
G01 X14.6498 Y-24.4864
G01 X14.6441 Y-24.4943
G01 X14.6173 Y-24.5391
G01 X14.6076 Y-24.5592
G01 X2.5619 Y-12.5135
G01 X2.5619 Y7.7091
G01 X2.5671 Y7.8816
G01 X2.5834 Y8.0283
G01 X2.6094 Y8.1404
G01 X2.6427 Y8.2164
G01 X2.6777 Y8.2570
G01 X2.7125 Y8.2725
G01 X2.7595 Y8.2703
G01 X2.8275 Y8.2423
G01 X2.9144 Y8.1826
G01 X3.0149 Y8.0913
G01 X3.8669 Y7.2394
G01 X3.8776 Y7.1954
G01 X3.8794 Y7.1893
G01 X3.8938 Y7.1494
G01 X3.9133 Y7.1081
G01 X3.9368 Y7.0689
G01 X3.9620 Y7.0348
G01 X3.9661 Y7.0299
G01 X3.9947 Y6.9985
G01 X8.6021 Y2.3911
G01 X8.6347 Y2.3614
G01 X8.6699 Y2.3350
G01 X8.6752 Y2.3315
G01 X8.7117 Y2.3097
G01 X8.7530 Y2.2902
G01 X8.7929 Y2.2758
G01 X8.7990 Y2.2740
G01 X8.8402 Y2.2637
G01 X8.8822 Y2.2574
G01 X8.8886 Y2.2568
G01 X8.9310 Y2.2548
G01 X9.4751 Y2.2548
G01 X9.4818 Y2.2535
G01 X9.5005 Y2.2416
G01 X9.5227 Y2.2149
G01 X9.5461 Y2.1696
G01 X9.5679 Y2.1053
G01 X9.5866 Y2.0230
G01 X9.6013 Y1.9240
G01 X9.6081 Y1.8259
G01 X9.6075 Y1.8170
G01 X9.5909 Y1.7020
G01 X9.5680 Y1.6043
G01 X9.5396 Y1.5241
G01 X9.5066 Y1.4620
G01 X9.4702 Y1.4168
G01 X9.4314 Y1.3868
G01 X9.3886 Y1.3695
G01 X9.3599 Y1.3660
G01 X9.3344 Y1.3660
G01 X9.3280 Y1.3655
G01 X9.3187 Y1.3636
G01 X9.3097 Y1.3604
G01 X9.3026 Y1.3568
G01 X9.2973 Y1.3532
G01 X9.2923 Y1.3492
G01 X9.2868 Y1.3435
G01 X9.2820 Y1.3371
G01 X9.2787 Y1.3316
G01 X9.2754 Y1.3244
G01 X9.2734 Y1.3183
G01 X9.2717 Y1.3105
G01 X9.2710 Y1.3010
G01 X9.2711 Y0.7978
G01 X9.2717 Y0.7915
G01 X9.2734 Y0.7837
G01 X9.2754 Y0.7776
G01 X9.2787 Y0.7704
G01 X9.2829 Y0.7636
G01 X9.2878 Y0.7573
G01 X9.2935 Y0.7518
G01 X9.2986 Y0.7479
G01 X9.3068 Y0.7429
G01 X9.3156 Y0.7393
G01 X9.3249 Y0.7370
G01 X9.3344 Y0.7360
G01 X9.7443 Y0.7360
G01 X9.7582 Y0.7209
G01 X9.7897 Y0.6924
G01 X9.8262 Y0.6651
G01 X9.8667 Y0.6407
G01 X9.9065 Y0.6218
G01 X9.9510 Y0.6058
G01 X9.9952 Y0.5947
G01 X10.0404 Y0.5880
G01 X10.0860 Y0.5858
G01 X10.1316 Y0.5880
G01 X10.1768 Y0.5947
G01 X10.2210 Y0.6058
G01 X10.2655 Y0.6218
G01 X10.3053 Y0.6407
G01 X10.3458 Y0.6651
G01 X10.3823 Y0.6924
G01 X10.4138 Y0.7209
G01 X10.4277 Y0.7360
G01 X10.8392 Y0.7361
G01 X10.8502 Y0.7376
G01 X10.8564 Y0.7393
G01 X10.8623 Y0.7416
G01 X10.8721 Y0.7470
G01 X10.8808 Y0.7539
G01 X10.8852 Y0.7585
G01 X10.8891 Y0.7636
G01 X10.8926 Y0.7690
G01 X10.8954 Y0.7747
G01 X10.8977 Y0.7806
G01 X10.8994 Y0.7868
G01 X10.9005 Y0.7930
G01 X10.9010 Y0.7994
G01 X10.9010 Y1.3010
G01 X10.9003 Y1.3105
G01 X10.8982 Y1.3199
G01 X10.8954 Y1.3273
G01 X10.8926 Y1.3330
G01 X10.8882 Y1.3397
G01 X10.8842 Y1.3447
G01 X10.8797 Y1.3492
G01 X10.8734 Y1.3541
G01 X10.8680 Y1.3576
G01 X10.8609 Y1.3611
G01 X10.8518 Y1.3641
G01 X10.8424 Y1.3657
G01 X10.8121 Y1.3660
G01 X10.7834 Y1.3695
G01 X10.7406 Y1.3868
G01 X10.7018 Y1.4168
G01 X10.6654 Y1.4620
G01 X10.6324 Y1.5241
G01 X10.6040 Y1.6043
G01 X10.5811 Y1.7020
G01 X10.5660 Y1.8069
G01 X10.5833 Y1.9181
G01 X10.6076 Y2.0155
G01 X10.6380 Y2.0952
G01 X10.6733 Y2.1574
G01 X10.7124 Y2.2027
G01 X10.7550 Y2.2332
G01 X10.8028 Y2.2513
G01 X10.8347 Y2.2550
G01 X10.8626 Y2.2550
G01 X10.8705 Y2.2557
G01 X10.8768 Y2.2569
G01 X10.8829 Y2.2588
G01 X10.8902 Y2.2619
G01 X10.8958 Y2.2651
G01 X10.9022 Y2.2698
G01 X10.9081 Y2.2752
G01 X10.9132 Y2.2813
G01 X10.9176 Y2.2880
G01 X10.9211 Y2.2951
G01 X10.9236 Y2.3027
G01 X10.9253 Y2.3105
G01 X10.9260 Y2.3200
G01 X10.9260 Y3.1216
G01 X10.9253 Y3.1295
G01 X10.9241 Y3.1358
G01 X10.9216 Y3.1434
G01 X10.9191 Y3.1492
G01 X10.9159 Y3.1548
G01 X10.9112 Y3.1612
G01 X10.9070 Y3.1660
G01 X10.9022 Y3.1702
G01 X10.8930 Y3.1766
G01 X10.8829 Y3.1812
G01 X10.8721 Y3.1840
G01 X10.8610 Y3.1850
G01 X9.1237 Y3.1852
G01 X5.3901 Y6.9188
G01 X6.3000 Y6.9188
G01 X6.3440 Y6.9209
G01 X6.3715 Y6.9248
G01 X8.3792 Y6.9249
G01 X8.4216 Y6.9270
G01 X8.4652 Y6.9334
G01 X8.5110 Y6.9448
G01 X8.5425 Y6.9560
G01 X8.5704 Y6.9563
G01 X8.5798 Y6.9579
G01 X8.5889 Y6.9609
G01 X8.5946 Y6.9637
G01 X8.6001 Y6.9670
G01 X8.6052 Y6.9708
G01 X8.6100 Y6.9750
G01 X8.6142 Y6.9798
G01 X8.6180 Y6.9849
G01 X8.6213 Y6.9904
G01 X8.6244 Y6.9971
G01 X8.6358 Y7.0041
G01 X8.6711 Y7.0304
G01 X8.7026 Y7.0589
G01 X8.7090 Y7.0654
G01 X8.7188 Y7.0679
G01 X8.7651 Y7.0759
G01 X8.8880 Y7.0857
G01 X8.9556 Y7.0869
G01 X9.2426 Y7.0869
G01 X9.2670 Y7.0882
G01 X9.2943 Y7.0923
G01 X9.3210 Y7.0993
G01 X9.3424 Y7.1071
G01 X9.3631 Y7.1168
G01 X9.3687 Y7.1198
G01 X9.3883 Y7.1316
G01 X9.4104 Y7.1481
G01 X9.4285 Y7.1645
G01 X9.8008 Y7.5369
G01 X10.2760 Y7.5369
G01 X10.2988 Y7.5379
G01 X10.3052 Y7.5386
G01 X10.3277 Y7.5420
G01 X10.3514 Y7.5479
G01 X10.3760 Y7.5565
G01 X10.3880 Y7.5620
G01 X10.5308 Y7.5622
G01 X10.5402 Y7.5636
G01 X10.5479 Y7.5658
G01 X10.5566 Y7.5697
G01 X10.5647 Y7.5748
G01 X10.5708 Y7.5799
G01 X10.5762 Y7.5858
G01 X10.5809 Y7.5922
G01 X10.5841 Y7.5978
G01 X10.5872 Y7.6051
G01 X10.5894 Y7.6128
G01 X10.5905 Y7.6190
G01 X10.5910 Y7.6270
G01 X10.5909 Y7.9802
G01 X10.5903 Y7.9865
G01 X10.5891 Y7.9928
G01 X10.5872 Y7.9989
G01 X10.5848 Y8.0048
G01 X10.5818 Y8.0104
G01 X10.5782 Y8.0157
G01 X10.5742 Y8.0207
G01 X10.5697 Y8.0252
G01 X10.5621 Y8.0310
G01 X10.5538 Y8.0358
G01 X10.5449 Y8.0392
G01 X10.5355 Y8.0413
G01 X10.5260 Y8.0420
G01 X10.3880 Y8.0420
G01 X10.3760 Y8.0475
G01 X10.3545 Y8.0552
G01 X10.3293 Y8.0617
G01 X10.3020 Y8.0658
G01 X10.2776 Y8.0671
G01 X9.6894 Y8.0671
G01 X9.6618 Y8.0654
G01 X9.6393 Y8.0620
G01 X9.6156 Y8.0561
G01 X9.5896 Y8.0469
G01 X9.5689 Y8.0372
G01 X9.5633 Y8.0342
G01 X9.5437 Y8.0224
G01 X9.5253 Y8.0089
G01 X9.5059 Y7.9917
G01 X9.1312 Y7.6171
G01 X8.9579 Y7.6171
G01 X8.8882 Y7.6189
G01 X8.8243 Y7.6245
G01 X8.7720 Y7.6332
G01 X8.7619 Y7.6498
G01 X8.7366 Y7.6839
G01 X8.7061 Y7.7178
G01 X8.6711 Y7.7496
G01 X8.6371 Y7.7750
G01 X8.6290 Y7.7802
G01 X8.6290 Y7.8226
G01 X8.6280 Y7.8321
G01 X8.6257 Y7.8414
G01 X8.6228 Y7.8488
G01 X8.6189 Y7.8558
G01 X8.6142 Y7.8622
G01 X8.6100 Y7.8670
G01 X8.6052 Y7.8712
G01 X8.6001 Y7.8750
G01 X8.5932 Y7.8791
G01 X8.5874 Y7.8816
G01 X8.5813 Y7.8836
G01 X8.5735 Y7.8853
G01 X8.5672 Y7.8859
G01 X7.1624 Y7.8860
G01 X7.1545 Y7.8853
G01 X7.1467 Y7.8836
G01 X7.1391 Y7.8811
G01 X7.1320 Y7.8776
G01 X7.1253 Y7.8732
G01 X7.1192 Y7.8681
G01 X7.1138 Y7.8622
G01 X7.1087 Y7.8552
G01 X6.3060 Y7.8552
G01 X6.2620 Y7.8531
G01 X6.2345 Y7.8492
G01 X4.5728 Y7.8492
G01 X3.4961 Y8.9259
G01 X6.7820 Y8.9259
G01 X6.8514 Y8.9241
G01 X6.9149 Y8.9186
G01 X6.9694 Y8.9097
G01 X7.0145 Y8.8977
G01 X7.0500 Y8.8834
G01 X7.0759 Y8.8678
G01 X7.0936 Y8.8516
G01 X7.1046 Y8.8354
G01 X7.1110 Y8.8175
G01 X7.1111 Y8.7878
G01 X7.1126 Y8.7768
G01 X7.1159 Y8.7661
G01 X7.1187 Y8.7604
G01 X7.1220 Y8.7549
G01 X7.1268 Y8.7485
G01 X7.1312 Y8.7439
G01 X7.1373 Y8.7388
G01 X7.1426 Y8.7352
G01 X7.1482 Y8.7322
G01 X7.1541 Y8.7298
G01 X7.1602 Y8.7279
G01 X7.1680 Y8.7265
G01 X7.1760 Y8.7260
G01 X8.5792 Y8.7261
G01 X8.5855 Y8.7267
G01 X8.5918 Y8.7279
G01 X8.5979 Y8.7298
G01 X8.6038 Y8.7322
G01 X8.6094 Y8.7352
G01 X8.6147 Y8.7388
G01 X8.6231 Y8.7462
G01 X8.6300 Y8.7549
G01 X8.6354 Y8.7647
G01 X8.6377 Y8.7706
G01 X8.6398 Y8.7783
G01 X8.6407 Y8.7846
G01 X8.6410 Y8.7914
G01 X8.6444 Y8.7942
G01 X8.6618 Y8.8029
G01 X8.6901 Y8.8122
G01 X8.7287 Y8.8207
G01 X8.7759 Y8.8276
G01 X8.8996 Y8.8359
G01 X8.9665 Y8.8369
G01 X10.2776 Y8.8369
G01 X10.3020 Y8.8382
G01 X10.3293 Y8.8423
G01 X10.3545 Y8.8488
G01 X10.3760 Y8.8565
G01 X10.3880 Y8.8620
G01 X10.5276 Y8.8620
G01 X10.5371 Y8.8630
G01 X10.5449 Y8.8648
G01 X10.5538 Y8.8682
G01 X10.5621 Y8.8730
G01 X10.5697 Y8.8788
G01 X10.5762 Y8.8858
G01 X10.5818 Y8.8936
G01 X10.5866 Y8.9036
G01 X10.5894 Y8.9128
G01 X10.5908 Y8.9222
G01 X10.5910 Y9.2786
G01 X10.5900 Y9.2881
G01 X10.5877 Y9.2974
G01 X10.5841 Y9.3062
G01 X10.5791 Y9.3144
G01 X10.5752 Y9.3195
G01 X10.5708 Y9.3241
G01 X10.5660 Y9.3282
G01 X10.5608 Y9.3319
G01 X10.5552 Y9.3351
G01 X10.5494 Y9.3376
G01 X10.5433 Y9.3396
G01 X10.5371 Y9.3410
G01 X10.5260 Y9.3420
G01 X10.3880 Y9.3420
G01 X10.3760 Y9.3475
G01 X10.3545 Y9.3552
G01 X10.3293 Y9.3617
G01 X10.3020 Y9.3658
G01 X10.2792 Y9.3670
G01 X8.9700 Y9.3671
G01 X8.9006 Y9.3689
G01 X8.8371 Y9.3745
G01 X8.7828 Y9.3836
G01 X8.7378 Y9.3957
G01 X8.7023 Y9.4102
G01 X8.6764 Y9.4261
G01 X8.6588 Y9.4424
G01 X8.6476 Y9.4592
G01 X8.6410 Y9.4780
G01 X8.6410 Y9.5926
G01 X8.6398 Y9.6037
G01 X8.6366 Y9.6144
G01 X8.6326 Y9.6230
G01 X8.6272 Y9.6310
G01 X8.6208 Y9.6381
G01 X8.6134 Y9.6441
G01 X8.6052 Y9.6491
G01 X8.5964 Y9.6527
G01 X8.5871 Y9.6550
G01 X8.5776 Y9.6560
G01 X7.1760 Y9.6560
G01 X7.1680 Y9.6555
G01 X7.1602 Y9.6541
G01 X7.1541 Y9.6522
G01 X7.1482 Y9.6498
G01 X7.1426 Y9.6468
G01 X7.1373 Y9.6432
G01 X7.1312 Y9.6381
G01 X7.1258 Y9.6322
G01 X7.1220 Y9.6271
G01 X7.1166 Y9.6173
G01 X7.1143 Y9.6114
G01 X7.1126 Y9.6052
G01 X7.1111 Y9.5942
G01 X7.1110 Y9.5645
G01 X7.1046 Y9.5466
G01 X7.0936 Y9.5304
G01 X7.0759 Y9.5142
G01 X7.0500 Y9.4986
G01 X7.0145 Y9.4843
G01 X6.9694 Y9.4723
G01 X6.9149 Y9.4634
G01 X6.8514 Y9.4579
G01 X6.7820 Y9.4561
G01 X3.3824 Y9.4561
G01 X2.9129 Y9.9256
G01 X2.9370 Y9.9661
G01 X2.9804 Y10.0578
G01 X3.0157 Y10.1562
G01 X3.0416 Y10.2591
G01 X3.0570 Y10.3626
G01 X3.0621 Y10.4670
G01 X3.0621 Y11.4946
G01 X3.0568 Y11.5990
G01 X3.0416 Y11.7009
G01 X3.0255 Y11.7656
G01 X3.0255 Y12.1780
G01 X3.0204 Y12.2824
G01 X3.0050 Y12.3859
G01 X2.9805 Y12.4842
G01 X2.9750 Y12.5004
G01 X2.9750 Y13.7965
G01 X2.9744 Y13.8094
G01 X2.9725 Y13.8222
G01 X2.9693 Y13.8347
G01 X2.9650 Y13.8468
G01 X2.9602 Y13.8571
G01 X2.9537 Y13.8682
G01 X2.9471 Y13.8774
G01 X2.9431 Y13.8823
G01 X2.9342 Y13.8917
G01 X2.9269 Y13.8982
G01 X2.9166 Y13.9058
G01 X2.9055 Y13.9125
G01 X2.8938 Y13.9180
G01 X2.8817 Y13.9223
G01 X2.8692 Y13.9255
G01 X2.8564 Y13.9274
G01 X2.8467 Y13.9279
G01 X1.0765 Y13.9280
G01 X1.0652 Y13.9275
G01 X1.0508 Y13.9255
G01 X1.0399 Y13.9228
G01 X1.0277 Y13.9186
G01 X1.0174 Y13.9139
G01 X1.0117 Y13.9109
G01 X1.0008 Y13.9040
G01 X0.9919 Y13.8971
G01 X0.9824 Y13.8883
G01 X0.9748 Y13.8799
G01 X0.9672 Y13.8696
G01 X0.9605 Y13.8585
G01 X0.9550 Y13.8468
G01 X0.9507 Y13.8347
G01 X0.9475 Y13.8222
G01 X0.9456 Y13.8094
G01 X0.9451 Y13.7997
G01 X0.9450 Y12.5004
G01 X0.9395 Y12.4842
G01 X0.9157 Y12.3890
G01 X0.9144 Y12.3827
G01 X0.8996 Y12.2824
G01 X0.8945 Y12.1780
G01 X0.8946 Y11.5264
G01 X0.8998 Y11.4236
G01 X0.9150 Y11.3217
G01 X0.9311 Y11.2570
G01 X0.9311 Y10.4670
G01 X0.9364 Y10.3610
G01 X0.9516 Y10.2591
G01 X0.9761 Y10.1608
G01 X0.9780 Y10.1547
G01 X1.0122 Y10.0593
G01 X1.0555 Y9.9676
G01 X1.0585 Y9.9620
G01 X1.1098 Y9.8764
G01 X1.1730 Y9.7911
G01 X1.2443 Y9.7125
G01 X1.3219 Y9.6424
G01 X1.4033 Y9.5820
G01 X1.4313 Y9.5650
G01 X1.4313 Y-12.7476
G01 X1.4341 Y-12.8030
G01 X1.4422 Y-12.8579
G01 X1.4557 Y-12.9117
G01 X1.4744 Y-12.9639
G01 X1.4981 Y-13.0141
G01 X1.5266 Y-13.0616
G01 X1.5597 Y-13.1062
G01 X1.5969 Y-13.1473
G00 Z2.0000
G00 X1.3310 Y-20.1200
G01 F40.00
G01 Z-0.0300
G01 F100.00
G01 X1.0570 Y-20.1200
G01 X1.0570 Y-20.2440
G01 X1.1436 Y-20.2440
G01 X1.1531 Y-20.2450
G01 X1.1624 Y-20.2473
G01 X1.1698 Y-20.2502
G01 X1.1781 Y-20.2550
G01 X1.1845 Y-20.2598
G01 X1.1902 Y-20.2653
G01 X1.1951 Y-20.2716
G01 X1.1993 Y-20.2784
G01 X1.2026 Y-20.2856
G01 X1.2051 Y-20.2932
G01 X1.2065 Y-20.3010
G01 X1.2070 Y-20.3090
G01 X1.2070 Y-20.6940
G01 X1.3310 Y-20.6940
G01 X1.3310 Y-20.1200
G00 Z2.0000
G00 X0.4270 Y-20.1200
G01 F40.00
G01 Z-0.0300
G01 F100.00
G01 X0.1530 Y-20.1200
G01 X0.1530 Y-20.6940
G01 X0.2770 Y-20.6940
G01 X0.2770 Y-20.3090
G01 X0.2775 Y-20.3010
G01 X0.2789 Y-20.2932
G01 X0.2814 Y-20.2856
G01 X0.2854 Y-20.2770
G01 X0.2898 Y-20.2703
G01 X0.2949 Y-20.2642
G01 X0.3008 Y-20.2588
G01 X0.3072 Y-20.2541
G01 X0.3142 Y-20.2502
G01 X0.3216 Y-20.2473
G01 X0.3309 Y-20.2450
G01 X0.3404 Y-20.2440
G01 X0.4270 Y-20.2440
G01 X0.4270 Y-20.1200
G00 Z2.0000
G00 X0.2770 Y-21.3240
G01 F40.00
G01 Z-0.0300
G01 F100.00
G01 X0.1530 Y-21.3240
G01 X0.1530 Y-21.8980
G01 X0.4270 Y-21.8980
G01 X0.4270 Y-21.7740
G01 X0.3404 Y-21.7740
G01 X0.3309 Y-21.7730
G01 X0.3216 Y-21.7707
G01 X0.3142 Y-21.7678
G01 X0.3059 Y-21.7630
G01 X0.2995 Y-21.7582
G01 X0.2938 Y-21.7527
G01 X0.2889 Y-21.7464
G01 X0.2847 Y-21.7396
G01 X0.2814 Y-21.7324
G01 X0.2789 Y-21.7248
G01 X0.2775 Y-21.7170
G01 X0.2770 Y-21.7090
G01 X0.2770 Y-21.3240
G00 Z2.0000
G00 X1.3310 Y-21.3240
G01 F40.00
G01 Z-0.0300
G01 F100.00
G01 X1.2070 Y-21.3240
G01 X1.2070 Y-21.7090
G01 X1.2065 Y-21.7170
G01 X1.2051 Y-21.7248
G01 X1.2026 Y-21.7324
G01 X1.1993 Y-21.7396
G01 X1.1951 Y-21.7464
G01 X1.1891 Y-21.7538
G01 X1.1832 Y-21.7592
G01 X1.1768 Y-21.7639
G01 X1.1698 Y-21.7678
G01 X1.1624 Y-21.7707
G01 X1.1531 Y-21.7730
G01 X1.1436 Y-21.7740
G01 X1.0570 Y-21.7740
G01 X1.0570 Y-21.8980
G01 X1.3310 Y-21.8980
G01 X1.3310 Y-21.3240
G00 Z2.0000
G00 X1.3070 Y-22.6960
G01 F40.00
G01 Z-0.0300
G01 F100.00
G01 X1.0330 Y-22.6960
G01 X1.0330 Y-22.8200
G01 X1.1196 Y-22.8200
G01 X1.1291 Y-22.8210
G01 X1.1384 Y-22.8233
G01 X1.1458 Y-22.8262
G01 X1.1541 Y-22.8310
G01 X1.1605 Y-22.8358
G01 X1.1662 Y-22.8413
G01 X1.1711 Y-22.8476
G01 X1.1753 Y-22.8544
G01 X1.1786 Y-22.8616
G01 X1.1811 Y-22.8692
G01 X1.1825 Y-22.8770
G01 X1.1830 Y-22.8850
G01 X1.1830 Y-23.2700
G01 X1.3070 Y-23.2700
G01 X1.3070 Y-22.6960
G00 Z2.0000
G00 X1.3070 Y-23.9000
G01 F40.00
G01 Z-0.0300
G01 F100.00
G01 X1.1830 Y-23.9000
G01 X1.1830 Y-24.2850
G01 X1.1825 Y-24.2930
G01 X1.1811 Y-24.3008
G01 X1.1786 Y-24.3084
G01 X1.1753 Y-24.3156
G01 X1.1711 Y-24.3224
G01 X1.1651 Y-24.3298
G01 X1.1592 Y-24.3352
G01 X1.1528 Y-24.3399
G01 X1.1458 Y-24.3438
G01 X1.1384 Y-24.3467
G01 X1.1291 Y-24.3490
G01 X1.1196 Y-24.3500
G01 X1.0330 Y-24.3500
G01 X1.0330 Y-24.4740
G01 X1.3070 Y-24.4740
G01 X1.3070 Y-23.9000
G00 Z2.0000
G00 X1.3150 Y-25.3910
G01 F40.00
G01 Z-0.0300
G01 F100.00
G01 X0.9410 Y-25.3910
G01 X0.9410 Y-26.2650
G01 X1.0650 Y-26.2650
G01 X1.0650 Y-25.5800
G01 X1.0653 Y-25.5736
G01 X1.0662 Y-25.5673
G01 X1.0678 Y-25.5611
G01 X1.0699 Y-25.5551
G01 X1.0734 Y-25.5480
G01 X1.0788 Y-25.5400
G01 X1.0840 Y-25.5340
G01 X1.0900 Y-25.5288
G01 X1.0966 Y-25.5242
G01 X1.1037 Y-25.5206
G01 X1.1111 Y-25.5178
G01 X1.1189 Y-25.5160
G01 X1.1300 Y-25.5150
G01 X1.3150 Y-25.5150
G01 X1.3150 Y-25.3910
G00 Z2.0000
G00 X2.3190 Y-25.3910
G01 F40.00
G01 Z-0.0300
G01 F100.00
G01 X1.9450 Y-25.3910
G01 X1.9450 Y-25.5150
G01 X2.1300 Y-25.5150
G01 X2.1364 Y-25.5153
G01 X2.1427 Y-25.5162
G01 X2.1519 Y-25.5188
G01 X2.1592 Y-25.5219
G01 X2.1674 Y-25.5269
G01 X2.1748 Y-25.5329
G01 X2.1812 Y-25.5400
G01 X2.1858 Y-25.5466
G01 X2.1894 Y-25.5537
G01 X2.1926 Y-25.5627
G01 X2.1945 Y-25.5720
G01 X2.1950 Y-25.5800
G01 X2.1950 Y-26.2650
G01 X2.3190 Y-26.2650
G01 X2.3190 Y-25.3910
G00 Z2.0000
G00 X2.3190 Y-26.8950
G01 F40.00
G01 Z-0.0300
G01 F100.00
G01 X2.1950 Y-26.8950
G01 X2.1950 Y-27.5800
G01 X2.1947 Y-27.5864
G01 X2.1938 Y-27.5927
G01 X2.1922 Y-27.5989
G01 X2.1901 Y-27.6049
G01 X2.1858 Y-27.6134
G01 X2.1812 Y-27.6200
G01 X2.1760 Y-27.6260
G01 X2.1700 Y-27.6312
G01 X2.1634 Y-27.6358
G01 X2.1563 Y-27.6394
G01 X2.1489 Y-27.6422
G01 X2.1411 Y-27.6440
G01 X2.1300 Y-27.6450
G01 X1.9450 Y-27.6450
G01 X1.9450 Y-27.7690
G01 X2.3190 Y-27.7690
G01 X2.3190 Y-26.8950
G00 Z2.0000
G00 X1.0650 Y-26.8950
G01 F40.00
G01 Z-0.0300
G01 F100.00
G01 X0.9410 Y-26.8950
G01 X0.9410 Y-27.7690
G01 X1.3150 Y-27.7690
G01 X1.3150 Y-27.6450
G01 X1.1300 Y-27.6450
G01 X1.1236 Y-27.6447
G01 X1.1173 Y-27.6438
G01 X1.1081 Y-27.6412
G01 X1.1008 Y-27.6381
G01 X1.0926 Y-27.6331
G01 X1.0852 Y-27.6271
G01 X1.0788 Y-27.6200
G01 X1.0742 Y-27.6134
G01 X1.0706 Y-27.6063
G01 X1.0674 Y-27.5973
G01 X1.0655 Y-27.5880
G01 X1.0650 Y-27.5800
G01 X1.0650 Y-26.8950
G00 Z2.0000
G00 X1.0320 Y-31.9686
G01 F40.00
G01 Z-0.0300
G01 F100.00
G01 X0.8044 Y-32.0139
G01 X0.4970 Y-32.1412
G01 X0.2203 Y-32.3261
G01 X-0.0149 Y-32.5613
G01 X-0.1998 Y-32.8380
G01 X-0.3271 Y-33.1454
G01 X-0.3724 Y-33.3730
G01 X-0.2440 Y-33.3730
G01 X-0.2376 Y-33.3311
G01 X-0.2001 Y-33.1822
G01 X-0.1489 Y-33.0391
G01 X-0.0839 Y-32.9017
G01 X-0.0060 Y-32.7712
G01 X-0.0024 Y-32.7659
G01 X0.0872 Y-32.6452
G01 X0.1904 Y-32.5314
G01 X0.3042 Y-32.4282
G01 X0.4249 Y-32.3386
G01 X0.4302 Y-32.3350
G01 X0.5607 Y-32.2571
G01 X0.6981 Y-32.1921
G01 X0.8412 Y-32.1409
G01 X0.9901 Y-32.1034
G01 X1.0320 Y-32.0970
G01 X1.0320 Y-31.9686
G00 Z2.0000
G00 X1.5620 Y-31.9686
G01 F40.00
G01 Z-0.0300
G01 F100.00
G01 X1.5620 Y-32.0970
G01 X1.6039 Y-32.1034
G01 X1.7528 Y-32.1409
G01 X1.8959 Y-32.1921
G01 X2.0333 Y-32.2571
G01 X2.1638 Y-32.3350
G01 X2.1691 Y-32.3386
G01 X2.2898 Y-32.4282
G01 X2.4036 Y-32.5314
G01 X2.5068 Y-32.6452
G01 X2.5964 Y-32.7659
G01 X2.6000 Y-32.7712
G01 X2.6779 Y-32.9017
G01 X2.7429 Y-33.0391
G01 X2.7941 Y-33.1822
G01 X2.8316 Y-33.3311
G01 X2.8380 Y-33.3730
G01 X2.9664 Y-33.3730
G01 X2.9211 Y-33.1454
G01 X2.7938 Y-32.8380
G01 X2.6089 Y-32.5613
G01 X2.3737 Y-32.3261
G01 X2.0970 Y-32.1412
G01 X1.7896 Y-32.0139
G01 X1.5620 Y-31.9686
G00 Z2.0000
G00 X2.9664 Y-33.9030
G01 F40.00
G01 Z-0.0300
G01 F100.00
G01 X2.8380 Y-33.9030
G01 X2.8316 Y-33.9449
G01 X2.7941 Y-34.0938
G01 X2.7429 Y-34.2369
G01 X2.6779 Y-34.3743
G01 X2.6000 Y-34.5048
G01 X2.5964 Y-34.5101
G01 X2.5068 Y-34.6308
G01 X2.4036 Y-34.7446
G01 X2.2898 Y-34.8478
G01 X2.1691 Y-34.9374
G01 X2.1638 Y-34.9410
G01 X2.0333 Y-35.0189
G01 X1.8959 Y-35.0839
G01 X1.7528 Y-35.1351
G01 X1.6039 Y-35.1726
G01 X1.5620 Y-35.1790
G01 X1.5620 Y-35.3074
G01 X1.7896 Y-35.2621
G01 X2.0970 Y-35.1348
G01 X2.3737 Y-34.9499
G01 X2.6089 Y-34.7147
G01 X2.7938 Y-34.4380
G01 X2.9211 Y-34.1306
G01 X2.9664 Y-33.9030
G00 Z2.0000
G00 X-0.2440 Y-33.9030
G01 F40.00
G01 Z-0.0300
G01 F100.00
G01 X-0.3724 Y-33.9030
G01 X-0.3271 Y-34.1306
G01 X-0.1998 Y-34.4380
G01 X-0.0149 Y-34.7147
G01 X0.2203 Y-34.9499
G01 X0.4970 Y-35.1348
G01 X0.8044 Y-35.2621
G01 X1.0320 Y-35.3074
G01 X1.0320 Y-35.1790
G01 X0.9901 Y-35.1726
G01 X0.8412 Y-35.1351
G01 X0.6981 Y-35.0839
G01 X0.5607 Y-35.0189
G01 X0.4275 Y-34.9392
G01 X0.3067 Y-34.8497
G01 X0.3018 Y-34.8457
G01 X0.1927 Y-34.7468
G01 X0.1882 Y-34.7423
G01 X0.0872 Y-34.6308
G01 X-0.0024 Y-34.5101
G01 X-0.0060 Y-34.5048
G01 X-0.0839 Y-34.3743
G01 X-0.1489 Y-34.2369
G01 X-0.2001 Y-34.0938
G01 X-0.2376 Y-33.9449
G01 X-0.2440 Y-33.9030
G00 Z2.0000
G00 X-0.0750 Y-40.2950
G01 F40.00
G01 Z-0.0300
G01 F100.00
G01 X-1.7450 Y-40.2950
G01 X-1.7450 Y-42.9650
G01 X-0.0750 Y-42.9650
G01 X-0.0750 Y-40.2950
G00 Z2.0000
G00 X-1.4750 Y-40.6300
G01 F40.00
G01 Z-0.0300
G01 F100.00
G01 X-1.4750 Y-42.6300
G01 X-1.4745 Y-42.6380
G01 X-1.4731 Y-42.6458
G01 X-1.4706 Y-42.6534
G01 X-1.4673 Y-42.6606
G01 X-1.4631 Y-42.6674
G01 X-1.4582 Y-42.6737
G01 X-1.4512 Y-42.6802
G01 X-1.4448 Y-42.6849
G01 X-1.4363 Y-42.6894
G01 X-1.4289 Y-42.6922
G01 X-1.4195 Y-42.6943
G01 X-1.4116 Y-42.6950
G01 X-0.4100 Y-42.6950
G01 X-0.4020 Y-42.6945
G01 X-0.3942 Y-42.6931
G01 X-0.3866 Y-42.6906
G01 X-0.3794 Y-42.6873
G01 X-0.3726 Y-42.6831
G01 X-0.3652 Y-42.6771
G01 X-0.3598 Y-42.6712
G01 X-0.3542 Y-42.6634
G01 X-0.3506 Y-42.6563
G01 X-0.3478 Y-42.6489
G01 X-0.3460 Y-42.6411
G01 X-0.3450 Y-42.6316
G01 X-0.3450 Y-40.6300
G01 X-0.3455 Y-40.6220
G01 X-0.3469 Y-40.6142
G01 X-0.3494 Y-40.6066
G01 X-0.3527 Y-40.5994
G01 X-0.3569 Y-40.5926
G01 X-0.3629 Y-40.5852
G01 X-0.3688 Y-40.5798
G01 X-0.3752 Y-40.5751
G01 X-0.3822 Y-40.5712
G01 X-0.3911 Y-40.5678
G01 X-0.4005 Y-40.5657
G01 X-0.4084 Y-40.5650
G01 X-1.4116 Y-40.5650
G01 X-1.4180 Y-40.5655
G01 X-1.4242 Y-40.5666
G01 X-1.4304 Y-40.5683
G01 X-1.4363 Y-40.5706
G01 X-1.4420 Y-40.5734
G01 X-1.4474 Y-40.5769
G01 X-1.4525 Y-40.5808
G01 X-1.4571 Y-40.5852
G01 X-1.4640 Y-40.5939
G01 X-1.4673 Y-40.5994
G01 X-1.4701 Y-40.6051
G01 X-1.4722 Y-40.6111
G01 X-1.4738 Y-40.6173
G01 X-1.4747 Y-40.6236
G01 X-1.4750 Y-40.6300
G00 Z2.0000
G00 X-2.6150 Y-40.2950
G01 F40.00
G01 Z-0.0300
G01 F100.00
G01 X-4.2850 Y-40.2950
G01 X-4.2850 Y-42.9650
G01 X-2.6150 Y-42.9650
G01 X-2.6150 Y-40.2950
G00 Z2.0000
G00 X-4.0150 Y-40.6300
G01 F40.00
G01 Z-0.0300
G01 F100.00
G01 X-4.0150 Y-42.6300
G01 X-4.0145 Y-42.6380
G01 X-4.0131 Y-42.6458
G01 X-4.0106 Y-42.6534
G01 X-4.0073 Y-42.6606
G01 X-4.0022 Y-42.6687
G01 X-3.9971 Y-42.6748
G01 X-3.9900 Y-42.6812
G01 X-3.9834 Y-42.6858
G01 X-3.9763 Y-42.6894
G01 X-3.9689 Y-42.6922
G01 X-3.9595 Y-42.6943
G01 X-3.9516 Y-42.6950
G01 X-2.9500 Y-42.6950
G01 X-2.9420 Y-42.6945
G01 X-2.9342 Y-42.6931
G01 X-2.9266 Y-42.6906
G01 X-2.9194 Y-42.6873
G01 X-2.9113 Y-42.6822
G01 X-2.9052 Y-42.6771
G01 X-2.8998 Y-42.6712
G01 X-2.8942 Y-42.6634
G01 X-2.8906 Y-42.6563
G01 X-2.8878 Y-42.6489
G01 X-2.8860 Y-42.6411
G01 X-2.8850 Y-42.6316
G01 X-2.8850 Y-40.6300
G01 X-2.8855 Y-40.6220
G01 X-2.8869 Y-40.6142
G01 X-2.8894 Y-40.6066
G01 X-2.8927 Y-40.5994
G01 X-2.8969 Y-40.5926
G01 X-2.9029 Y-40.5852
G01 X-2.9088 Y-40.5798
G01 X-2.9152 Y-40.5751
G01 X-2.9222 Y-40.5712
G01 X-2.9311 Y-40.5678
G01 X-2.9405 Y-40.5657
G01 X-2.9484 Y-40.5650
G01 X-3.9516 Y-40.5650
G01 X-3.9580 Y-40.5655
G01 X-3.9642 Y-40.5666
G01 X-3.9704 Y-40.5683
G01 X-3.9763 Y-40.5706
G01 X-3.9820 Y-40.5734
G01 X-3.9874 Y-40.5769
G01 X-3.9925 Y-40.5808
G01 X-3.9971 Y-40.5852
G01 X-4.0040 Y-40.5939
G01 X-4.0073 Y-40.5994
G01 X-4.0101 Y-40.6051
G01 X-4.0122 Y-40.6111
G01 X-4.0138 Y-40.6173
G01 X-4.0147 Y-40.6236
G01 X-4.0150 Y-40.6300
G00 Z2.0000
G00 X-5.1550 Y-40.2950
G01 F40.00
G01 Z-0.0300
G01 F100.00
G01 X-6.8250 Y-40.2950
G01 X-6.8250 Y-42.9650
G01 X-5.1550 Y-42.9650
G01 X-5.1550 Y-40.2950
G00 Z2.0000
G00 X-6.5550 Y-40.6300
G01 F40.00
G01 Z-0.0300
G01 F100.00
G01 X-6.5550 Y-42.6300
G01 X-6.5545 Y-42.6380
G01 X-6.5531 Y-42.6458
G01 X-6.5506 Y-42.6534
G01 X-6.5473 Y-42.6606
G01 X-6.5431 Y-42.6674
G01 X-6.5371 Y-42.6748
G01 X-6.5300 Y-42.6812
G01 X-6.5234 Y-42.6858
G01 X-6.5163 Y-42.6894
G01 X-6.5089 Y-42.6922
G01 X-6.4995 Y-42.6943
G01 X-6.4916 Y-42.6950
G01 X-5.4900 Y-42.6950
G01 X-5.4820 Y-42.6945
G01 X-5.4742 Y-42.6931
G01 X-5.4666 Y-42.6906
G01 X-5.4594 Y-42.6873
G01 X-5.4513 Y-42.6822
G01 X-5.4452 Y-42.6771
G01 X-5.4388 Y-42.6700
G01 X-5.4342 Y-42.6634
G01 X-5.4306 Y-42.6563
G01 X-5.4278 Y-42.6489
G01 X-5.4260 Y-42.6411
G01 X-5.4250 Y-42.6316
G01 X-5.4250 Y-40.6300
G01 X-5.4255 Y-40.6220
G01 X-5.4269 Y-40.6142
G01 X-5.4294 Y-40.6066
G01 X-5.4327 Y-40.5994
G01 X-5.4369 Y-40.5926
G01 X-5.4429 Y-40.5852
G01 X-5.4488 Y-40.5798
G01 X-5.4552 Y-40.5751
G01 X-5.4622 Y-40.5712
G01 X-5.4711 Y-40.5678
G01 X-5.4805 Y-40.5657
G01 X-5.4884 Y-40.5650
G01 X-6.4916 Y-40.5650
G01 X-6.4980 Y-40.5655
G01 X-6.5042 Y-40.5666
G01 X-6.5104 Y-40.5683
G01 X-6.5163 Y-40.5706
G01 X-6.5220 Y-40.5734
G01 X-6.5274 Y-40.5769
G01 X-6.5325 Y-40.5808
G01 X-6.5371 Y-40.5852
G01 X-6.5440 Y-40.5939
G01 X-6.5473 Y-40.5994
G01 X-6.5501 Y-40.6051
G01 X-6.5522 Y-40.6111
G01 X-6.5538 Y-40.6173
G01 X-6.5547 Y-40.6236
G01 X-6.5550 Y-40.6300
G00 Z2.0000
G00 X-11.5700 Y-38.6310
G01 F40.00
G01 Z-0.0300
G01 F100.00
G01 X-11.6940 Y-38.6310
G01 X-11.6940 Y-38.8660
G01 X-11.6943 Y-38.8724
G01 X-11.6956 Y-38.8802
G01 X-11.6978 Y-38.8879
G01 X-11.7002 Y-38.8938
G01 X-11.7041 Y-38.9008
G01 X-11.7078 Y-38.9060
G01 X-11.7130 Y-38.9120
G01 X-11.7190 Y-38.9172
G01 X-11.7256 Y-38.9218
G01 X-11.7341 Y-38.9261
G01 X-11.7417 Y-38.9286
G01 X-11.7495 Y-38.9303
G01 X-11.7574 Y-38.9310
G01 X-12.2940 Y-38.9310
G01 X-12.2940 Y-39.0550
G01 X-11.5700 Y-39.0550
G01 X-11.5700 Y-38.6310
G00 Z2.0000
G00 X-11.5700 Y-37.5770
G01 F40.00
G01 Z-0.0300
G01 F100.00
G01 X-12.2940 Y-37.5770
G01 X-12.2940 Y-37.7010
G01 X-11.7590 Y-37.7010
G01 X-11.7526 Y-37.7013
G01 X-11.7463 Y-37.7022
G01 X-11.7401 Y-37.7038
G01 X-11.7341 Y-37.7059
G01 X-11.7270 Y-37.7094
G01 X-11.7203 Y-37.7138
G01 X-11.7142 Y-37.7189
G01 X-11.7078 Y-37.7260
G01 X-11.7032 Y-37.7326
G01 X-11.6996 Y-37.7397
G01 X-11.6964 Y-37.7487
G01 X-11.6947 Y-37.7565
G01 X-11.6940 Y-37.7660
G01 X-11.6940 Y-38.0010
G01 X-11.5700 Y-38.0010
G01 X-11.5700 Y-37.5770
G00 Z2.0000
G00 X-12.9240 Y-37.5770
G01 F40.00
G01 Z-0.0300
G01 F100.00
G01 X-13.6480 Y-37.5770
G01 X-13.6480 Y-38.0010
G01 X-13.5240 Y-38.0010
G01 X-13.5240 Y-37.7660
G01 X-13.5237 Y-37.7596
G01 X-13.5224 Y-37.7518
G01 X-13.5202 Y-37.7441
G01 X-13.5178 Y-37.7382
G01 X-13.5139 Y-37.7312
G01 X-13.5102 Y-37.7260
G01 X-13.5050 Y-37.7200
G01 X-13.4990 Y-37.7148
G01 X-13.4924 Y-37.7102
G01 X-13.4839 Y-37.7059
G01 X-13.4763 Y-37.7034
G01 X-13.4685 Y-37.7017
G01 X-13.4606 Y-37.7010
G01 X-12.9240 Y-37.7010
G01 X-12.9240 Y-37.5770
G00 Z2.0000
G00 X-13.5240 Y-38.6310
G01 F40.00
G01 Z-0.0300
G01 F100.00
G01 X-13.6480 Y-38.6310
G01 X-13.6480 Y-39.0550
G01 X-12.9240 Y-39.0550
G01 X-12.9240 Y-38.9310
G01 X-13.4606 Y-38.9310
G01 X-13.4701 Y-38.9300
G01 X-13.4794 Y-38.9277
G01 X-13.4882 Y-38.9241
G01 X-13.4964 Y-38.9191
G01 X-13.5015 Y-38.9152
G01 X-13.5061 Y-38.9108
G01 X-13.5102 Y-38.9060
G01 X-13.5148 Y-38.8994
G01 X-13.5184 Y-38.8923
G01 X-13.5207 Y-38.8864
G01 X-13.5224 Y-38.8802
G01 X-13.5237 Y-38.8724
G01 X-13.5240 Y-38.8660
G01 X-13.5240 Y-38.6310
G00 Z2.0000
G00 X-13.5710 Y-32.9590
G01 F40.00
G01 Z-0.0300
G01 F100.00
G01 X-13.5710 Y-34.1590
G01 X-13.5707 Y-34.1654
G01 X-13.5698 Y-34.1717
G01 X-13.5677 Y-34.1794
G01 X-13.5648 Y-34.1868
G01 X-13.5618 Y-34.1924
G01 X-13.5572 Y-34.1990
G01 X-13.5520 Y-34.2050
G01 X-13.5460 Y-34.2102
G01 X-13.5408 Y-34.2139
G01 X-13.5338 Y-34.2178
G01 X-13.5233 Y-34.2216
G01 X-13.5140 Y-34.2235
G01 X-13.5076 Y-34.2240
G01 X-13.4842 Y-34.2240
G01 X-13.4457 Y-34.2292
G01 X-13.3954 Y-34.2515
G01 X-13.3491 Y-34.2906
G01 X-13.3058 Y-34.3496
G01 X-13.2669 Y-34.4302
G01 X-13.2337 Y-34.5327
G01 X-13.2074 Y-34.6560
G01 X-13.1941 Y-34.7909
G01 X-13.2032 Y-34.8694
G01 X-13.2265 Y-34.9941
G01 X-13.2560 Y-35.0973
G01 X-13.2905 Y-35.1784
G01 X-13.3286 Y-35.2373
G01 X-13.3685 Y-35.2754
G01 X-13.4098 Y-35.2964
G01 X-13.4407 Y-35.3010
G01 X-13.4606 Y-35.3010
G01 X-13.4685 Y-35.3017
G01 X-13.4794 Y-35.3043
G01 X-13.4882 Y-35.3079
G01 X-13.4951 Y-35.3120
G01 X-13.5015 Y-35.3168
G01 X-13.5072 Y-35.3223
G01 X-13.5112 Y-35.3273
G01 X-13.5148 Y-35.3326
G01 X-13.5184 Y-35.3397
G01 X-13.5212 Y-35.3471
G01 X-13.5228 Y-35.3533
G01 X-13.5237 Y-35.3596
G01 X-13.5240 Y-35.3660
G01 X-13.5240 Y-36.4660
G01 X-13.5237 Y-36.4724
G01 X-13.5224 Y-36.4802
G01 X-13.5202 Y-36.4879
G01 X-13.5171 Y-36.4952
G01 X-13.5121 Y-36.5034
G01 X-13.5072 Y-36.5097
G01 X-13.5002 Y-36.5162
G01 X-13.4938 Y-36.5209
G01 X-13.4853 Y-36.5254
G01 X-13.4779 Y-36.5282
G01 X-13.4685 Y-36.5303
G01 X-13.4606 Y-36.5310
G01 X-11.7590 Y-36.5310
G01 X-11.7510 Y-36.5305
G01 X-11.7432 Y-36.5291
G01 X-11.7356 Y-36.5266
G01 X-11.7298 Y-36.5241
G01 X-11.7229 Y-36.5200
G01 X-11.7153 Y-36.5142
G01 X-11.7088 Y-36.5072
G01 X-11.7041 Y-36.5008
G01 X-11.6996 Y-36.4923
G01 X-11.6968 Y-36.4849
G01 X-11.6950 Y-36.4771
G01 X-11.6940 Y-36.4676
G01 X-11.6940 Y-35.3660
G01 X-11.6950 Y-35.3549
G01 X-11.6968 Y-35.3471
G01 X-11.6989 Y-35.3411
G01 X-11.7024 Y-35.3340
G01 X-11.7068 Y-35.3273
G01 X-11.7108 Y-35.3223
G01 X-11.7165 Y-35.3168
G01 X-11.7229 Y-35.3120
G01 X-11.7298 Y-35.3079
G01 X-11.7401 Y-35.3038
G01 X-11.7495 Y-35.3017
G01 X-11.7574 Y-35.3010
G01 X-11.7770 Y-35.3010
G01 X-11.8075 Y-35.2964
G01 X-11.8482 Y-35.2756
G01 X-11.8876 Y-35.2375
G01 X-11.9254 Y-35.1786
G01 X-11.9596 Y-35.0974
G01 X-11.9888 Y-34.9942
G01 X-12.0119 Y-34.8703
G01 X-12.0213 Y-34.7611
G01 X-12.0075 Y-34.6571
G01 X-11.9809 Y-34.5328
G01 X-11.9475 Y-34.4303
G01 X-11.9083 Y-34.3498
G01 X-11.8646 Y-34.2908
G01 X-11.8178 Y-34.2517
G01 X-11.7669 Y-34.2292
G01 X-11.7280 Y-34.2240
G01 X-11.7044 Y-34.2240
G01 X-11.6980 Y-34.2235
G01 X-11.6887 Y-34.2216
G01 X-11.6797 Y-34.2184
G01 X-11.6726 Y-34.2148
G01 X-11.6673 Y-34.2112
G01 X-11.6612 Y-34.2061
G01 X-11.6558 Y-34.2002
G01 X-11.6511 Y-34.1938
G01 X-11.6472 Y-34.1868
G01 X-11.6443 Y-34.1794
G01 X-11.6422 Y-34.1717
G01 X-11.6413 Y-34.1654
G01 X-11.6410 Y-34.1590
G01 X-11.6410 Y-32.9590
G01 X-11.6415 Y-32.9510
G01 X-11.6426 Y-32.9448
G01 X-11.6448 Y-32.9371
G01 X-11.6479 Y-32.9298
G01 X-11.6520 Y-32.9229
G01 X-11.6578 Y-32.9153
G01 X-11.6648 Y-32.9088
G01 X-11.6712 Y-32.9041
G01 X-11.6797 Y-32.8996
G01 X-11.6871 Y-32.8968
G01 X-11.6965 Y-32.8947
G01 X-11.7044 Y-32.8940
G01 X-13.5076 Y-32.8940
G01 X-13.5140 Y-32.8945
G01 X-13.5202 Y-32.8956
G01 X-13.5264 Y-32.8973
G01 X-13.5323 Y-32.8996
G01 X-13.5380 Y-32.9024
G01 X-13.5434 Y-32.9059
G01 X-13.5485 Y-32.9098
G01 X-13.5531 Y-32.9142
G01 X-13.5572 Y-32.9190
G01 X-13.5609 Y-32.9242
G01 X-13.5641 Y-32.9298
G01 X-13.5666 Y-32.9356
G01 X-13.5698 Y-32.9463
G01 X-13.5707 Y-32.9526
G01 X-13.5710 Y-32.9590
G00 Z2.0000
G00 X-13.5710 Y-30.5590
G01 F40.00
G01 Z-0.0300
G01 F100.00
G01 X-13.5710 Y-31.7606
G01 X-13.5703 Y-31.7685
G01 X-13.5686 Y-31.7763
G01 X-13.5661 Y-31.7839
G01 X-13.5626 Y-31.7910
G01 X-13.5582 Y-31.7977
G01 X-13.5531 Y-31.8038
G01 X-13.5472 Y-31.8092
G01 X-13.5408 Y-31.8139
G01 X-13.5323 Y-31.8184
G01 X-13.5233 Y-31.8216
G01 X-13.5155 Y-31.8233
G01 X-13.5060 Y-31.8240
G01 X-11.7060 Y-31.8240
G01 X-11.6980 Y-31.8235
G01 X-11.6902 Y-31.8221
G01 X-11.6841 Y-31.8202
G01 X-11.6768 Y-31.8171
G01 X-11.6699 Y-31.8130
G01 X-11.6635 Y-31.8082
G01 X-11.6578 Y-31.8027
G01 X-11.6529 Y-31.7964
G01 X-11.6472 Y-31.7868
G01 X-11.6438 Y-31.7779
G01 X-11.6417 Y-31.7685
G01 X-11.6410 Y-31.7590
G01 X-11.6410 Y-30.5590
G01 X-11.6413 Y-30.5526
G01 X-11.6422 Y-30.5463
G01 X-11.6443 Y-30.5386
G01 X-11.6466 Y-30.5327
G01 X-11.6502 Y-30.5256
G01 X-11.6548 Y-30.5190
G01 X-11.6600 Y-30.5130
G01 X-11.6660 Y-30.5078
G01 X-11.6726 Y-30.5032
G01 X-11.6797 Y-30.4996
G01 X-11.6887 Y-30.4964
G01 X-11.6980 Y-30.4945
G01 X-11.7044 Y-30.4940
G01 X-11.7274 Y-30.4940
G01 X-11.7667 Y-30.4888
G01 X-11.8171 Y-30.4664
G01 X-11.8638 Y-30.4272
G01 X-11.9072 Y-30.3683
G01 X-11.9464 Y-30.2877
G01 X-11.9796 Y-30.1851
G01 X-12.0060 Y-30.0621
G01 X-12.0371 Y-29.7482
G01 X-12.0407 Y-29.5732
G01 X-12.0407 Y-27.3451
G01 X-9.5319 Y-24.8363
G01 X-7.2911 Y-24.8363
G01 X-6.5553 Y-25.5721
G01 X-6.5550 Y-27.5816
G01 X-6.5538 Y-27.5927
G01 X-6.5522 Y-27.5989
G01 X-6.5501 Y-27.6049
G01 X-6.5473 Y-27.6106
G01 X-6.5440 Y-27.6161
G01 X-6.5371 Y-27.6248
G01 X-6.5325 Y-27.6292
G01 X-6.5274 Y-27.6331
G01 X-6.5178 Y-27.6388
G01 X-6.5119 Y-27.6412
G01 X-6.5058 Y-27.6431
G01 X-6.4995 Y-27.6443
G01 X-6.4932 Y-27.6449
G01 X-5.4868 Y-27.6449
G01 X-5.4773 Y-27.6438
G01 X-5.4681 Y-27.6412
G01 X-5.4594 Y-27.6373
G01 X-5.4513 Y-27.6322
G01 X-5.4440 Y-27.6260
G01 X-5.4378 Y-27.6187
G01 X-5.4327 Y-27.6106
G01 X-5.4288 Y-27.6019
G01 X-5.4260 Y-27.5911
G01 X-5.4250 Y-27.5800
G01 X-5.4248 Y-25.3364
G01 X-5.4275 Y-25.2826
G01 X-5.4351 Y-25.2309
G01 X-5.4363 Y-25.2246
G01 X-5.4491 Y-25.1739
G01 X-5.4678 Y-25.1217
G01 X-5.4901 Y-25.0744
G01 X-5.4931 Y-25.0688
G01 X-5.5209 Y-25.0226
G01 X-5.5531 Y-24.9794
G01 X-5.5903 Y-24.9383
G01 X-6.6584 Y-23.8702
G01 X-6.6960 Y-23.8361
G01 X-6.7009 Y-23.8321
G01 X-6.7430 Y-23.8010
G01 X-6.7878 Y-23.7741
G01 X-6.7934 Y-23.7711
G01 X-6.8407 Y-23.7488
G01 X-6.8944 Y-23.7296
G01 X-6.9467 Y-23.7166
G01 X-6.9984 Y-23.7089
G01 X-7.0048 Y-23.7082
G01 X-7.0570 Y-23.7057
G01 X-9.7676 Y-23.7058
G01 X-9.8214 Y-23.7085
G01 X-9.8731 Y-23.7161
G01 X-9.8794 Y-23.7173
G01 X-9.9301 Y-23.7301
G01 X-9.9823 Y-23.7488
G01 X-10.0296 Y-23.7711
G01 X-10.0352 Y-23.7741
G01 X-10.0814 Y-23.8019
G01 X-10.1246 Y-23.8341
G01 X-10.1657 Y-23.8713
G01 X-13.0057 Y-26.7113
G01 X-13.0429 Y-26.7524
G01 X-13.0742 Y-26.7944
G01 X-13.0777 Y-26.7997
G01 X-13.1052 Y-26.8460
G01 X-13.1269 Y-26.8918
G01 X-13.1294 Y-26.8977
G01 X-13.1469 Y-26.9469
G01 X-13.1597 Y-26.9976
G01 X-13.1609 Y-27.0039
G01 X-13.1685 Y-27.0556
G01 X-13.1712 Y-27.1094
G01 X-13.1713 Y-29.5732
G01 X-13.1750 Y-29.7491
G01 X-13.1866 Y-29.9156
G01 X-13.2058 Y-30.0610
G01 X-13.2324 Y-30.1851
G01 X-13.2656 Y-30.2877
G01 X-13.3048 Y-30.3683
G01 X-13.3482 Y-30.4272
G01 X-13.3948 Y-30.4664
G01 X-13.4453 Y-30.4888
G01 X-13.4846 Y-30.4940
G01 X-13.5076 Y-30.4940
G01 X-13.5155 Y-30.4947
G01 X-13.5264 Y-30.4973
G01 X-13.5366 Y-30.5017
G01 X-13.5434 Y-30.5059
G01 X-13.5508 Y-30.5119
G01 X-13.5562 Y-30.5178
G01 X-13.5618 Y-30.5256
G01 X-13.5661 Y-30.5341
G01 X-13.5686 Y-30.5417
G01 X-13.5703 Y-30.5495
G01 X-13.5710 Y-30.5590
G00 Z2.0000
G00 X-15.5931 Y-22.3750
G01 F40.00
G01 Z-0.0300
G01 F100.00
G01 X-15.4240 Y-22.4086
G01 X-15.2549 Y-22.3750
G01 X-15.5931 Y-22.3750
G00 Z2.0000
G00 X-16.1890 Y-21.5100
G01 F40.00
G01 Z-0.0300
G01 F100.00
G01 X-16.2146 Y-21.6302
G01 X-16.2156 Y-21.6362
G01 X-16.2160 Y-21.6437
G01 X-16.2160 Y-25.4070
G01 X-16.2153 Y-25.4165
G01 X-16.2132 Y-25.4259
G01 X-16.2104 Y-25.4333
G01 X-16.2059 Y-25.4418
G01 X-16.2002 Y-25.4495
G01 X-16.1947 Y-25.4552
G01 X-16.1871 Y-25.4610
G01 X-16.1788 Y-25.4658
G01 X-16.1714 Y-25.4687
G01 X-16.1652 Y-25.4704
G01 X-16.1590 Y-25.4715
G01 X-16.1510 Y-25.4720
G01 X-13.5060 Y-25.4720
G01 X-13.4996 Y-25.4717
G01 X-13.4933 Y-25.4708
G01 X-13.4871 Y-25.4692
G01 X-13.4797 Y-25.4664
G01 X-13.4699 Y-25.4610
G01 X-13.4648 Y-25.4572
G01 X-13.4600 Y-25.4530
G01 X-11.1961 Y-23.1890
G01 X-6.4779 Y-23.1890
G01 X-4.0157 Y-25.6512
G01 X-4.0150 Y-25.6530
G01 X-4.0150 Y-27.5800
G01 X-4.0140 Y-27.5911
G01 X-4.0112 Y-27.6019
G01 X-4.0066 Y-27.6120
G01 X-4.0002 Y-27.6212
G01 X-3.9960 Y-27.6260
G01 X-3.9900 Y-27.6312
G01 X-3.9848 Y-27.6349
G01 X-3.9778 Y-27.6388
G01 X-3.9719 Y-27.6412
G01 X-3.9658 Y-27.6431
G01 X-3.9580 Y-27.6445
G01 X-3.9516 Y-27.6450
G01 X-2.9500 Y-27.6450
G01 X-2.9420 Y-27.6445
G01 X-2.9327 Y-27.6426
G01 X-2.9237 Y-27.6394
G01 X-2.9152 Y-27.6349
G01 X-2.9088 Y-27.6302
G01 X-2.9018 Y-27.6237
G01 X-2.8960 Y-27.6161
G01 X-2.8912 Y-27.6078
G01 X-2.8883 Y-27.6004
G01 X-2.8866 Y-27.5942
G01 X-2.8855 Y-27.5880
G01 X-2.8850 Y-27.5800
G01 X-2.8850 Y-25.5784
G01 X-2.8862 Y-25.5673
G01 X-2.8888 Y-25.5581
G01 X-2.8927 Y-25.5494
G01 X-2.8988 Y-25.5400
G01 X-2.9063 Y-25.5318
G01 X-2.9139 Y-25.5260
G01 X-2.9222 Y-25.5212
G01 X-2.9325 Y-25.5174
G01 X-2.9310 Y-25.5061
G01 X-2.9310 Y-25.4997
G01 X-2.9316 Y-25.4934
G01 X-2.9329 Y-25.4872
G01 X-2.9347 Y-25.4811
G01 X-2.9372 Y-25.4752
G01 X-2.9402 Y-25.4696
G01 X-2.9447 Y-25.4631
G01 X-2.9499 Y-25.4571
G01 X-5.9950 Y-22.4120
G01 X-6.0036 Y-22.4049
G01 X-6.0132 Y-22.3992
G01 X-6.0191 Y-22.3968
G01 X-6.0268 Y-22.3946
G01 X-6.0346 Y-22.3933
G01 X-6.0410 Y-22.3930
G01 X-9.4150 Y-22.3930
G01 X-9.4151 Y-21.2738
G01 X-9.4166 Y-21.2628
G01 X-9.4199 Y-21.2521
G01 X-9.4227 Y-21.2464
G01 X-9.4260 Y-21.2409
G01 X-9.4329 Y-21.2322
G01 X-9.4413 Y-21.2248
G01 X-9.4466 Y-21.2212
G01 X-9.4522 Y-21.2182
G01 X-9.4627 Y-21.2144
G01 X-9.4736 Y-21.2123
G01 X-9.4800 Y-21.2120
G01 X-10.0683 Y-21.2120
G01 X-10.0762 Y-21.2127
G01 X-10.0840 Y-21.2144
G01 X-10.0916 Y-21.2169
G01 X-10.0997 Y-21.2210
G01 X-10.6623 Y-21.2210
G01 X-10.6704 Y-21.2169
G01 X-10.6780 Y-21.2144
G01 X-10.6873 Y-21.2125
G01 X-10.6953 Y-21.2120
G01 X-11.2850 Y-21.2120
G01 X-11.2914 Y-21.2123
G01 X-11.3008 Y-21.2139
G01 X-11.3113 Y-21.2176
G01 X-11.3211 Y-21.2230
G01 X-11.3287 Y-21.2288
G01 X-11.5359 Y-21.4360
G01 X-12.2000 Y-21.4360
G01 X-12.2080 Y-21.4345
G01 X-12.2160 Y-21.4340
G01 X-13.6160 Y-21.4340
G01 X-13.6240 Y-21.4345
G01 X-13.6320 Y-21.4360
G01 X-14.8763 Y-21.4360
G01 X-14.8843 Y-21.4365
G01 X-14.8936 Y-21.4384
G01 X-14.9012 Y-21.4410
G01 X-14.9093 Y-21.4450
G01 X-15.9368 Y-21.4450
G01 X-15.9435 Y-21.4416
G01 X-15.9509 Y-21.4388
G01 X-15.9587 Y-21.4370
G01 X-15.9666 Y-21.4361
G01 X-16.1026 Y-21.4360
G01 X-16.1137 Y-21.4372
G01 X-16.1244 Y-21.4404
G01 X-16.1302 Y-21.4429
G01 X-16.1358 Y-21.4461
G01 X-16.1444 Y-21.4483
G01 X-16.1518 Y-21.4512
G01 X-16.1588 Y-21.4551
G01 X-16.1665 Y-21.4608
G01 X-16.1722 Y-21.4663
G01 X-16.1762 Y-21.4713
G01 X-16.1806 Y-21.4780
G01 X-16.1834 Y-21.4837
G01 X-16.1857 Y-21.4896
G01 X-16.1878 Y-21.4973
G01 X-16.1887 Y-21.5036
G01 X-16.1890 Y-21.5100
G00 Z2.0000
G00 X-16.1890 Y-20.6250
G01 F40.00
G01 Z-0.0300
G01 F100.00
G01 X-16.3130 Y-20.6250
G01 X-16.3130 Y-20.8990
G01 X-15.7390 Y-20.8990
G01 X-15.7390 Y-20.7750
G01 X-16.1240 Y-20.7750
G01 X-16.1351 Y-20.7740
G01 X-16.1444 Y-20.7717
G01 X-16.1518 Y-20.7688
G01 X-16.1588 Y-20.7649
G01 X-16.1652 Y-20.7602
G01 X-16.1711 Y-20.7548
G01 X-16.1752 Y-20.7500
G01 X-16.1798 Y-20.7434
G01 X-16.1834 Y-20.7363
G01 X-16.1862 Y-20.7289
G01 X-16.1883 Y-20.7195
G01 X-16.1890 Y-20.7116
G01 X-16.1890 Y-20.6250
G00 Z2.0000
G00 X-15.7390 Y-19.7210
G01 F40.00
G01 Z-0.0300
G01 F100.00
G01 X-16.3130 Y-19.7210
G01 X-16.3130 Y-19.9950
G01 X-16.1890 Y-19.9950
G01 X-16.1890 Y-19.9084
G01 X-16.1880 Y-19.8989
G01 X-16.1857 Y-19.8896
G01 X-16.1828 Y-19.8822
G01 X-16.1789 Y-19.8752
G01 X-16.1742 Y-19.8688
G01 X-16.1688 Y-19.8629
G01 X-16.1627 Y-19.8578
G01 X-16.1546 Y-19.8527
G01 X-16.1474 Y-19.8494
G01 X-16.1398 Y-19.8469
G01 X-16.1320 Y-19.8455
G01 X-16.1240 Y-19.8450
G01 X-15.7390 Y-19.8450
G01 X-15.7390 Y-19.7210
G00 Z2.0000
G00 X-14.5350 Y-19.7210
G01 F40.00
G01 Z-0.0300
G01 F100.00
G01 X-15.1090 Y-19.7210
G01 X-15.1090 Y-19.8450
G01 X-14.7240 Y-19.8450
G01 X-14.7160 Y-19.8455
G01 X-14.7082 Y-19.8469
G01 X-14.7006 Y-19.8494
G01 X-14.6934 Y-19.8527
G01 X-14.6866 Y-19.8569
G01 X-14.6803 Y-19.8618
G01 X-14.6748 Y-19.8675
G01 X-14.6700 Y-19.8739
G01 X-14.6659 Y-19.8808
G01 X-14.6623 Y-19.8896
G01 X-14.6600 Y-19.8989
G01 X-14.6590 Y-19.9084
G01 X-14.6590 Y-19.9950
G01 X-14.5350 Y-19.9950
G01 X-14.5350 Y-19.7210
G00 Z2.0000
G00 X-14.5350 Y-20.6250
G01 F40.00
G01 Z-0.0300
G01 F100.00
G01 X-14.6590 Y-20.6250
G01 X-14.6590 Y-20.7116
G01 X-14.6600 Y-20.7211
G01 X-14.6623 Y-20.7304
G01 X-14.6652 Y-20.7378
G01 X-14.6691 Y-20.7448
G01 X-14.6738 Y-20.7512
G01 X-14.6792 Y-20.7571
G01 X-14.6853 Y-20.7622
G01 X-14.6934 Y-20.7673
G01 X-14.7006 Y-20.7706
G01 X-14.7082 Y-20.7731
G01 X-14.7160 Y-20.7745
G01 X-14.7240 Y-20.7750
G01 X-15.1090 Y-20.7750
G01 X-15.1090 Y-20.8990
G01 X-14.5350 Y-20.8990
G01 X-14.5350 Y-20.6250
G00 Z2.0000
G00 X-13.6810 Y-20.6140
G01 F40.00
G01 Z-0.0300
G01 F100.00
G01 X-13.8050 Y-20.6140
G01 X-13.8050 Y-20.8880
G01 X-13.2310 Y-20.8880
G01 X-13.2310 Y-20.7640
G01 X-13.6160 Y-20.7640
G01 X-13.6271 Y-20.7630
G01 X-13.6364 Y-20.7607
G01 X-13.6438 Y-20.7578
G01 X-13.6508 Y-20.7539
G01 X-13.6572 Y-20.7492
G01 X-13.6631 Y-20.7438
G01 X-13.6682 Y-20.7377
G01 X-13.6726 Y-20.7310
G01 X-13.6761 Y-20.7239
G01 X-13.6782 Y-20.7179
G01 X-13.6800 Y-20.7101
G01 X-13.6810 Y-20.7006
G01 X-13.6810 Y-20.6140
G00 Z2.0000
G00 X-13.2310 Y-19.7100
G01 F40.00
G01 Z-0.0300
G01 F100.00
G01 X-13.8050 Y-19.7100
G01 X-13.8050 Y-19.9840
G01 X-13.6810 Y-19.9840
G01 X-13.6810 Y-19.8974
G01 X-13.6800 Y-19.8879
G01 X-13.6777 Y-19.8786
G01 X-13.6748 Y-19.8712
G01 X-13.6709 Y-19.8642
G01 X-13.6662 Y-19.8578
G01 X-13.6608 Y-19.8519
G01 X-13.6547 Y-19.8468
G01 X-13.6466 Y-19.8417
G01 X-13.6394 Y-19.8384
G01 X-13.6318 Y-19.8359
G01 X-13.6240 Y-19.8345
G01 X-13.6160 Y-19.8340
G01 X-13.2310 Y-19.8340
G01 X-13.2310 Y-19.7100
G00 Z2.0000
G00 X-12.0270 Y-19.7100
G01 F40.00
G01 Z-0.0300
G01 F100.00
G01 X-12.6010 Y-19.7100
G01 X-12.6010 Y-19.8340
G01 X-12.2160 Y-19.8340
G01 X-12.2080 Y-19.8345
G01 X-12.2002 Y-19.8359
G01 X-12.1926 Y-19.8384
G01 X-12.1854 Y-19.8417
G01 X-12.1786 Y-19.8459
G01 X-12.1723 Y-19.8508
G01 X-12.1668 Y-19.8565
G01 X-12.1620 Y-19.8629
G01 X-12.1579 Y-19.8698
G01 X-12.1543 Y-19.8786
G01 X-12.1520 Y-19.8879
G01 X-12.1510 Y-19.8974
G01 X-12.1510 Y-19.9840
G01 X-12.0270 Y-19.9840
G01 X-12.0270 Y-19.7100
G00 Z2.0000
G00 X-11.2810 Y-20.1510
G01 F40.00
G01 Z-0.0300
G01 F100.00
G01 X-9.4762 Y-20.1508
G01 X-9.4699 Y-20.1500
G01 X-9.4637 Y-20.1486
G01 X-9.4576 Y-20.1466
G01 X-9.4518 Y-20.1441
G01 X-9.4462 Y-20.1409
G01 X-9.4410 Y-20.1372
G01 X-9.4362 Y-20.1331
G01 X-9.4318 Y-20.1285
G01 X-9.4252 Y-20.1194
G01 X-9.4222 Y-20.1138
G01 X-9.4198 Y-20.1079
G01 X-9.4179 Y-20.1018
G01 X-9.4167 Y-20.0955
G01 X-9.4161 Y-20.0892
G01 X-9.4160 Y-20.0807
G01 X-9.4124 Y-20.0760
G01 X-9.3935 Y-20.0628
G01 X-9.3575 Y-20.0474
G01 X-9.3055 Y-20.0327
G01 X-9.2398 Y-20.0203
G01 X-9.0159 Y-20.0030
G01 X-8.8919 Y-20.1269
G01 X-8.8593 Y-20.1566
G01 X-8.8215 Y-20.1848
G01 X-8.7809 Y-20.2090
G01 X-8.7410 Y-20.2278
G01 X-8.7011 Y-20.2422
G01 X-8.6950 Y-20.2440
G01 X-8.6538 Y-20.2543
G01 X-8.6118 Y-20.2606
G01 X-8.6054 Y-20.2612
G01 X-8.5646 Y-20.2632
G01 X-8.5080 Y-20.2632
G01 X-8.5080 Y-21.8996
G01 X-8.5073 Y-21.9075
G01 X-8.5061 Y-21.9138
G01 X-8.5042 Y-21.9199
G01 X-8.5011 Y-21.9272
G01 X-8.4979 Y-21.9328
G01 X-8.4932 Y-21.9392
G01 X-8.4890 Y-21.9440
G01 X-8.4830 Y-21.9492
G01 X-8.4736 Y-21.9553
G01 X-8.4634 Y-21.9597
G01 X-8.4525 Y-21.9623
G01 X-8.4430 Y-21.9630
G01 X-6.6414 Y-21.9630
G01 X-6.6319 Y-21.9620
G01 X-6.6226 Y-21.9597
G01 X-6.6138 Y-21.9561
G01 X-6.6056 Y-21.9511
G01 X-6.5982 Y-21.9451
G01 X-6.5918 Y-21.9380
G01 X-6.5864 Y-21.9300
G01 X-6.5824 Y-21.9214
G01 X-6.5792 Y-21.9107
G01 X-6.5783 Y-21.9044
G01 X-6.5780 Y-21.8980
G01 X-6.5780 Y-19.3964
G01 X-6.5790 Y-19.3869
G01 X-6.5813 Y-19.3776
G01 X-6.5849 Y-19.3688
G01 X-6.5899 Y-19.3606
G01 X-6.5959 Y-19.3532
G01 X-6.6030 Y-19.3468
G01 X-6.6110 Y-19.3414
G01 X-6.6196 Y-19.3374
G01 X-6.6303 Y-19.3342
G01 X-6.6366 Y-19.3333
G01 X-6.6430 Y-19.3330
G01 X-8.3703 Y-19.3328
G01 X-8.5006 Y-19.2026
G01 X-8.5356 Y-19.1709
G01 X-8.5710 Y-19.1447
G01 X-8.6102 Y-19.1212
G01 X-8.6515 Y-19.1017
G01 X-8.6914 Y-19.0873
G01 X-8.6975 Y-19.0855
G01 X-8.7387 Y-19.0752
G01 X-8.7839 Y-19.0685
G01 X-8.8279 Y-19.0663
G01 X-8.9510 Y-19.0641
G01 X-9.0590 Y-19.0571
G01 X-9.1529 Y-19.0455
G01 X-9.2326 Y-19.0296
G01 X-9.2975 Y-19.0099
G01 X-9.3472 Y-18.9874
G01 X-9.3819 Y-18.9635
G01 X-9.4033 Y-18.9398
G01 X-9.4145 Y-18.9162
G01 X-9.4160 Y-18.9057
G01 X-9.4162 Y-18.8812
G01 X-9.4170 Y-18.8749
G01 X-9.4184 Y-18.8687
G01 X-9.4204 Y-18.8626
G01 X-9.4229 Y-18.8568
G01 X-9.4261 Y-18.8512
G01 X-9.4298 Y-18.8460
G01 X-9.4339 Y-18.8412
G01 X-9.4398 Y-18.8358
G01 X-9.4449 Y-18.8320
G01 X-9.4504 Y-18.8287
G01 X-9.4561 Y-18.8259
G01 X-9.4621 Y-18.8238
G01 X-9.4683 Y-18.8222
G01 X-9.4746 Y-18.8213
G01 X-9.4810 Y-18.8210
G01 X-11.2810 Y-18.8210
G01 X-11.2921 Y-18.8220
G01 X-11.3029 Y-18.8248
G01 X-11.3130 Y-18.8294
G01 X-11.3222 Y-18.8358
G01 X-11.3302 Y-18.8435
G01 X-11.3359 Y-18.8512
G01 X-11.3411 Y-18.8611
G01 X-11.3444 Y-18.8718
G01 X-11.3459 Y-18.8828
G01 X-11.3460 Y-20.0860
G01 X-11.3457 Y-20.0924
G01 X-11.3448 Y-20.0987
G01 X-11.3432 Y-20.1049
G01 X-11.3411 Y-20.1109
G01 X-11.3383 Y-20.1166
G01 X-11.3350 Y-20.1221
G01 X-11.3312 Y-20.1272
G01 X-11.3270 Y-20.1320
G01 X-11.3222 Y-20.1362
G01 X-11.3171 Y-20.1400
G01 X-11.3116 Y-20.1433
G01 X-11.3059 Y-20.1461
G01 X-11.2999 Y-20.1482
G01 X-11.2937 Y-20.1498
G01 X-11.2874 Y-20.1507
G01 X-11.2810 Y-20.1510
G00 Z2.0000
G00 X-12.0270 Y-20.6140
G01 F40.00
G01 Z-0.0300
G01 F100.00
G01 X-12.1510 Y-20.6140
G01 X-12.1510 Y-20.7006
G01 X-12.1520 Y-20.7101
G01 X-12.1543 Y-20.7194
G01 X-12.1572 Y-20.7268
G01 X-12.1611 Y-20.7338
G01 X-12.1658 Y-20.7402
G01 X-12.1712 Y-20.7461
G01 X-12.1773 Y-20.7512
G01 X-12.1854 Y-20.7563
G01 X-12.1926 Y-20.7596
G01 X-12.2002 Y-20.7621
G01 X-12.2080 Y-20.7635
G01 X-12.2160 Y-20.7640
G01 X-12.6010 Y-20.7640
G01 X-12.6010 Y-20.8880
G01 X-12.0270 Y-20.8880
G01 X-12.0270 Y-20.6140
G00 Z2.0000
G00 X-9.1460 Y-18.5510
G01 F40.00
G01 Z-0.0300
G01 F100.00
G01 X-11.6160 Y-18.5510
G01 X-11.6160 Y-20.4210
G01 X-9.0795 Y-20.4210
G01 X-8.9524 Y-20.4350
G01 X-8.9426 Y-20.4369
G01 X-8.9347 Y-20.4395
G01 X-8.8181 Y-20.4878
G01 X-8.8124 Y-20.4906
G01 X-8.8069 Y-20.4939
G01 X-8.8005 Y-20.4987
G01 X-8.7948 Y-20.5042
G01 X-8.7899 Y-20.5105
G01 X-8.7857 Y-20.5173
G01 X-8.7824 Y-20.5245
G01 X-8.7799 Y-20.5321
G01 X-8.7785 Y-20.5399
G01 X-8.7780 Y-20.5463
G01 X-8.7780 Y-22.1990
G01 X-8.7787 Y-22.2085
G01 X-8.7808 Y-22.2179
G01 X-8.7849 Y-22.2282
G01 X-8.7899 Y-22.2364
G01 X-8.7959 Y-22.2438
G01 X-8.8030 Y-22.2502
G01 X-8.8124 Y-22.2563
G01 X-8.8211 Y-22.2602
G01 X-8.8319 Y-22.2630
G01 X-8.8430 Y-22.2640
G01 X-9.0810 Y-22.2640
G01 X-9.0905 Y-22.2633
G01 X-9.0999 Y-22.2612
G01 X-9.1088 Y-22.2578
G01 X-9.1171 Y-22.2530
G01 X-9.1247 Y-22.2472
G01 X-9.1312 Y-22.2402
G01 X-9.1368 Y-22.2324
G01 X-9.1411 Y-22.2239
G01 X-9.1441 Y-22.2148
G01 X-9.1455 Y-22.2070
G01 X-9.1460 Y-22.1990
G01 X-9.1460 Y-20.9510
G01 X-11.6160 Y-20.9510
G01 X-11.6160 Y-21.2420
G01 X-11.6170 Y-21.2531
G01 X-11.6198 Y-21.2639
G01 X-11.6244 Y-21.2740
G01 X-11.6308 Y-21.2832
G01 X-11.6385 Y-21.2912
G01 X-11.6476 Y-21.2978
G01 X-11.6576 Y-21.3026
G01 X-11.6683 Y-21.3058
G01 X-11.6794 Y-21.3070
G01 X-11.8208 Y-21.3068
G01 X-11.8287 Y-21.3058
G01 X-11.8379 Y-21.3032
G01 X-11.8466 Y-21.2993
G01 X-11.8534 Y-21.2951
G01 X-11.8585 Y-21.2912
G01 X-11.8631 Y-21.2868
G01 X-11.8672 Y-21.2820
G01 X-11.8709 Y-21.2768
G01 X-11.8741 Y-21.2712
G01 X-11.8766 Y-21.2654
G01 X-11.8798 Y-21.2547
G01 X-11.8810 Y-21.2436
G01 X-11.8810 Y-21.1640
G01 X-13.9510 Y-21.1640
G01 X-13.9511 Y-21.2452
G01 X-13.9526 Y-21.2562
G01 X-13.9543 Y-21.2624
G01 X-13.9566 Y-21.2683
G01 X-13.9611 Y-21.2768
G01 X-13.9668 Y-21.2845
G01 X-13.9735 Y-21.2912
G01 X-13.9812 Y-21.2969
G01 X-13.9897 Y-21.3014
G01 X-13.9971 Y-21.3042
G01 X-14.0065 Y-21.3063
G01 X-14.0160 Y-21.3070
G01 X-14.3240 Y-21.3070
G01 X-14.3351 Y-21.3060
G01 X-14.3459 Y-21.3032
G01 X-14.3518 Y-21.3008
G01 X-14.3588 Y-21.2969
G01 X-14.3640 Y-21.2932
G01 X-14.3700 Y-21.2880
G01 X-14.3752 Y-21.2820
G01 X-14.3789 Y-21.2768
G01 X-14.3828 Y-21.2698
G01 X-14.3857 Y-21.2624
G01 X-14.3878 Y-21.2547
G01 X-14.3889 Y-21.2452
G01 X-14.3890 Y-21.1750
G01 X-16.4590 Y-21.1750
G01 X-16.4590 Y-22.6450
G01 X-16.4100 Y-22.6450
G01 X-16.4036 Y-22.6453
G01 X-16.3973 Y-22.6462
G01 X-16.3896 Y-22.6483
G01 X-16.3837 Y-22.6506
G01 X-16.3780 Y-22.6534
G01 X-16.3700 Y-22.6588
G01 X-16.3640 Y-22.6640
G01 X-16.3588 Y-22.6700
G01 X-16.3542 Y-22.6766
G01 X-16.3506 Y-22.6837
G01 X-16.3478 Y-22.6911
G01 X-16.3457 Y-22.7005
G01 X-16.3450 Y-22.7084
G01 X-16.3450 Y-25.4006
G01 X-16.3291 Y-25.4807
G01 X-16.2872 Y-25.5432
G01 X-16.2247 Y-25.5851
G01 X-16.1446 Y-25.6010
G01 X-13.5124 Y-25.6010
G01 X-13.4323 Y-25.5851
G01 X-13.3643 Y-25.5396
G01 X-11.1617 Y-23.3370
G01 X-11.1557 Y-23.3318
G01 X-11.1505 Y-23.3281
G01 X-11.1435 Y-23.3242
G01 X-11.1346 Y-23.3208
G01 X-11.1252 Y-23.3187
G01 X-11.1157 Y-23.3180
G01 X-10.2930 Y-23.3180
G01 X-10.2818 Y-23.3190
G01 X-10.2755 Y-23.3204
G01 X-10.2679 Y-23.3230
G01 X-10.2621 Y-23.3258
G01 X-10.2553 Y-23.3301
G01 X-10.2490 Y-23.3351
G01 X-10.2435 Y-23.3409
G01 X-10.2395 Y-23.3460
G01 X-10.2354 Y-23.3529
G01 X-10.2311 Y-23.3633
G01 X-10.1907 Y-23.4903
G01 X-10.1884 Y-23.4996
G01 X-10.1877 Y-23.5059
G01 X-10.1877 Y-23.5139
G01 X-10.1887 Y-23.5218
G01 X-10.1906 Y-23.5295
G01 X-10.1934 Y-23.5369
G01 X-10.1972 Y-23.5439
G01 X-10.2017 Y-23.5504
G01 X-10.2070 Y-23.5564
G01 X-10.2130 Y-23.5616
G01 X-10.3650 Y-23.6781
G01 X-13.1989 Y-26.5120
G01 X-13.3353 Y-26.6899
G01 X-13.4195 Y-26.8931
G01 X-13.4488 Y-27.1153
G01 X-13.4488 Y-30.1590
G01 X-13.4493 Y-30.1670
G01 X-13.4516 Y-30.1779
G01 X-13.4557 Y-30.1882
G01 X-13.4616 Y-30.1977
G01 X-13.4678 Y-30.2050
G01 X-13.4751 Y-30.2112
G01 X-13.4846 Y-30.2171
G01 X-13.4949 Y-30.2212
G01 X-13.5043 Y-30.2233
G01 X-13.5138 Y-30.2240
G01 X-13.8410 Y-30.2240
G01 X-13.8410 Y-34.4940
G01 X-13.5153 Y-34.4940
G01 X-13.5042 Y-34.4950
G01 X-13.4934 Y-34.4978
G01 X-13.4833 Y-34.5024
G01 X-13.4779 Y-34.5059
G01 X-13.4728 Y-34.5098
G01 X-13.4651 Y-34.5178
G01 X-13.4587 Y-34.5270
G01 X-13.4541 Y-34.5371
G01 X-13.4513 Y-34.5479
G01 X-13.4503 Y-34.5590
G01 X-13.4503 Y-34.9676
G01 X-13.4515 Y-34.9787
G01 X-13.4541 Y-34.9879
G01 X-13.4580 Y-34.9966
G01 X-13.4631 Y-35.0047
G01 X-13.4682 Y-35.0108
G01 X-13.4728 Y-35.0152
G01 X-13.4792 Y-35.0200
G01 X-13.4847 Y-35.0233
G01 X-13.4919 Y-35.0266
G01 X-13.4980 Y-35.0286
G01 X-13.5042 Y-35.0300
G01 X-13.5105 Y-35.0308
G01 X-13.7940 Y-35.0310
G01 X-13.7940 Y-36.8010
G01 X-11.4240 Y-36.8010
G01 X-11.4240 Y-35.0310
G01 X-11.7045 Y-35.0308
G01 X-11.7108 Y-35.0300
G01 X-11.7186 Y-35.0282
G01 X-11.7260 Y-35.0254
G01 X-11.7317 Y-35.0226
G01 X-11.7384 Y-35.0182
G01 X-11.7434 Y-35.0142
G01 X-11.7479 Y-35.0097
G01 X-11.7528 Y-35.0034
G01 X-11.7578 Y-34.9952
G01 X-11.7614 Y-34.9864
G01 X-11.7637 Y-34.9771
G01 X-11.7647 Y-34.9676
G01 X-11.7647 Y-34.5574
G01 X-11.7635 Y-34.5463
G01 X-11.7603 Y-34.5356
G01 X-11.7555 Y-34.5256
G01 X-11.7489 Y-34.5165
G01 X-11.7409 Y-34.5088
G01 X-11.7317 Y-34.5024
G01 X-11.7216 Y-34.4978
G01 X-11.7108 Y-34.4950
G01 X-11.6997 Y-34.4940
G01 X-11.3710 Y-34.4940
G01 X-11.3709 Y-32.5558
G01 X-11.3694 Y-32.5448
G01 X-11.3666 Y-32.5356
G01 X-11.3626 Y-32.5270
G01 X-11.3562 Y-32.5178
G01 X-11.3520 Y-32.5130
G01 X-11.2720 Y-32.4331
G01 X-11.2720 Y-32.1034
G01 X-11.3323 Y-32.0784
G01 X-11.3394 Y-32.0748
G01 X-11.3472 Y-32.0692
G01 X-11.3520 Y-32.0650
G01 X-11.3562 Y-32.0602
G01 X-11.3600 Y-32.0551
G01 X-11.3641 Y-32.0482
G01 X-11.3666 Y-32.0424
G01 X-11.3691 Y-32.0348
G01 X-11.3703 Y-32.0285
G01 X-11.3709 Y-32.0222
G01 X-11.3710 Y-30.2240
G01 X-11.6982 Y-30.2240
G01 X-11.7077 Y-30.2233
G01 X-11.7186 Y-30.2207
G01 X-11.7288 Y-30.2163
G01 X-11.7369 Y-30.2112
G01 X-11.7453 Y-30.2038
G01 X-11.7522 Y-30.1951
G01 X-11.7576 Y-30.1853
G01 X-11.7613 Y-30.1748
G01 X-11.7629 Y-30.1654
G01 X-11.7632 Y-30.1590
G01 X-11.7632 Y-27.9956
G01 X-11.7625 Y-27.9877
G01 X-11.7604 Y-27.9783
G01 X-11.7576 Y-27.9709
G01 X-11.7531 Y-27.9624
G01 X-11.7494 Y-27.9572
G01 X-11.7453 Y-27.9524
G01 X-11.7258 Y-27.9329
G01 X-11.7210 Y-27.9288
G01 X-11.7116 Y-27.9227
G01 X-11.7014 Y-27.9183
G01 X-11.6905 Y-27.9157
G01 X-11.6810 Y-27.9150
G01 X-5.1550 Y-27.9150
G01 X-5.1550 Y-26.6390
G01 X-5.1544 Y-26.6305
G01 X-5.1472 Y-26.5757
G01 X-5.1472 Y-25.3423
G01 X-5.1549 Y-25.2824
G01 X-5.1550 Y-25.2190
G01 X-5.1593 Y-25.2124
G01 X-5.1622 Y-25.2068
G01 X-5.1650 Y-25.1994
G01 X-5.1666 Y-25.1932
G01 X-5.1765 Y-25.1201
G01 X-5.2412 Y-24.9637
G01 X-5.2432 Y-24.9576
G01 X-5.2446 Y-24.9514
G01 X-5.2454 Y-24.9451
G01 X-5.2456 Y-24.9387
G01 X-5.2449 Y-24.9308
G01 X-5.2437 Y-24.9245
G01 X-5.2412 Y-24.9169
G01 X-5.2387 Y-24.9111
G01 X-5.2346 Y-24.9042
G01 X-5.2309 Y-24.8991
G01 X-5.2266 Y-24.8943
G01 X-5.2206 Y-24.8891
G01 X-5.1050 Y-24.8118
G01 X-5.0978 Y-24.8083
G01 X-5.0902 Y-24.8057
G01 X-5.0824 Y-24.8040
G01 X-5.0729 Y-24.8033
G01 X-5.0665 Y-24.8036
G01 X-5.0602 Y-24.8045
G01 X-5.0540 Y-24.8061
G01 X-5.0480 Y-24.8082
G01 X-5.0423 Y-24.8110
G01 X-5.0368 Y-24.8143
G01 X-5.0317 Y-24.8181
G01 X-5.0269 Y-24.8223
G01 X-4.3040 Y-25.5452
G01 X-4.2988 Y-25.5512
G01 X-4.2934 Y-25.5592
G01 X-4.2899 Y-25.5663
G01 X-4.2869 Y-25.5754
G01 X-4.2855 Y-25.5832
G01 X-4.2850 Y-25.5912
G01 X-4.2850 Y-27.9150
G01 X-2.6150 Y-27.9150
G01 X-2.6150 Y-25.2450
G01 X-2.9559 Y-25.2449
G01 X-2.9654 Y-25.2438
G01 X-2.9761 Y-25.2406
G01 X-2.9861 Y-25.2358
G01 X-2.9939 Y-25.2302
G01 X-2.9987 Y-25.2260
G01 X-5.8993 Y-22.3254
G01 X-5.9673 Y-22.2799
G01 X-6.0474 Y-22.2640
G01 X-6.2430 Y-22.2640
G01 X-6.2541 Y-22.2630
G01 X-6.2619 Y-22.2612
G01 X-6.2693 Y-22.2584
G01 X-6.2764 Y-22.2548
G01 X-6.2830 Y-22.2502
G01 X-6.2890 Y-22.2450
G01 X-6.2952 Y-22.2377
G01 X-6.2996 Y-22.2310
G01 X-6.3031 Y-22.2239
G01 X-6.3052 Y-22.2179
G01 X-6.3068 Y-22.2117
G01 X-6.3077 Y-22.2054
G01 X-6.3080 Y-22.1990
G01 X-6.3080 Y-19.0630
G01 X-7.9906 Y-19.0630
G01 X-7.9991 Y-19.0624
G01 X-8.0473 Y-19.0561
G01 X-8.2288 Y-19.0561
G01 X-8.2399 Y-19.0551
G01 X-8.2477 Y-19.0533
G01 X-8.2551 Y-19.0505
G01 X-8.2622 Y-19.0469
G01 X-8.2675 Y-19.0433
G01 X-8.2736 Y-19.0382
G01 X-8.3019 Y-19.0100
G01 X-8.4588 Y-18.8895
G01 X-8.6376 Y-18.8154
G01 X-8.8338 Y-18.7896
G01 X-9.0826 Y-18.7896
G01 X-9.0905 Y-18.7889
G01 X-9.0983 Y-18.7872
G01 X-9.1059 Y-18.7847
G01 X-9.1130 Y-18.7812
G01 X-9.1197 Y-18.7768
G01 X-9.1247 Y-18.7728
G01 X-9.1302 Y-18.7671
G01 X-9.1350 Y-18.7607
G01 X-9.1383 Y-18.7552
G01 X-9.1416 Y-18.7480
G01 X-9.1441 Y-18.7404
G01 X-9.1453 Y-18.7341
G01 X-9.1460 Y-18.7246
G01 X-9.1460 Y-18.5510
G00 Z2.0000
G00 X-1.3230 Y-21.2740
G01 F40.00
G01 Z-0.0300
G01 F100.00
G01 X-1.4470 Y-21.2740
G01 X-1.4470 Y-21.8980
G01 X-1.1230 Y-21.8980
G01 X-1.1230 Y-21.7740
G01 X-1.2580 Y-21.7740
G01 X-1.2644 Y-21.7737
G01 X-1.2722 Y-21.7724
G01 X-1.2799 Y-21.7702
G01 X-1.2886 Y-21.7663
G01 X-1.2954 Y-21.7621
G01 X-1.3017 Y-21.7572
G01 X-1.3072 Y-21.7515
G01 X-1.3120 Y-21.7451
G01 X-1.3161 Y-21.7382
G01 X-1.3197 Y-21.7294
G01 X-1.3220 Y-21.7201
G01 X-1.3230 Y-21.7090
G01 X-1.3230 Y-21.2740
G00 Z2.0000
G00 X15.8569 Y-20.1655
G01 F40.00
G01 Z-0.0300
G01 F100.00
G01 X15.8421 Y-20.2656
G01 X15.8370 Y-20.3700
G01 X15.8421 Y-20.4744
G01 X15.8569 Y-20.5745
G01 X15.8571 Y-22.5552
G01 X15.8581 Y-22.5631
G01 X15.8602 Y-22.5708
G01 X15.8631 Y-22.5782
G01 X15.8670 Y-22.5852
G01 X15.8717 Y-22.5916
G01 X15.8771 Y-22.5975
G01 X15.8819 Y-22.6016
G01 X15.8885 Y-22.6061
G01 X15.8970 Y-22.6104
G01 X16.0158 Y-22.6596
G01 X16.0265 Y-22.6627
G01 X16.0376 Y-22.6640
G01 X16.0440 Y-22.6638
G01 X16.0503 Y-22.6630
G01 X16.0565 Y-22.6616
G01 X16.0626 Y-22.6596
G01 X16.0684 Y-22.6571
G01 X16.0740 Y-22.6539
G01 X16.0804 Y-22.6492
G01 X16.0852 Y-22.6450
G01 X17.4460 Y-21.2842
G01 X17.4950 Y-21.2546
G01 X17.5764 Y-21.1943
G01 X17.6551 Y-21.1231
G01 X17.7263 Y-21.0444
G01 X17.7866 Y-20.9630
G01 X17.8162 Y-20.9140
G01 X18.4500 Y-20.2803
G01 X18.4552 Y-20.2743
G01 X18.4606 Y-20.2663
G01 X18.4646 Y-20.2577
G01 X18.4674 Y-20.2485
G01 X18.4685 Y-20.2423
G01 X18.4690 Y-20.2343
G01 X18.4690 Y-15.5754
G01 X18.4683 Y-15.5675
G01 X18.4666 Y-15.5597
G01 X18.4641 Y-15.5521
G01 X18.4613 Y-15.5464
G01 X18.4571 Y-15.5396
G01 X18.4522 Y-15.5333
G01 X18.4465 Y-15.5278
G01 X18.4401 Y-15.5230
G01 X18.4346 Y-15.5197
G01 X18.4274 Y-15.5164
G01 X18.4213 Y-15.5144
G01 X18.4151 Y-15.5130
G01 X18.4056 Y-15.5120
G01 X18.3750 Y-15.5120
G01 X18.3750 Y-13.4420
G01 X18.4056 Y-13.4420
G01 X18.4120 Y-13.4415
G01 X18.4229 Y-13.4392
G01 X18.4332 Y-13.4351
G01 X18.4388 Y-13.4319
G01 X18.4440 Y-13.4282
G01 X18.4488 Y-13.4241
G01 X18.4532 Y-13.4195
G01 X18.4580 Y-13.4131
G01 X18.4613 Y-13.4076
G01 X18.4641 Y-13.4019
G01 X18.4662 Y-13.3959
G01 X18.4683 Y-13.3865
G01 X18.4690 Y-13.3770
G01 X18.4688 Y-13.1402
G01 X18.4671 Y-13.1292
G01 X18.4634 Y-13.1187
G01 X18.4580 Y-13.1089
G01 X18.4511 Y-13.1002
G01 X18.4427 Y-13.0928
G01 X18.4374 Y-13.0892
G01 X18.4318 Y-13.0862
G01 X18.4213 Y-13.0824
G01 X18.4104 Y-13.0803
G01 X18.4040 Y-13.0800
G01 X17.8250 Y-13.0800
G01 X17.8250 Y-12.9542
G01 X17.8349 Y-12.9511
G01 X17.8448 Y-12.9459
G01 X17.8537 Y-12.9392
G01 X17.8602 Y-12.9322
G01 X17.8666 Y-12.9230
G01 X17.8706 Y-12.9144
G01 X17.8734 Y-12.9052
G01 X17.8749 Y-12.8942
G01 X17.8750 Y-11.9410
G01 X17.8740 Y-11.9299
G01 X17.8712 Y-11.9191
G01 X17.8666 Y-11.9090
G01 X17.8602 Y-11.8998
G01 X17.8537 Y-11.8928
G01 X17.8448 Y-11.8861
G01 X17.8349 Y-11.8809
G01 X17.8242 Y-11.8776
G01 X17.8164 Y-11.8763
G01 X17.8100 Y-11.8760
G01 X17.2052 Y-11.8762
G01 X17.1958 Y-11.8776
G01 X17.1881 Y-11.8798
G01 X17.1794 Y-11.8837
G01 X17.1713 Y-11.8888
G01 X17.1640 Y-11.8950
G01 X17.1578 Y-11.9023
G01 X17.1527 Y-11.9104
G01 X17.1488 Y-11.9191
G01 X17.1460 Y-11.9299
G01 X17.1450 Y-11.9410
G01 X17.1450 Y-12.8910
G01 X17.1457 Y-12.9005
G01 X17.1478 Y-12.9099
G01 X17.1512 Y-12.9188
G01 X17.1560 Y-12.9271
G01 X17.1618 Y-12.9347
G01 X17.1688 Y-12.9412
G01 X17.1766 Y-12.9468
G01 X17.1851 Y-12.9511
G01 X17.1927 Y-12.9536
G01 X17.2005 Y-12.9553
G01 X17.2084 Y-12.9560
G01 X17.3450 Y-12.9560
G01 X17.3450 Y-13.2260
G01 X16.0750 Y-13.2260
G01 X16.0750 Y-13.1434
G01 X16.0740 Y-13.1339
G01 X16.0717 Y-13.1246
G01 X16.0688 Y-13.1172
G01 X16.0649 Y-13.1102
G01 X16.0612 Y-13.1050
G01 X16.0560 Y-13.0990
G01 X16.0500 Y-13.0938
G01 X16.0434 Y-13.0892
G01 X16.0363 Y-13.0856
G01 X16.0289 Y-13.0828
G01 X16.0195 Y-13.0807
G01 X16.0100 Y-13.0800
G01 X15.8160 Y-13.0800
G01 X15.8049 Y-13.0810
G01 X15.7956 Y-13.0833
G01 X15.7868 Y-13.0869
G01 X15.7786 Y-13.0919
G01 X15.7712 Y-13.0979
G01 X15.7648 Y-13.1050
G01 X15.7594 Y-13.1130
G01 X15.7554 Y-13.1216
G01 X15.7526 Y-13.1308
G01 X15.7515 Y-13.1370
G01 X15.7510 Y-13.1450
G01 X15.7510 Y-13.4000
G01 X15.7515 Y-13.4080
G01 X15.7534 Y-13.4173
G01 X15.7559 Y-13.4249
G01 X15.7587 Y-13.4306
G01 X15.7620 Y-13.4361
G01 X15.7658 Y-13.4412
G01 X15.7700 Y-13.4460
G01 X15.7748 Y-13.4502
G01 X15.7799 Y-13.4540
G01 X15.7868 Y-13.4581
G01 X15.7971 Y-13.4622
G01 X15.8080 Y-13.4645
G01 X15.8160 Y-13.4650
G01 X15.8490 Y-13.4650
G01 X15.8490 Y-14.8710
G01 X15.8496 Y-14.8795
G01 X15.8569 Y-14.9353
G01 X15.8569 Y-20.1655
G00 Z2.0000
G00 X16.2490 Y-14.8150
G01 F40.00
G01 Z-0.0300
G01 F100.00
G01 X16.1250 Y-14.8150
G01 X16.1250 Y-15.3890
G01 X16.3990 Y-15.3890
G01 X16.3990 Y-15.2650
G01 X16.3124 Y-15.2650
G01 X16.3029 Y-15.2640
G01 X16.2936 Y-15.2617
G01 X16.2862 Y-15.2588
G01 X16.2792 Y-15.2549
G01 X16.2728 Y-15.2502
G01 X16.2669 Y-15.2448
G01 X16.2618 Y-15.2387
G01 X16.2567 Y-15.2306
G01 X16.2534 Y-15.2234
G01 X16.2509 Y-15.2158
G01 X16.2495 Y-15.2080
G01 X16.2490 Y-15.2000
G01 X16.2490 Y-14.8150
G00 Z2.0000
G00 X17.3030 Y-14.8150
G01 F40.00
G01 Z-0.0300
G01 F100.00
G01 X17.1790 Y-14.8150
G01 X17.1790 Y-15.2000
G01 X17.1785 Y-15.2080
G01 X17.1771 Y-15.2158
G01 X17.1746 Y-15.2234
G01 X17.1713 Y-15.2306
G01 X17.1671 Y-15.2374
G01 X17.1622 Y-15.2437
G01 X17.1565 Y-15.2492
G01 X17.1501 Y-15.2540
G01 X17.1432 Y-15.2581
G01 X17.1344 Y-15.2617
G01 X17.1251 Y-15.2640
G01 X17.1156 Y-15.2650
G01 X17.0290 Y-15.2650
G01 X17.0290 Y-15.3890
G01 X17.3030 Y-15.3890
G01 X17.3030 Y-14.8150
G00 Z2.0000
G00 X17.3030 Y-13.6110
G01 F40.00
G01 Z-0.0300
G01 F100.00
G01 X17.0290 Y-13.6110
G01 X17.0290 Y-13.7350
G01 X17.1156 Y-13.7350
G01 X17.1251 Y-13.7360
G01 X17.1344 Y-13.7383
G01 X17.1418 Y-13.7412
G01 X17.1488 Y-13.7451
G01 X17.1552 Y-13.7498
G01 X17.1611 Y-13.7552
G01 X17.1662 Y-13.7613
G01 X17.1713 Y-13.7694
G01 X17.1746 Y-13.7766
G01 X17.1771 Y-13.7842
G01 X17.1785 Y-13.7920
G01 X17.1790 Y-13.8000
G01 X17.1790 Y-14.1850
G01 X17.3030 Y-14.1850
G01 X17.3030 Y-13.6110
G00 Z2.0000
G00 X16.3990 Y-13.6110
G01 F40.00
G01 Z-0.0300
G01 F100.00
G01 X16.1250 Y-13.6110
G01 X16.1250 Y-14.1850
G01 X16.2490 Y-14.1850
G01 X16.2490 Y-13.8000
G01 X16.2495 Y-13.7920
G01 X16.2509 Y-13.7842
G01 X16.2534 Y-13.7766
G01 X16.2567 Y-13.7694
G01 X16.2609 Y-13.7626
G01 X16.2658 Y-13.7563
G01 X16.2715 Y-13.7508
G01 X16.2779 Y-13.7460
G01 X16.2848 Y-13.7419
G01 X16.2936 Y-13.7383
G01 X16.3029 Y-13.7360
G01 X16.3124 Y-13.7350
G01 X16.3990 Y-13.7350
G01 X16.3990 Y-13.6110
G00 Z2.0000
G00 X16.4100 Y-12.9560
G01 F40.00
G01 Z-0.0300
G01 F100.00
G01 X17.0132 Y-12.9559
G01 X17.0211 Y-12.9550
G01 X17.0289 Y-12.9532
G01 X17.0363 Y-12.9504
G01 X17.0434 Y-12.9468
G01 X17.0500 Y-12.9422
G01 X17.0560 Y-12.9370
G01 X17.0612 Y-12.9310
G01 X17.0658 Y-12.9244
G01 X17.0701 Y-12.9159
G01 X17.0726 Y-12.9083
G01 X17.0743 Y-12.9005
G01 X17.0750 Y-12.8910
G01 X17.0750 Y-11.9394
G01 X17.0740 Y-11.9299
G01 X17.0722 Y-11.9221
G01 X17.0694 Y-11.9147
G01 X17.0658 Y-11.9076
G01 X17.0612 Y-11.9010
G01 X17.0560 Y-11.8950
G01 X17.0500 Y-11.8898
G01 X17.0434 Y-11.8852
G01 X17.0363 Y-11.8816
G01 X17.0289 Y-11.8788
G01 X17.0195 Y-11.8767
G01 X17.0116 Y-11.8760
G01 X16.4084 Y-11.8760
G01 X16.3989 Y-11.8770
G01 X16.3911 Y-11.8788
G01 X16.3837 Y-11.8816
G01 X16.3766 Y-11.8852
G01 X16.3700 Y-11.8898
G01 X16.3640 Y-11.8950
G01 X16.3588 Y-11.9010
G01 X16.3542 Y-11.9076
G01 X16.3506 Y-11.9147
G01 X16.3474 Y-11.9237
G01 X16.3455 Y-11.9330
G01 X16.3450 Y-11.9410
G01 X16.3451 Y-12.8942
G01 X16.3457 Y-12.9005
G01 X16.3469 Y-12.9068
G01 X16.3488 Y-12.9129
G01 X16.3512 Y-12.9188
G01 X16.3569 Y-12.9284
G01 X16.3608 Y-12.9335
G01 X16.3652 Y-12.9381
G01 X16.3700 Y-12.9422
G01 X16.3752 Y-12.9459
G01 X16.3808 Y-12.9491
G01 X16.3866 Y-12.9516
G01 X16.3973 Y-12.9548
G01 X16.4036 Y-12.9557
G01 X16.4100 Y-12.9560
G00 Z2.0000
G00 X15.6100 Y-12.9560
G01 F40.00
G01 Z-0.0300
G01 F100.00
G01 X16.2132 Y-12.9559
G01 X16.2211 Y-12.9550
G01 X16.2289 Y-12.9532
G01 X16.2363 Y-12.9504
G01 X16.2434 Y-12.9468
G01 X16.2500 Y-12.9422
G01 X16.2560 Y-12.9370
G01 X16.2612 Y-12.9310
G01 X16.2658 Y-12.9244
G01 X16.2701 Y-12.9159
G01 X16.2726 Y-12.9083
G01 X16.2743 Y-12.9005
G01 X16.2750 Y-12.8910
G01 X16.2750 Y-11.9394
G01 X16.2740 Y-11.9299
G01 X16.2722 Y-11.9221
G01 X16.2694 Y-11.9147
G01 X16.2658 Y-11.9076
G01 X16.2612 Y-11.9010
G01 X16.2560 Y-11.8950
G01 X16.2500 Y-11.8898
G01 X16.2434 Y-11.8852
G01 X16.2363 Y-11.8816
G01 X16.2289 Y-11.8788
G01 X16.2195 Y-11.8767
G01 X16.2116 Y-11.8760
G01 X15.6084 Y-11.8760
G01 X15.6005 Y-11.8767
G01 X15.5927 Y-11.8784
G01 X15.5851 Y-11.8809
G01 X15.5780 Y-11.8844
G01 X15.5713 Y-11.8888
G01 X15.5652 Y-11.8939
G01 X15.5598 Y-11.8998
G01 X15.5542 Y-11.9076
G01 X15.5499 Y-11.9161
G01 X15.5474 Y-11.9237
G01 X15.5457 Y-11.9315
G01 X15.5450 Y-11.9410
G01 X15.5451 Y-12.8942
G01 X15.5466 Y-12.9052
G01 X15.5483 Y-12.9114
G01 X15.5506 Y-12.9173
G01 X15.5534 Y-12.9230
G01 X15.5569 Y-12.9284
G01 X15.5608 Y-12.9335
G01 X15.5652 Y-12.9381
G01 X15.5739 Y-12.9450
G01 X15.5794 Y-12.9483
G01 X15.5851 Y-12.9511
G01 X15.5911 Y-12.9532
G01 X15.5973 Y-12.9548
G01 X15.6036 Y-12.9557
G01 X15.6100 Y-12.9560
G00 Z2.0000
G00 X16.4100 Y-10.9560
G01 F40.00
G01 Z-0.0300
G01 F100.00
G01 X17.0132 Y-10.9559
G01 X17.0211 Y-10.9550
G01 X17.0289 Y-10.9532
G01 X17.0363 Y-10.9504
G01 X17.0434 Y-10.9468
G01 X17.0500 Y-10.9422
G01 X17.0560 Y-10.9370
G01 X17.0612 Y-10.9310
G01 X17.0658 Y-10.9244
G01 X17.0701 Y-10.9159
G01 X17.0726 Y-10.9083
G01 X17.0743 Y-10.9005
G01 X17.0750 Y-10.8910
G01 X17.0750 Y-9.9394
G01 X17.0740 Y-9.9299
G01 X17.0722 Y-9.9221
G01 X17.0694 Y-9.9147
G01 X17.0658 Y-9.9076
G01 X17.0612 Y-9.9010
G01 X17.0560 Y-9.8950
G01 X17.0500 Y-9.8898
G01 X17.0434 Y-9.8852
G01 X17.0363 Y-9.8816
G01 X17.0289 Y-9.8788
G01 X17.0195 Y-9.8767
G01 X17.0116 Y-9.8760
G01 X16.4084 Y-9.8760
G01 X16.3989 Y-9.8770
G01 X16.3911 Y-9.8788
G01 X16.3837 Y-9.8816
G01 X16.3766 Y-9.8852
G01 X16.3700 Y-9.8898
G01 X16.3640 Y-9.8950
G01 X16.3588 Y-9.9010
G01 X16.3542 Y-9.9076
G01 X16.3506 Y-9.9147
G01 X16.3474 Y-9.9237
G01 X16.3455 Y-9.9330
G01 X16.3450 Y-9.9410
G01 X16.3451 Y-10.8942
G01 X16.3457 Y-10.9005
G01 X16.3469 Y-10.9068
G01 X16.3488 Y-10.9129
G01 X16.3512 Y-10.9188
G01 X16.3569 Y-10.9284
G01 X16.3608 Y-10.9335
G01 X16.3652 Y-10.9381
G01 X16.3700 Y-10.9422
G01 X16.3752 Y-10.9459
G01 X16.3808 Y-10.9491
G01 X16.3866 Y-10.9516
G01 X16.3973 Y-10.9548
G01 X16.4036 Y-10.9557
G01 X16.4100 Y-10.9560
G00 Z2.0000
G00 X17.2100 Y-10.9560
G01 F40.00
G01 Z-0.0300
G01 F100.00
G01 X17.8132 Y-10.9559
G01 X17.8211 Y-10.9550
G01 X17.8289 Y-10.9532
G01 X17.8363 Y-10.9504
G01 X17.8434 Y-10.9468
G01 X17.8500 Y-10.9422
G01 X17.8560 Y-10.9370
G01 X17.8612 Y-10.9310
G01 X17.8658 Y-10.9244
G01 X17.8701 Y-10.9159
G01 X17.8726 Y-10.9083
G01 X17.8743 Y-10.9005
G01 X17.8750 Y-10.8910
G01 X17.8750 Y-9.9394
G01 X17.8740 Y-9.9299
G01 X17.8722 Y-9.9221
G01 X17.8694 Y-9.9147
G01 X17.8658 Y-9.9076
G01 X17.8612 Y-9.9010
G01 X17.8560 Y-9.8950
G01 X17.8500 Y-9.8898
G01 X17.8434 Y-9.8852
G01 X17.8363 Y-9.8816
G01 X17.8289 Y-9.8788
G01 X17.8195 Y-9.8767
G01 X17.8116 Y-9.8760
G01 X17.2084 Y-9.8760
G01 X17.1989 Y-9.8770
G01 X17.1911 Y-9.8788
G01 X17.1837 Y-9.8816
G01 X17.1766 Y-9.8852
G01 X17.1700 Y-9.8898
G01 X17.1640 Y-9.8950
G01 X17.1588 Y-9.9010
G01 X17.1542 Y-9.9076
G01 X17.1506 Y-9.9147
G01 X17.1474 Y-9.9237
G01 X17.1455 Y-9.9330
G01 X17.1450 Y-9.9410
G01 X17.1451 Y-10.8942
G01 X17.1457 Y-10.9005
G01 X17.1469 Y-10.9068
G01 X17.1488 Y-10.9129
G01 X17.1512 Y-10.9188
G01 X17.1569 Y-10.9284
G01 X17.1608 Y-10.9335
G01 X17.1652 Y-10.9381
G01 X17.1700 Y-10.9422
G01 X17.1752 Y-10.9459
G01 X17.1808 Y-10.9491
G01 X17.1866 Y-10.9516
G01 X17.1973 Y-10.9548
G01 X17.2036 Y-10.9557
G01 X17.2100 Y-10.9560
G00 Z2.0000
G00 X18.0100 Y-10.9560
G01 F40.00
G01 Z-0.0300
G01 F100.00
G01 X18.6132 Y-10.9559
G01 X18.6211 Y-10.9550
G01 X18.6289 Y-10.9532
G01 X18.6363 Y-10.9504
G01 X18.6434 Y-10.9468
G01 X18.6500 Y-10.9422
G01 X18.6560 Y-10.9370
G01 X18.6612 Y-10.9310
G01 X18.6658 Y-10.9244
G01 X18.6701 Y-10.9159
G01 X18.6726 Y-10.9083
G01 X18.6743 Y-10.9005
G01 X18.6750 Y-10.8910
G01 X18.6750 Y-9.9394
G01 X18.6740 Y-9.9299
G01 X18.6722 Y-9.9221
G01 X18.6694 Y-9.9147
G01 X18.6658 Y-9.9076
G01 X18.6612 Y-9.9010
G01 X18.6560 Y-9.8950
G01 X18.6500 Y-9.8898
G01 X18.6434 Y-9.8852
G01 X18.6363 Y-9.8816
G01 X18.6289 Y-9.8788
G01 X18.6195 Y-9.8767
G01 X18.6116 Y-9.8760
G01 X18.0084 Y-9.8760
G01 X17.9989 Y-9.8770
G01 X17.9911 Y-9.8788
G01 X17.9837 Y-9.8816
G01 X17.9766 Y-9.8852
G01 X17.9700 Y-9.8898
G01 X17.9640 Y-9.8950
G01 X17.9588 Y-9.9010
G01 X17.9542 Y-9.9076
G01 X17.9506 Y-9.9147
G01 X17.9474 Y-9.9237
G01 X17.9455 Y-9.9330
G01 X17.9450 Y-9.9410
G01 X17.9451 Y-10.8942
G01 X17.9457 Y-10.9005
G01 X17.9469 Y-10.9068
G01 X17.9488 Y-10.9129
G01 X17.9512 Y-10.9188
G01 X17.9569 Y-10.9284
G01 X17.9608 Y-10.9335
G01 X17.9652 Y-10.9381
G01 X17.9700 Y-10.9422
G01 X17.9752 Y-10.9459
G01 X17.9808 Y-10.9491
G01 X17.9866 Y-10.9516
G01 X17.9973 Y-10.9548
G01 X18.0036 Y-10.9557
G01 X18.0100 Y-10.9560
G00 Z2.0000
G00 X18.8100 Y-10.9560
G01 F40.00
G01 Z-0.0300
G01 F100.00
G01 X19.4132 Y-10.9559
G01 X19.4211 Y-10.9550
G01 X19.4289 Y-10.9532
G01 X19.4363 Y-10.9504
G01 X19.4434 Y-10.9468
G01 X19.4500 Y-10.9422
G01 X19.4560 Y-10.9370
G01 X19.4612 Y-10.9310
G01 X19.4658 Y-10.9244
G01 X19.4701 Y-10.9159
G01 X19.4726 Y-10.9083
G01 X19.4743 Y-10.9005
G01 X19.4750 Y-10.8910
G01 X19.4750 Y-9.9394
G01 X19.4740 Y-9.9299
G01 X19.4722 Y-9.9221
G01 X19.4694 Y-9.9147
G01 X19.4658 Y-9.9076
G01 X19.4612 Y-9.9010
G01 X19.4560 Y-9.8950
G01 X19.4500 Y-9.8898
G01 X19.4434 Y-9.8852
G01 X19.4363 Y-9.8816
G01 X19.4289 Y-9.8788
G01 X19.4195 Y-9.8767
G01 X19.4116 Y-9.8760
G01 X18.8084 Y-9.8760
G01 X18.7989 Y-9.8770
G01 X18.7911 Y-9.8788
G01 X18.7837 Y-9.8816
G01 X18.7766 Y-9.8852
G01 X18.7700 Y-9.8898
G01 X18.7640 Y-9.8950
G01 X18.7588 Y-9.9010
G01 X18.7542 Y-9.9076
G01 X18.7506 Y-9.9147
G01 X18.7474 Y-9.9237
G01 X18.7455 Y-9.9330
G01 X18.7450 Y-9.9410
G01 X18.7451 Y-10.8942
G01 X18.7457 Y-10.9005
G01 X18.7469 Y-10.9068
G01 X18.7488 Y-10.9129
G01 X18.7512 Y-10.9188
G01 X18.7569 Y-10.9284
G01 X18.7608 Y-10.9335
G01 X18.7652 Y-10.9381
G01 X18.7700 Y-10.9422
G01 X18.7752 Y-10.9459
G01 X18.7808 Y-10.9491
G01 X18.7866 Y-10.9516
G01 X18.7973 Y-10.9548
G01 X18.8036 Y-10.9557
G01 X18.8100 Y-10.9560
G00 Z2.0000
G00 X18.6350 Y-11.7810
G01 F40.00
G01 Z-0.0300
G01 F100.00
G01 X19.5850 Y-11.7810
G01 X19.5945 Y-11.7803
G01 X19.6054 Y-11.7777
