(G-CODE GENERATED BY FLATCAM v8.994 - www.flatcam.org - Version Date: 2020/11/7)

(Name: PCB2.GTL_iso_combined_cnc)
(Type: G-code from Geometry)
(Units: MM)

(Created on Saturday, 04 February 2023 at 20:42)

(This preprocessor is the default preprocessor used by FlatCAM.)
(It is made to work with MACH3 compatible motion controllers.)

(TOOL DIAMETER: 0.1 mm)
(Feedrate_XY: 80.0 mm/min)
(Feedrate_Z: 80.0 mm/min)
(Feedrate rapids 1500.0 mm/min)

(Z_Cut: -0.045 mm)
(Z_Move: 1.5 mm)
(Z Start: None mm)
(Z End: 15.0 mm)
(X,Y End: None mm)
(Steps per circle: 64)
(Preprocessor Geometry: default)

(X range:   -0.0179 ...   60.0650  mm)
(Y range:   -0.0600 ...  100.0556  mm)

(Spindle Speed: 10000.0 RPM)
G21
G90
G94

G01 F80.00

M5
G00 Z15.0000
G00 X0.0000 Y0.0000
T1
M6    
(MSG, Change to Tool Dia = 0.1000)
M0
G00 Z15.0000

M03 S10000.0
G01 F80.00
G00 X6.7758 Y2.7973
G01 F80.00
G01 Z-0.0450
G01 F80.00
G01 X6.7791 Y2.7940
G01 X6.7826 Y2.7882
G01 X6.7865 Y2.7833
G01 X6.8059 Y2.7638
G01 X6.8095 Y2.7580
G01 X6.8132 Y2.7534
G01 X6.8356 Y2.7309
G01 X6.8398 Y2.7242
G01 X6.8454 Y2.7178
G01 X6.8489 Y2.7120
G01 X6.8529 Y2.7070
G01 X6.8755 Y2.6844
G01 X6.8789 Y2.6788
G01 X6.8827 Y2.6739
G01 X6.9051 Y2.6515
G01 X6.9093 Y2.6447
G01 X6.9151 Y2.6381
G01 X6.9185 Y2.6325
G01 X6.9223 Y2.6277
G01 X6.9285 Y2.6219
G01 X6.9355 Y2.6172
G01 X6.9407 Y2.6095
G01 X6.9483 Y2.6016
G01 X6.9518 Y2.5958
G01 X6.9557 Y2.5910
G01 X6.9621 Y2.5851
G01 X6.9687 Y2.5807
G01 X6.9716 Y2.5761
G01 X6.9755 Y2.5712
G01 X7.0013 Y2.5453
G01 X7.0041 Y2.5406
G01 X7.0078 Y2.5357
G01 X7.0310 Y2.5123
G01 X7.0338 Y2.5075
G01 X7.0376 Y2.5025
G01 X7.0578 Y2.4821
G01 X7.0609 Y2.4770
G01 X7.0640 Y2.4730
G01 X7.0747 Y2.4619
G01 X7.0784 Y2.4585
G01 X7.0835 Y2.4548
G01 X7.0889 Y2.4518
G01 X7.0947 Y2.4495
G01 X7.1020 Y2.4477
G01 X7.1277 Y2.4440
G01 X7.1362 Y2.4438
G01 X7.1446 Y2.4449
G01 X7.1538 Y2.4480
G01 X7.1612 Y2.4521
G01 X7.1679 Y2.4574
G01 X7.1846 Y2.4740
G01 X7.1879 Y2.4779
G01 X7.1929 Y2.4823
G01 X7.1977 Y2.4852
G01 X7.2026 Y2.4889
G01 X7.2137 Y2.4998
G01 X7.2385 Y2.5168
G01 X7.2442 Y2.5197
G01 X7.2494 Y2.5231
G01 X7.2542 Y2.5271
G01 X7.2634 Y2.5363
G01 X7.2913 Y2.5520
G01 X7.2963 Y2.5560
G01 X7.3063 Y2.5659
G01 X7.3512 Y2.5898
G01 X7.3584 Y2.5950
G01 X7.3650 Y2.6014
G01 X7.3873 Y2.6096
G01 X7.3938 Y2.6127
G01 X7.3998 Y2.6168
G01 X7.4051 Y2.6216
G01 X7.4128 Y2.6266
G01 X7.4182 Y2.6314
G01 X7.4271 Y2.6348
G01 X7.4423 Y2.6389
G01 X7.4641 Y2.6487
G01 X7.4688 Y2.6511
G01 X7.4898 Y2.6642
G01 X7.5208 Y2.6718
G01 X7.5497 Y2.6840
G01 X7.5559 Y2.6876
G01 X7.5607 Y2.6912
G01 X7.5643 Y2.6927
G01 X7.6154 Y2.7043
G01 X7.6612 Y2.7228
G01 X7.6828 Y2.7276
G01 X7.7146 Y2.7308
G01 X7.7380 Y2.7346
G01 X7.7908 Y2.7478
G01 X7.8272 Y2.7525
G01 X7.8319 Y2.7534
G01 X7.8380 Y2.7553
G01 X8.0310 Y2.7586
G01 X8.0973 Y2.7555
G01 X8.1092 Y2.7527
G01 X8.1633 Y2.7432
G01 X8.1816 Y2.7382
G01 X8.2009 Y2.7344
G01 X8.2218 Y2.7309
G01 X8.2605 Y2.7262
G01 X8.2769 Y2.7216
G01 X8.3087 Y2.7079
G01 X8.3141 Y2.7060
G01 X8.3317 Y2.7016
G01 X8.3594 Y2.6967
G01 X8.3676 Y2.6946
G01 X8.3771 Y2.6908
G01 X8.3848 Y2.6849
G01 X8.3935 Y2.6806
G01 X8.4234 Y2.6695
G01 X8.4516 Y2.6626
G01 X8.4688 Y2.6505
G01 X8.4798 Y2.6446
G01 X8.5014 Y2.6358
G01 X8.5117 Y2.6329
G01 X8.5342 Y2.6178
G01 X8.5393 Y2.6149
G01 X8.5725 Y2.6014
G01 X8.5790 Y2.5951
G01 X8.5858 Y2.5901
G01 X8.6121 Y2.5751
G01 X8.6235 Y2.5703
G01 X8.6314 Y2.5626
G01 X8.6373 Y2.5581
G01 X8.6642 Y2.5429
G01 X8.6767 Y2.5304
G01 X8.6826 Y2.5256
G01 X8.7106 Y2.5097
G01 X8.7250 Y2.4956
G01 X8.7307 Y2.4914
G01 X8.7431 Y2.4838
G01 X8.7598 Y2.4674
G01 X8.7789 Y2.4517
G01 X8.7835 Y2.4484
G01 X8.7884 Y2.4419
G01 X8.7993 Y2.4310
G01 X8.8051 Y2.4263
G01 X8.8108 Y2.4228
G01 X8.8209 Y2.4127
G01 X8.8250 Y2.4061
G01 X8.8306 Y2.3997
G01 X8.8362 Y2.3950
G01 X8.8423 Y2.3913
G01 X8.8507 Y2.3829
G01 X8.8535 Y2.3782
G01 X8.8564 Y2.3742
G01 X8.8647 Y2.3655
G01 X8.8694 Y2.3615
G01 X8.8745 Y2.3579
G01 X8.8793 Y2.3520
G01 X8.8833 Y2.3450
G01 X8.8878 Y2.3391
G01 X8.8997 Y2.3273
G01 X8.9068 Y2.3220
G01 X8.9154 Y2.3070
G01 X8.9195 Y2.3012
G01 X8.9379 Y2.2825
G01 X8.9470 Y2.2665
G01 X8.9508 Y2.2589
G01 X8.9535 Y2.2545
G01 X8.9584 Y2.2486
G01 X8.9711 Y2.2360
G01 X8.9860 Y2.2092
G01 X8.9906 Y2.2033
G01 X8.9975 Y2.1963
G01 X9.0058 Y2.1819
G01 X9.0115 Y2.1675
G01 X9.0142 Y2.1621
G01 X9.0190 Y2.1551
G01 X9.0274 Y2.1465
G01 X9.0355 Y2.1323
G01 X9.0413 Y2.1178
G01 X9.0440 Y2.1124
G01 X9.0593 Y2.0907
G01 X9.0707 Y2.0594
G01 X9.0800 Y2.0388
G01 X9.0824 Y2.0342
G01 X9.0955 Y2.0131
G01 X9.1018 Y1.9859
G01 X9.1034 Y1.9808
G01 X9.1154 Y1.9530
G01 X9.1184 Y1.9476
G01 X9.1220 Y1.9429
G01 X9.1267 Y1.9305
G01 X9.1296 Y1.9133
G01 X9.1358 Y1.8870
G01 X9.1534 Y1.8433
G01 X9.1589 Y1.8133
G01 X9.1621 Y1.7872
G01 X9.1658 Y1.7650
G01 X9.1728 Y1.7370
G01 X9.1761 Y1.7205
G01 X9.1790 Y1.7088
G01 X9.1838 Y1.6723
G01 X9.1848 Y1.6676
G01 X9.1866 Y1.6616
G01 X9.1898 Y1.4756
G01 X9.1867 Y1.4258
G01 X9.1820 Y1.3837
G01 X9.1790 Y1.3659
G01 X9.1761 Y1.3513
G01 X9.1658 Y1.3100
G01 X9.1621 Y1.2877
G01 X9.1574 Y1.2482
G01 X9.1497 Y1.2201
G01 X9.1342 Y1.1858
G01 X9.1313 Y1.1765
G01 X9.1304 Y1.1706
G01 X9.1270 Y1.1308
G01 X9.1271 Y1.1209
G01 X9.1288 Y1.1124
G01 X9.1377 Y1.0901
G01 X9.1418 Y1.0825
G01 X9.1471 Y1.0757
G01 X9.1536 Y1.0699
G01 X9.1759 Y1.0556
G01 X9.1839 Y1.0517
G01 X9.1912 Y1.0495
G01 X9.2326 Y1.0406
G01 X9.2694 Y1.0244
G01 X9.2888 Y1.0167
G01 X9.2936 Y1.0152
G01 X9.3241 Y1.0079
G01 X9.3740 Y0.9849
G01 X9.3812 Y0.9830
G01 X9.4003 Y0.9798
G01 X9.4190 Y0.9751
G01 X9.4486 Y0.9596
G01 X9.4541 Y0.9572
G01 X9.4586 Y0.9557
G01 X9.4731 Y0.9521
G01 X9.5061 Y0.9449
G01 X9.5416 Y0.9264
G01 X9.5470 Y0.9240
G01 X9.5528 Y0.9222
G01 X9.5871 Y0.9147
G01 X9.6134 Y0.9030
G01 X9.6192 Y0.9010
G01 X9.6277 Y0.8994
G01 X9.6375 Y0.8994
G01 X9.6447 Y0.9007
G01 X9.6626 Y0.9054
G01 X9.6704 Y0.9090
G01 X9.6775 Y0.9138
G01 X9.6828 Y0.9189
G01 X9.6880 Y0.9257
G01 X9.6942 Y0.9360
G01 X9.6968 Y0.9412
G01 X9.7048 Y0.9616
G01 X9.7119 Y0.9850
G01 X9.7154 Y0.9902
G01 X9.7182 Y0.9956
G01 X9.7299 Y1.0267
G01 X9.7316 Y1.0338
G01 X9.7363 Y1.0672
G01 X9.7465 Y1.1063
G01 X9.7560 Y1.1317
G01 X9.7577 Y1.1379
G01 X9.7650 Y1.1781
G01 X9.7698 Y1.2239
G01 X9.7728 Y1.2362
G01 X9.7761 Y1.2595
G01 X9.7793 Y1.2724
G01 X9.7889 Y1.3263
G01 X9.7918 Y1.3352
G01 X9.7932 Y1.3422
G01 X9.7966 Y1.4392
G01 X9.7993 Y1.4485
G01 X9.8002 Y1.4573
G01 X9.7986 Y1.6109
G01 X9.7951 Y1.6948
G01 X9.7913 Y1.7290
G01 X9.7845 Y1.7732
G01 X9.7808 Y1.7920
G01 X9.7775 Y1.8053
G01 X9.7716 Y1.8376
G01 X9.7667 Y1.8850
G01 X9.7625 Y1.9135
G01 X9.7582 Y1.9301
G01 X9.7438 Y1.9766
G01 X9.7364 Y2.0075
G01 X9.7332 Y2.0296
G01 X9.7320 Y2.0351
G01 X9.7242 Y2.0619
G01 X9.7150 Y2.0824
G01 X9.7099 Y2.0953
G01 X9.6950 Y2.1529
G01 X9.6923 Y2.1596
G01 X9.6760 Y2.1906
G01 X9.6645 Y2.2309
G01 X9.6570 Y2.2498
G01 X9.6549 Y2.2541
G01 X9.6511 Y2.2601
G01 X9.6457 Y2.2662
G01 X9.6404 Y2.2804
G01 X9.6352 Y2.2991
G01 X9.6267 Y2.3205
G01 X9.6220 Y2.3288
G01 X9.6156 Y2.3361
G01 X9.6127 Y2.3410
G01 X9.6098 Y2.3449
G01 X9.5965 Y2.3810
G01 X9.5921 Y2.3886
G01 X9.5890 Y2.3925
G01 X9.5851 Y2.3965
G01 X9.5780 Y2.4071
G01 X9.5680 Y2.4342
G01 X9.5653 Y2.4399
G01 X9.5605 Y2.4471
G01 X9.5538 Y2.4543
G01 X9.5438 Y2.4664
G01 X9.5338 Y2.4897
G01 X9.5289 Y2.4997
G01 X9.5235 Y2.5075
G01 X9.5154 Y2.5159
G01 X9.4967 Y2.5498
G01 X9.4922 Y2.5555
G01 X9.4823 Y2.5655
G01 X9.4671 Y2.5925
G01 X9.4625 Y2.5985
G01 X9.4530 Y2.6081
G01 X9.4299 Y2.6439
G01 X9.4241 Y2.6501
G01 X9.4176 Y2.6551
G01 X9.4085 Y2.6676
G01 X9.4051 Y2.6738
G01 X9.4018 Y2.6786
G01 X9.3987 Y2.6822
G01 X9.3835 Y2.6975
G01 X9.3797 Y2.7036
G01 X9.3738 Y2.7105
G01 X9.3709 Y2.7153
G01 X9.3672 Y2.7202
G01 X9.3505 Y2.7371
G01 X9.3463 Y2.7438
G01 X9.3407 Y2.7502
G01 X9.3372 Y2.7560
G01 X9.3333 Y2.7610
G01 X9.2809 Y2.8134
G01 X9.2774 Y2.8190
G01 X9.2727 Y2.8248
G01 X9.2561 Y2.8414
G01 X9.2488 Y2.8471
G01 X9.2438 Y2.8537
G01 X9.2296 Y2.8680
G01 X9.2237 Y2.8728
G01 X9.2179 Y2.8763
G01 X9.1978 Y2.8962
G01 X9.1929 Y2.8999
G01 X9.1883 Y2.9026
G01 X9.1783 Y2.9126
G01 X9.1736 Y2.9162
G01 X9.1682 Y2.9194
G01 X9.1597 Y2.9277
G01 X9.1406 Y2.9434
G01 X9.1366 Y2.9463
G01 X9.1319 Y2.9491
G01 X9.1199 Y2.9608
G01 X9.0998 Y2.9773
G01 X9.0921 Y2.9822
G01 X9.0802 Y2.9937
G01 X9.0551 Y3.0117
G01 X9.0490 Y3.0154
G01 X9.0398 Y3.0245
G01 X9.0342 Y3.0289
G01 X9.0000 Y3.0479
G01 X8.9881 Y3.0594
G01 X8.9841 Y3.0623
G01 X8.9794 Y3.0651
G01 X8.9716 Y3.0712
G01 X8.9651 Y3.0747
G01 X8.9511 Y3.0802
G01 X8.9435 Y3.0876
G01 X8.9378 Y3.0921
G01 X8.8899 Y3.1181
G01 X8.8814 Y3.1265
G01 X8.8734 Y3.1321
G01 X8.8678 Y3.1348
G01 X8.8465 Y3.1430
G01 X8.8355 Y3.1480
G01 X8.8214 Y3.1596
G01 X8.8140 Y3.1644
G01 X8.8094 Y3.1665
G01 X8.7823 Y3.1766
G01 X8.7682 Y3.1823
G01 X8.7548 Y3.1926
G01 X8.7505 Y3.1952
G01 X8.7459 Y3.1975
G01 X8.7160 Y3.2087
G01 X8.7016 Y3.2128
G01 X8.6803 Y3.2261
G01 X8.6746 Y3.2290
G01 X8.6536 Y3.2373
G01 X8.6277 Y3.2438
G01 X8.6171 Y3.2484
G01 X8.6118 Y3.2526
G01 X8.6054 Y3.2563
G01 X8.5834 Y3.2651
G01 X8.5643 Y3.2701
G01 X8.5319 Y3.2771
G01 X8.4979 Y3.2933
G01 X8.4920 Y3.2956
G01 X8.4735 Y3.3001
G01 X8.4428 Y3.3050
G01 X8.4081 Y3.3137
G01 X8.3860 Y3.3221
G01 X8.3569 Y3.3293
G01 X8.3238 Y3.3353
G01 X8.2991 Y3.3388
G01 X8.2557 Y3.3436
G01 X8.2387 Y3.3465
G01 X8.2080 Y3.3538
G01 X8.1988 Y3.3568
G01 X8.1926 Y3.3583
G01 X8.1444 Y3.3618
G01 X8.1359 Y3.3644
G01 X8.1274 Y3.3656
G01 X8.0243 Y3.3690
G01 X7.8209 Y3.3657
G01 X7.7726 Y3.3604
G01 X7.7491 Y3.3565
G01 X7.7339 Y3.3528
G01 X7.7029 Y3.3466
G01 X7.6851 Y3.3436
G01 X7.6403 Y3.3386
G01 X7.5904 Y3.3314
G01 X7.5243 Y3.3108
G01 X7.5150 Y3.3084
G01 X7.4699 Y3.3020
G01 X7.4516 Y3.2976
G01 X7.4445 Y3.2950
G01 X7.4104 Y3.2786
G01 X7.3599 Y3.2670
G01 X7.3544 Y3.2648
G01 X7.3090 Y3.2437
G01 X7.2846 Y3.2375
G01 X7.2631 Y3.2291
G01 X7.2272 Y3.2098
G01 X7.1962 Y3.2013
G01 X7.1882 Y3.1983
G01 X7.1818 Y3.1946
G01 X7.1624 Y3.1809
G01 X7.1272 Y3.1661
G01 X7.1157 Y3.1604
G01 X7.1087 Y3.1556
G01 X7.1012 Y3.1486
G01 X7.0983 Y3.1465
G01 X7.0720 Y3.1368
G01 X7.0664 Y3.1341
G01 X7.0601 Y3.1300
G01 X7.0541 Y3.1247
G01 X7.0472 Y3.1203
G01 X7.0415 Y3.1153
G01 X7.0300 Y3.1100
G01 X7.0205 Y3.1075
G01 X7.0126 Y3.1039
G01 X7.0046 Y3.0982
G01 X6.9939 Y3.0876
G01 X6.9627 Y3.0706
G01 X6.9577 Y3.0673
G01 X6.9532 Y3.0635
G01 X6.9405 Y3.0508
G01 X6.9146 Y3.0365
G01 X6.9085 Y3.0320
G01 X6.9009 Y3.0244
G01 X6.8761 Y3.0107
G01 X6.8709 Y3.0071
G01 X6.8671 Y3.0038
G01 X6.8497 Y2.9865
G01 X6.8379 Y2.9768
G01 X6.8311 Y2.9731
G01 X6.8253 Y2.9687
G01 X6.8162 Y2.9594
G01 X6.8119 Y2.9539
G01 X6.8031 Y2.9479
G01 X6.7943 Y2.9430
G01 X6.7884 Y2.9385
G01 X6.7584 Y2.9086
G01 X6.7543 Y2.9039
G01 X6.7509 Y2.8988
G01 X6.7485 Y2.8944
G01 X6.7463 Y2.8887
G01 X6.7447 Y2.8827
G01 X6.7406 Y2.8534
G01 X6.7407 Y2.8461
G01 X6.7415 Y2.8401
G01 X6.7431 Y2.8342
G01 X6.7453 Y2.8285
G01 X6.7483 Y2.8232
G01 X6.7519 Y2.8183
G01 X6.7662 Y2.8038
G01 X6.7711 Y2.8001
G01 X6.7758 Y2.7973
G00 Z1.5000
G00 X5.7235 Y5.7492
G01 F80.00
G01 Z-0.0450
G01 F80.00
G01 X5.5419 Y5.9137
G01 X5.3015 Y6.0920
G01 X5.0448 Y6.2459
G01 X4.7742 Y6.3738
G01 X4.4924 Y6.4747
G01 X4.2020 Y6.5474
G01 X3.9060 Y6.5913
G01 X3.6070 Y6.6060
G01 X3.3080 Y6.5913
G01 X3.0120 Y6.5474
G01 X2.7216 Y6.4747
G01 X2.4398 Y6.3738
G01 X2.1692 Y6.2459
G01 X1.9125 Y6.0920
G01 X1.6721 Y5.9137
G01 X1.4503 Y5.7127
G01 X1.2493 Y5.4909
G01 X1.0710 Y5.2505
G01 X0.9171 Y4.9938
G01 X0.7892 Y4.7232
G01 X0.6883 Y4.4414
G01 X0.6156 Y4.1510
G01 X0.5717 Y3.8550
G01 X0.5570 Y3.5560
G01 X0.5717 Y3.2570
G01 X0.6156 Y2.9610
G01 X0.6883 Y2.6706
G01 X0.7892 Y2.3888
G01 X0.9171 Y2.1182
G01 X1.0710 Y1.8615
G01 X1.2493 Y1.6211
G01 X1.4503 Y1.3993
G01 X1.6721 Y1.1983
G01 X1.9125 Y1.0200
G01 X2.1692 Y0.8661
G01 X2.4398 Y0.7382
G01 X2.7216 Y0.6373
G01 X3.0120 Y0.5646
G01 X3.3080 Y0.5207
G01 X3.6070 Y0.5060
G01 X3.9060 Y0.5207
G01 X4.2020 Y0.5646
G01 X4.4924 Y0.6373
G01 X4.7742 Y0.7382
G01 X5.0448 Y0.8661
G01 X5.3015 Y1.0200
G01 X5.5419 Y1.1983
G01 X5.7628 Y1.3985
G01 X5.9647 Y1.6211
G01 X6.1416 Y1.8595
G01 X6.2980 Y2.1204
G01 X6.4248 Y2.3888
G01 X6.5257 Y2.6706
G01 X6.5984 Y2.9610
G01 X6.6423 Y3.2570
G01 X6.6570 Y3.5560
G01 X6.6423 Y3.8550
G01 X6.5984 Y4.1510
G01 X6.5263 Y4.4390
G01 X6.4248 Y4.7232
G01 X6.2980 Y4.9916
G01 X6.1443 Y5.2484
G01 X6.1299 Y5.2683
G01 X6.1389 Y5.2839
G01 X6.1435 Y5.2876
G01 X6.1478 Y5.2921
G01 X6.1591 Y5.3078
G01 X6.1752 Y5.3358
G01 X6.1821 Y5.3429
G01 X6.1866 Y5.3490
G01 X6.2011 Y5.3749
G01 X6.2135 Y5.3873
G01 X6.2175 Y5.3920
G01 X6.2209 Y5.3972
G01 X6.2350 Y5.4221
G01 X6.2443 Y5.4315
G01 X6.2489 Y5.4374
G01 X6.2641 Y5.4645
G01 X6.2734 Y5.4738
G01 X6.2780 Y5.4796
G01 X6.2939 Y5.5075
G01 X6.3097 Y5.5234
G01 X6.3138 Y5.5282
G01 X6.3172 Y5.5336
G01 X6.3344 Y5.5646
G01 X6.3436 Y5.5739
G01 X6.3474 Y5.5786
G01 X6.3620 Y5.6037
G01 X6.3692 Y5.6093
G01 X6.3756 Y5.6167
G01 X6.3833 Y5.6292
G01 X6.3974 Y5.6542
G01 X6.4065 Y5.6633
G01 X6.4104 Y5.6681
G01 X6.4271 Y5.6971
G01 X6.4323 Y5.7024
G01 X6.4488 Y5.7225
G01 X6.4539 Y5.7305
G01 X6.4654 Y5.7421
G01 X6.4695 Y5.7469
G01 X6.4729 Y5.7522
G01 X6.4861 Y5.7760
G01 X6.4995 Y5.7895
G01 X6.5041 Y5.7954
G01 X6.5193 Y5.8224
G01 X6.5307 Y5.8341
G01 X6.5495 Y5.8601
G01 X6.5532 Y5.8663
G01 X6.5615 Y5.8745
G01 X6.5655 Y5.8792
G01 X6.5682 Y5.8833
G01 X6.5788 Y5.9019
G01 X6.5849 Y5.9087
G01 X6.5895 Y5.9158
G01 X6.5955 Y5.9219
G01 X6.5993 Y5.9266
G01 X6.6119 Y5.9481
G01 X6.6303 Y5.9669
G01 X6.6345 Y5.9728
G01 X6.6450 Y5.9912
G01 X6.6577 Y6.0039
G01 X6.6618 Y6.0088
G01 X6.6652 Y6.0141
G01 X6.6784 Y6.0378
G01 X6.6909 Y6.0504
G01 X6.6947 Y6.0550
G01 X6.6974 Y6.0589
G01 X6.7080 Y6.0774
G01 X6.7207 Y6.0901
G01 X6.7246 Y6.0948
G01 X6.7273 Y6.0988
G01 X6.7378 Y6.1172
G01 X6.7439 Y6.1235
G01 X6.7610 Y6.1445
G01 X6.7637 Y6.1484
G01 X6.7743 Y6.1669
G01 X6.7803 Y6.1729
G01 X6.7841 Y6.1774
G01 X6.8021 Y6.2026
G01 X6.8051 Y6.2076
G01 X6.8165 Y6.2196
G01 X6.8345 Y6.2446
G01 X6.8382 Y6.2507
G01 X6.8433 Y6.2563
G01 X6.8665 Y6.2861
G01 X6.8714 Y6.2938
G01 X6.8831 Y6.3056
G01 X6.8862 Y6.3092
G01 X6.8896 Y6.3141
G01 X6.8993 Y6.3311
G01 X6.9067 Y6.3361
G01 X6.9129 Y6.3421
G01 X6.9173 Y6.3481
G01 X6.9296 Y6.3687
G01 X6.9459 Y6.3849
G01 X6.9491 Y6.3886
G01 X6.9526 Y6.3936
G01 X6.9633 Y6.4122
G01 X6.9684 Y6.4178
G01 X6.9924 Y6.4485
G01 X6.9973 Y6.4562
G01 X7.0090 Y6.4679
G01 X7.0123 Y6.4717
G01 X7.0151 Y6.4757
G01 X7.0224 Y6.4880
G01 X7.0354 Y6.5009
G01 X7.0385 Y6.5045
G01 X7.0572 Y6.5306
G01 X7.0603 Y6.5358
G01 X7.0719 Y6.5473
G01 X7.0751 Y6.5510
G01 X7.0786 Y6.5561
G01 X7.0891 Y6.5745
G01 X7.1016 Y6.5874
G01 X7.1196 Y6.6125
G01 X7.1233 Y6.6186
G01 X7.1326 Y6.6282
G01 X7.1482 Y6.6475
G01 X7.1531 Y6.6551
G01 X7.1681 Y6.6701
G01 X7.1713 Y6.6738
G01 X7.1747 Y6.6788
G01 X7.1852 Y6.6971
G01 X7.1978 Y6.7097
G01 X7.2025 Y6.7153
G01 X7.2151 Y6.7369
G01 X7.2278 Y6.7499
G01 X7.2443 Y6.7700
G01 X7.2492 Y6.7777
G01 X7.2610 Y6.7897
G01 X7.2775 Y6.8099
G01 X7.2811 Y6.8154
G01 X7.2887 Y6.8207
G01 X7.2948 Y6.8269
G01 X7.2985 Y6.8320
G01 X7.3108 Y6.8526
G01 X7.3205 Y6.8628
G01 X7.3444 Y6.8936
G01 X7.3486 Y6.9004
G01 X7.3578 Y6.9098
G01 X7.3735 Y6.9291
G01 X7.3785 Y6.9368
G01 X7.3977 Y6.9560
G01 X7.4015 Y6.9609
G01 X7.4051 Y6.9667
G01 X7.4176 Y6.9795
G01 X7.4332 Y6.9988
G01 X7.4380 Y7.0062
G01 X7.4465 Y7.0152
G01 X7.4704 Y7.0461
G01 X7.4746 Y7.0528
G01 X7.4863 Y7.0645
G01 X7.4896 Y7.0683
G01 X7.4924 Y7.0723
G01 X7.4998 Y7.0846
G01 X7.5059 Y7.0912
G01 X7.5128 Y7.0979
G01 X7.5292 Y7.1179
G01 X7.5341 Y7.1255
G01 X7.5469 Y7.1386
G01 X7.5625 Y7.1579
G01 X7.5674 Y7.1655
G01 X7.5758 Y7.1741
G01 X7.5923 Y7.1942
G01 X7.5972 Y7.2019
G01 X7.6056 Y7.2108
G01 X7.6295 Y7.2416
G01 X7.6337 Y7.2483
G01 X7.6430 Y7.2579
G01 X7.6586 Y7.2772
G01 X7.6624 Y7.2827
G01 X7.6690 Y7.2873
G01 X7.6752 Y7.2934
G01 X7.6891 Y7.3112
G01 X7.6933 Y7.3179
G01 X7.7150 Y7.3396
G01 X7.7197 Y7.3454
G01 X7.7232 Y7.3511
G01 X7.7465 Y7.3746
G01 X7.7502 Y7.3795
G01 X7.7530 Y7.3842
G01 X7.7647 Y7.3962
G01 X7.7804 Y7.4153
G01 X7.7833 Y7.4193
G01 X7.7861 Y7.4240
G01 X7.8054 Y7.4437
G01 X7.8083 Y7.4476
G01 X7.8110 Y7.4522
G01 X7.8158 Y7.4581
G01 X7.8193 Y7.4638
G01 X7.8343 Y7.4790
G01 X7.8508 Y7.4991
G01 X7.8558 Y7.5070
G01 X7.8749 Y7.5261
G01 X7.8787 Y7.5310
G01 X7.8821 Y7.5366
G01 X7.9055 Y7.5601
G01 X7.9093 Y7.5651
G01 X7.9121 Y7.5698
G01 X7.9271 Y7.5851
G01 X7.9436 Y7.6052
G01 X7.9474 Y7.6108
G01 X7.9539 Y7.6153
G01 X7.9600 Y7.6212
G01 X7.9637 Y7.6260
G01 X7.9667 Y7.6311
G01 X7.9716 Y7.6371
G01 X7.9750 Y7.6428
G01 X7.9908 Y7.6586
G01 X7.9948 Y7.6636
G01 X7.9982 Y7.6692
G01 X8.0040 Y7.6751
G01 X8.0072 Y7.6790
G01 X8.0115 Y7.6858
G01 X8.0282 Y7.7027
G01 X8.0320 Y7.7077
G01 X8.0348 Y7.7125
G01 X8.0409 Y7.7196
G01 X8.0445 Y7.7254
G01 X8.0589 Y7.7399
G01 X8.0760 Y7.7607
G01 X8.0804 Y7.7646
G01 X8.0937 Y7.7780
G01 X8.0975 Y7.7829
G01 X8.1010 Y7.7886
G01 X8.1058 Y7.7938
G01 X8.1102 Y7.7977
G01 X8.1268 Y7.8145
G01 X8.1307 Y7.8194
G01 X8.1342 Y7.8251
G01 X8.1599 Y7.8509
G01 X8.1638 Y7.8557
G01 X8.1673 Y7.8615
G01 X8.1931 Y7.8874
G01 X8.1970 Y7.8923
G01 X8.2005 Y7.8980
G01 X8.2221 Y7.9196
G01 X8.2268 Y7.9253
G01 X8.2303 Y7.9311
G01 X8.2536 Y7.9546
G01 X8.2574 Y7.9596
G01 X8.2602 Y7.9644
G01 X8.2859 Y7.9901
G01 X8.2897 Y7.9950
G01 X8.2931 Y8.0005
G01 X8.2973 Y8.0050
G01 X8.3010 Y8.0100
G01 X8.3068 Y8.0145
G01 X8.3161 Y8.0237
G01 X8.3198 Y8.0283
G01 X8.3232 Y8.0339
G01 X8.3282 Y8.0396
G01 X8.3319 Y8.0450
G01 X8.3394 Y8.0504
G01 X8.3513 Y8.0621
G01 X8.3560 Y8.0679
G01 X8.3594 Y8.0734
G01 X8.3645 Y8.0791
G01 X8.3687 Y8.0827
G01 X8.3827 Y8.0970
G01 X8.3864 Y8.1018
G01 X8.3893 Y8.1067
G01 X8.4160 Y8.1336
G01 X8.4197 Y8.1385
G01 X8.4225 Y8.1432
G01 X8.4475 Y8.1683
G01 X8.4514 Y8.1730
G01 X8.4544 Y8.1776
G01 X8.4625 Y8.1833
G01 X8.4741 Y8.1949
G01 X8.4787 Y8.2006
G01 X8.4820 Y8.2060
G01 X8.4860 Y8.2103
G01 X8.4897 Y8.2153
G01 X8.4962 Y8.2202
G01 X8.5047 Y8.2287
G01 X8.5085 Y8.2336
G01 X8.5121 Y8.2394
G01 X8.5163 Y8.2441
G01 X8.5195 Y8.2485
G01 X8.5260 Y8.2534
G01 X8.5345 Y8.2619
G01 X8.5383 Y8.2668
G01 X8.5418 Y8.2725
G01 X8.5484 Y8.2792
G01 X8.5527 Y8.2849
G01 X8.5569 Y8.2879
G01 X8.5614 Y8.2920
G01 X8.5661 Y8.2976
G01 X8.5701 Y8.3041
G01 X8.6107 Y8.3447
G01 X8.6145 Y8.3496
G01 X8.6180 Y8.3553
G01 X8.6728 Y8.4101
G01 X8.6775 Y8.4159
G01 X8.6810 Y8.4216
G01 X8.7092 Y8.4499
G01 X8.7149 Y8.4572
G01 X8.7215 Y8.4622
G01 X8.7358 Y8.4764
G01 X8.7405 Y8.4822
G01 X8.7440 Y8.4879
G01 X8.7469 Y8.4908
G01 X8.7571 Y8.4982
G01 X8.7625 Y8.5031
G01 X8.7671 Y8.5088
G01 X8.7705 Y8.5144
G01 X8.7995 Y8.5436
G01 X8.8033 Y8.5482
G01 X8.8068 Y8.5540
G01 X8.8128 Y8.5578
G01 X8.8167 Y8.5608
G01 X8.8278 Y8.5716
G01 X8.8326 Y8.5773
G01 X8.8368 Y8.5840
G01 X8.8675 Y8.6148
G01 X8.8714 Y8.6191
G01 X8.8758 Y8.6230
G01 X8.8915 Y8.6388
G01 X8.8960 Y8.6443
G01 X8.8996 Y8.6501
G01 X8.9032 Y8.6537
G01 X8.9079 Y8.6565
G01 X8.9128 Y8.6602
G01 X8.9206 Y8.6677
G01 X8.9255 Y8.6735
G01 X8.9297 Y8.6803
G01 X8.9603 Y8.7108
G01 X8.9642 Y8.7152
G01 X8.9685 Y8.7190
G01 X8.9879 Y8.7385
G01 X8.9968 Y8.7298
G01 X9.0017 Y8.7261
G01 X9.0064 Y8.7233
G01 X9.0098 Y8.7199
G01 X9.0126 Y8.7152
G01 X9.0155 Y8.7112
G01 X9.0247 Y8.7017
G01 X9.0305 Y8.6970
G01 X9.0362 Y8.6935
G01 X9.0396 Y8.6901
G01 X9.0424 Y8.6854
G01 X9.0461 Y8.6805
G01 X9.0611 Y8.6653
G01 X9.0667 Y8.6607
G01 X9.0728 Y8.6570
G01 X9.0762 Y8.6513
G01 X9.0810 Y8.6454
G01 X9.0929 Y8.6337
G01 X9.0978 Y8.6300
G01 X9.1025 Y8.6272
G01 X9.1059 Y8.6238
G01 X9.1087 Y8.6191
G01 X9.1116 Y8.6151
G01 X9.1199 Y8.6064
G01 X9.1256 Y8.6016
G01 X9.1323 Y8.5974
G01 X9.1391 Y8.5907
G01 X9.1432 Y8.5840
G01 X9.1481 Y8.5782
G01 X9.1566 Y8.5701
G01 X9.1605 Y8.5672
G01 X9.1654 Y8.5643
G01 X9.1689 Y8.5608
G01 X9.1724 Y8.5551
G01 X9.1771 Y8.5493
G01 X9.1890 Y8.5376
G01 X9.1939 Y8.5339
G01 X9.1986 Y8.5311
G01 X9.2020 Y8.5277
G01 X9.2048 Y8.5230
G01 X9.2085 Y8.5181
G01 X9.2169 Y8.5095
G01 X9.2227 Y8.5048
G01 X9.2284 Y8.5013
G01 X9.2319 Y8.4979
G01 X9.2360 Y8.4912
G01 X9.2409 Y8.4854
G01 X9.2527 Y8.4740
G01 X9.2566 Y8.4711
G01 X9.2615 Y8.4682
G01 X9.2659 Y8.4613
G01 X9.2707 Y8.4556
G01 X9.2851 Y8.4415
G01 X9.2900 Y8.4378
G01 X9.2947 Y8.4350
G01 X9.2990 Y8.4282
G01 X9.3038 Y8.4225
G01 X9.3158 Y8.4109
G01 X9.3198 Y8.4080
G01 X9.3245 Y8.4052
G01 X9.3280 Y8.4017
G01 X9.3307 Y8.3972
G01 X9.3343 Y8.3924
G01 X9.3416 Y8.3847
G01 X9.3480 Y8.3792
G01 X9.3545 Y8.3752
G01 X9.3611 Y8.3686
G01 X9.3653 Y8.3619
G01 X9.3701 Y8.3562
G01 X9.3788 Y8.3479
G01 X9.3828 Y8.3450
G01 X9.3875 Y8.3422
G01 X9.3910 Y8.3387
G01 X9.3953 Y8.3319
G01 X9.4000 Y8.3263
G01 X9.4118 Y8.3149
G01 X9.4157 Y8.3120
G01 X9.4206 Y8.3091
G01 X9.4243 Y8.3032
G01 X9.4290 Y8.2974
G01 X9.4442 Y8.2824
G01 X9.4491 Y8.2787
G01 X9.4538 Y8.2759
G01 X9.4567 Y8.2711
G01 X9.4604 Y8.2662
G01 X9.4721 Y8.2543
G01 X9.4779 Y8.2496
G01 X9.4836 Y8.2461
G01 X9.4871 Y8.2426
G01 X9.4907 Y8.2367
G01 X9.4953 Y8.2311
G01 X9.5072 Y8.2194
G01 X9.5121 Y8.2157
G01 X9.5168 Y8.2129
G01 X9.5202 Y8.2095
G01 X9.5230 Y8.2048
G01 X9.5267 Y8.1999
G01 X9.5351 Y8.1913
G01 X9.5409 Y8.1866
G01 X9.5466 Y8.1831
G01 X9.5500 Y8.1797
G01 X9.5528 Y8.1750
G01 X9.5557 Y8.1710
G01 X9.5673 Y8.1590
G01 X9.5731 Y8.1541
G01 X9.5798 Y8.1499
G01 X9.5840 Y8.1432
G01 X9.5889 Y8.1374
G01 X9.6033 Y8.1233
G01 X9.6082 Y8.1196
G01 X9.6129 Y8.1168
G01 X9.6165 Y8.1110
G01 X9.6212 Y8.1052
G01 X9.6331 Y8.0935
G01 X9.6380 Y8.0898
G01 X9.6427 Y8.0870
G01 X9.6462 Y8.0835
G01 X9.6491 Y8.0786
G01 X9.6528 Y8.0738
G01 X9.6610 Y8.0654
G01 X9.6669 Y8.0606
G01 X9.6726 Y8.0572
G01 X9.6793 Y8.0504
G01 X9.6835 Y8.0437
G01 X9.6883 Y8.0380
G01 X9.6970 Y8.0297
G01 X9.7010 Y8.0268
G01 X9.7057 Y8.0240
G01 X9.7091 Y8.0206
G01 X9.7126 Y8.0149
G01 X9.7173 Y8.0091
G01 X9.7292 Y7.9974
G01 X9.7341 Y7.9937
G01 X9.7388 Y7.9909
G01 X9.7426 Y7.9848
G01 X9.7472 Y7.9792
G01 X9.7624 Y7.9642
G01 X9.7673 Y7.9605
G01 X9.7720 Y7.9577
G01 X9.7754 Y7.9543
G01 X9.7789 Y7.9486
G01 X9.7836 Y7.9428
G01 X9.7931 Y7.9336
G01 X9.7971 Y7.9307
G01 X9.8018 Y7.9279
G01 X9.8054 Y7.9243
G01 X9.8085 Y7.9192
G01 X9.8124 Y7.9142
G01 X9.8254 Y7.9012
G01 X9.8141 Y7.8895
G01 X9.8112 Y7.8855
G01 X9.8086 Y7.8809
G01 X9.8051 Y7.8775
G01 X9.7984 Y7.8733
G01 X9.7927 Y7.8685
G01 X9.7811 Y7.8565
G01 X9.7782 Y7.8525
G01 X9.7754 Y7.8478
G01 X9.7706 Y7.8449
G01 X9.7657 Y7.8412
G01 X9.7505 Y7.8262
G01 X9.7457 Y7.8203
G01 X9.7422 Y7.8146
G01 X9.7355 Y7.8104
G01 X9.7297 Y7.8055
G01 X9.7181 Y7.7935
G01 X9.7152 Y7.7895
G01 X9.7124 Y7.7848
G01 X9.7090 Y7.7814
G01 X9.7033 Y7.7779
G01 X9.6975 Y7.7732
G01 X9.6858 Y7.7613
G01 X9.6821 Y7.7564
G01 X9.6793 Y7.7517
G01 X9.6758 Y7.7482
G01 X9.6709 Y7.7453
G01 X9.6661 Y7.7416
G01 X9.6577 Y7.7334
G01 X9.6529 Y7.7275
G01 X9.6495 Y7.7218
G01 X9.6460 Y7.7184
G01 X9.6393 Y7.7142
G01 X9.6336 Y7.7094
G01 X9.6253 Y7.7007
G01 X9.6224 Y7.6967
G01 X9.6196 Y7.6920
G01 X9.6162 Y7.6886
G01 X9.6105 Y7.6851
G01 X9.6047 Y7.6804
G01 X9.5897 Y7.6652
G01 X9.5860 Y7.6603
G01 X9.5832 Y7.6556
G01 X9.5771 Y7.6518
G01 X9.5715 Y7.6472
G01 X9.5600 Y7.6355
G01 X9.5563 Y7.6307
G01 X9.5534 Y7.6258
G01 X9.5475 Y7.6221
G01 X9.5436 Y7.6191
G01 X9.5284 Y7.6041
G01 X9.5237 Y7.5983
G01 X9.5202 Y7.5926
G01 X9.5168 Y7.5892
G01 X9.5121 Y7.5864
G01 X9.5081 Y7.5835
G01 X9.4994 Y7.5752
G01 X9.4946 Y7.5695
G01 X9.4904 Y7.5628
G01 X9.4870 Y7.5593
G01 X9.4813 Y7.5559
G01 X9.4754 Y7.5511
G01 X9.4637 Y7.5392
G01 X9.4600 Y7.5343
G01 X9.4572 Y7.5296
G01 X9.4538 Y7.5262
G01 X9.4491 Y7.5234
G01 X9.4451 Y7.5205
G01 X9.4364 Y7.5122
G01 X9.4316 Y7.5065
G01 X9.4274 Y7.4998
G01 X9.4241 Y7.4965
G01 X9.4177 Y7.4926
G01 X9.4113 Y7.4871
G01 X9.4006 Y7.4761
G01 X9.3969 Y7.4712
G01 X9.3943 Y7.4666
G01 X9.3908 Y7.4632
G01 X9.3851 Y7.4597
G01 X9.3793 Y7.4550
G01 X9.3676 Y7.4431
G01 X9.3639 Y7.4382
G01 X9.3611 Y7.4335
G01 X9.3563 Y7.4306
G01 X9.3514 Y7.4269
G01 X9.3395 Y7.4152
G01 X9.3348 Y7.4094
G01 X9.3313 Y7.4037
G01 X9.3279 Y7.4002
G01 X9.3232 Y7.3975
G01 X9.3192 Y7.3945
G01 X9.3097 Y7.3854
G01 X9.3049 Y7.3795
G01 X9.3015 Y7.3738
G01 X9.2980 Y7.3704
G01 X9.2933 Y7.3676
G01 X9.2884 Y7.3639
G01 X9.2773 Y7.3531
G01 X9.2725 Y7.3474
G01 X9.2683 Y7.3407
G01 X9.2400 Y7.3123
G01 X9.2344 Y7.3051
G01 X9.2268 Y7.2992
G01 X9.2093 Y7.2817
G01 X9.2055 Y7.2768
G01 X9.2020 Y7.2711
G01 X9.1771 Y7.2462
G01 X9.1723 Y7.2403
G01 X9.1689 Y7.2346
G01 X9.1522 Y7.2179
G01 X9.1484 Y7.2128
G01 X9.1456 Y7.2080
G01 X9.1395 Y7.2009
G01 X9.1358 Y7.1950
G01 X9.1299 Y7.1882
G01 X9.1258 Y7.1816
G01 X9.1091 Y7.1647
G01 X9.1054 Y7.1598
G01 X9.1026 Y7.1551
G01 X9.0909 Y7.1432
G01 X9.0752 Y7.1241
G01 X9.0723 Y7.1202
G01 X9.0695 Y7.1154
G01 X9.0544 Y7.1002
G01 X9.0513 Y7.0966
G01 X9.0479 Y7.0917
G01 X9.0374 Y7.0733
G01 X9.0256 Y7.0613
G01 X9.0069 Y7.0352
G01 X9.0032 Y7.0291
G01 X8.9940 Y7.0199
G01 X8.9900 Y7.0150
G01 X8.9741 Y6.9869
G01 X8.9616 Y6.9743
G01 X8.9569 Y6.9685
G01 X8.9410 Y6.9405
G01 X8.9318 Y6.9313
G01 X8.9272 Y6.9256
G01 X8.9113 Y6.8983
G01 X8.9016 Y6.8803
G01 X8.8874 Y6.8632
G01 X8.8838 Y6.8581
G01 X8.8804 Y6.8513
G01 X8.8754 Y6.8384
G01 X8.8673 Y6.8301
G01 X8.8623 Y6.8232
G01 X8.8376 Y6.7775
G01 X8.8290 Y6.7687
G01 X8.8239 Y6.7617
G01 X8.8206 Y6.7550
G01 X8.8094 Y6.7261
G01 X8.8035 Y6.7198
G01 X8.7993 Y6.7139
G01 X8.7842 Y6.6874
G01 X8.7710 Y6.6578
G01 X8.7647 Y6.6510
G01 X8.7600 Y6.6438
G01 X8.7574 Y6.6382
G01 X8.7444 Y6.6020
G01 X8.7311 Y6.5835
G01 X8.7274 Y6.5769
G01 X8.7109 Y6.5316
G01 X8.7003 Y6.5156
G01 X8.6943 Y6.5043
G01 X8.6853 Y6.4819
G01 X8.6820 Y6.4691
G01 X8.6719 Y6.4466
G01 X8.6616 Y6.4303
G01 X8.6588 Y6.4249
G01 X8.6563 Y6.4181
G01 X8.6512 Y6.3956
G01 X8.6463 Y6.3787
G01 X8.6315 Y6.3502
G01 X8.6233 Y6.3288
G01 X8.6158 Y6.2973
G01 X8.5998 Y6.2638
G01 X8.5972 Y6.2572
G01 X8.5850 Y6.2072
G01 X8.5795 Y6.1882
G01 X8.5721 Y6.1715
G01 X8.5649 Y6.1539
G01 X8.5635 Y6.1493
G01 X8.5580 Y6.1224
G01 X8.5543 Y6.1073
G01 X8.5510 Y6.0849
G01 X8.5477 Y6.0725
G01 X8.5416 Y6.0575
G01 X8.5317 Y6.0309
G01 X8.5297 Y6.0238
G01 X8.5241 Y5.9890
G01 X8.5181 Y5.9466
G01 X8.5040 Y5.9012
G01 X8.4995 Y5.8792
G01 X8.4959 Y5.8575
G01 X8.4925 Y5.8310
G01 X8.4878 Y5.7819
G01 X8.4845 Y5.7681
G01 X8.4781 Y5.7232
G01 X8.4748 Y5.7099
G01 X8.4717 Y5.6886
G01 X8.4689 Y5.6796
G01 X8.4676 Y5.6727
G01 X8.4645 Y5.6240
G01 X8.4617 Y5.6145
G01 X8.4606 Y5.6062
G01 X8.4574 Y5.4105
G01 X8.4550 Y5.4019
G01 X8.4540 Y5.3934
G01 X8.4590 Y5.1837
G01 X8.4624 Y5.1021
G01 X8.4658 Y5.0644
G01 X8.4695 Y5.0349
G01 X8.4731 Y5.0168
G01 X8.4763 Y4.9978
G01 X8.4796 Y4.9807
G01 X8.4860 Y4.9394
G01 X8.4891 Y4.9143
G01 X8.4945 Y4.8599
G01 X8.4980 Y4.8456
G01 X8.5013 Y4.8224
G01 X8.5052 Y4.8067
G01 X8.5069 Y4.8011
G01 X8.5129 Y4.7862
G01 X8.5163 Y4.7734
G01 X8.5281 Y4.6984
G01 X8.5376 Y4.6624
G01 X8.5501 Y4.6309
G01 X8.5544 Y4.6066
G01 X8.5577 Y4.5935
G01 X8.5608 Y4.5718
G01 X8.5622 Y4.5658
G01 X8.5643 Y4.5600
G01 X8.5807 Y4.5227
G01 X8.5917 Y4.4774
G01 X8.6022 Y4.4420
G01 X8.6061 Y4.4331
G01 X8.6116 Y4.4252
G01 X8.6185 Y4.4063
G01 X8.6217 Y4.3938
G01 X8.6295 Y4.3672
G01 X8.6318 Y4.3618
G01 X8.6424 Y4.3423
G01 X8.6501 Y4.3217
G01 X8.6578 Y4.2892
G01 X8.6597 Y4.2834
G01 X8.6642 Y4.2746
G01 X8.6789 Y4.2539
G01 X8.6800 Y4.2514
G01 X8.6850 Y4.2303
G01 X8.6938 Y4.2081
G01 X8.6971 Y4.2020
G01 X8.7078 Y4.1860
G01 X8.7162 Y4.1635
G01 X8.7306 Y4.1312
G01 X8.7368 Y4.1192
G01 X8.7427 Y4.1116
G01 X8.7492 Y4.0943
G01 X8.7578 Y4.0733
G01 X8.7609 Y4.0681
G01 X8.7765 Y4.0459
G01 X8.7811 Y4.0344
G01 X8.7850 Y4.0197
G01 X8.7880 Y4.0129
G01 X8.7936 Y4.0046
G01 X8.8019 Y3.9961
G01 X8.8134 Y3.9753
G01 X8.8194 Y3.9604
G01 X8.8250 Y3.9491
G01 X8.8298 Y3.9421
G01 X8.8359 Y3.9356
G01 X8.8420 Y3.9260
G01 X8.8489 Y3.9081
G01 X8.8522 Y3.9015
G01 X8.8572 Y3.8945
G01 X8.8683 Y3.8833
G01 X8.8765 Y3.8689
G01 X8.8824 Y3.8542
G01 X8.8853 Y3.8486
G01 X8.8904 Y3.8415
G01 X8.9003 Y3.8314
G01 X8.9036 Y3.8259
G01 X8.9069 Y3.8216
G01 X8.9124 Y3.8074
G01 X8.9160 Y3.8008
G01 X8.9197 Y3.7957
G01 X8.9261 Y3.7891
G01 X8.9366 Y3.7762
G01 X8.9536 Y3.7460
G01 X8.9583 Y3.7402
G01 X8.9677 Y3.7308
G01 X8.9803 Y3.7093
G01 X8.9849 Y3.7037
G01 X8.9940 Y3.6946
G01 X9.0110 Y3.6697
G01 X9.0140 Y3.6639
G01 X9.0166 Y3.6597
G01 X9.0206 Y3.6548
G01 X9.0293 Y3.6461
G01 X9.0410 Y3.6296
G01 X9.0444 Y3.6231
G01 X9.0479 Y3.6180
G01 X9.0512 Y3.6142
G01 X9.0619 Y3.6036
G01 X9.0716 Y3.5916
G01 X9.0749 Y3.5856
G01 X9.0793 Y3.5797
G01 X9.0993 Y3.5595
G01 X9.1020 Y3.5548
G01 X9.1057 Y3.5500
G01 X9.1214 Y3.5340
G01 X9.1313 Y3.5219
G01 X9.1345 Y3.5160
G01 X9.1381 Y3.5110
G01 X9.1523 Y3.4965
G01 X9.1573 Y3.4888
G01 X9.1605 Y3.4850
G01 X9.1689 Y3.4766
G01 X9.1724 Y3.4709
G01 X9.1762 Y3.4660
G01 X9.2019 Y3.4403
G01 X9.2054 Y3.4345
G01 X9.2102 Y3.4286
G01 X9.2245 Y3.4144
G01 X9.2284 Y3.4112
G01 X9.2331 Y3.4082
G01 X9.2361 Y3.4036
G01 X9.2401 Y3.3988
G01 X9.2595 Y3.3797
G01 X9.2635 Y3.3768
G01 X9.2682 Y3.3740
G01 X9.2755 Y3.3677
G01 X9.2829 Y3.3634
G01 X9.2908 Y3.3604
G01 X9.3065 Y3.3564
G01 X9.3115 Y3.3555
G01 X9.3190 Y3.3551
G01 X9.3253 Y3.3557
G01 X9.3457 Y3.3607
G01 X9.3514 Y3.3629
G01 X9.3557 Y3.3651
G01 X9.3598 Y3.3677
G01 X9.3645 Y3.3715
G01 X9.6960 Y3.7028
G01 X9.7002 Y3.7075
G01 X9.7054 Y3.7159
G01 X9.7090 Y3.7252
G01 X9.7135 Y3.7511
G01 X9.7140 Y3.7585
G01 X9.7132 Y3.7671
G01 X9.7113 Y3.7743
G01 X9.7034 Y3.7943
G01 X9.7001 Y3.8007
G01 X9.6975 Y3.8046
G01 X9.6936 Y3.8092
G01 X9.6688 Y3.8340
G01 X9.6653 Y3.8398
G01 X9.6613 Y3.8448
G01 X9.6322 Y3.8740
G01 X9.6287 Y3.8796
G01 X9.6240 Y3.8854
G01 X9.6195 Y3.8896
G01 X9.6080 Y3.8985
G01 X9.6003 Y3.9079
G01 X9.5971 Y3.9139
G01 X9.5926 Y3.9200
G01 X9.5809 Y3.9319
G01 X9.5757 Y3.9362
G01 X9.5650 Y3.9536
G01 X9.5620 Y3.9572
G01 X9.5559 Y3.9635
G01 X9.5375 Y3.9871
G01 X9.5346 Y3.9925
G01 X9.5311 Y3.9976
G01 X9.5279 Y4.0014
G01 X9.5119 Y4.0174
G01 X9.5014 Y4.0358
G01 X9.4980 Y4.0408
G01 X9.4948 Y4.0445
G01 X9.4788 Y4.0605
G01 X9.4638 Y4.0873
G01 X9.4593 Y4.0931
G01 X9.4527 Y4.0999
G01 X9.4337 Y4.1341
G01 X9.4293 Y4.1397
G01 X9.4193 Y4.1498
G01 X9.4042 Y4.1767
G01 X9.3996 Y4.1826
G01 X9.3928 Y4.1895
G01 X9.3812 Y4.2105
G01 X9.3753 Y4.2252
G01 X9.3726 Y4.2305
G01 X9.3679 Y4.2374
G01 X9.3595 Y4.2461
G01 X9.3509 Y4.2610
G01 X9.3417 Y4.2826
G01 X9.3367 Y4.2925
G01 X9.3318 Y4.2998
G01 X9.3260 Y4.3060
G01 X9.3207 Y4.3148
G01 X9.3087 Y4.3419
G01 X9.3039 Y4.3517
G01 X9.2999 Y4.3579
G01 X9.2945 Y4.3641
G01 X9.2863 Y4.3865
G01 X9.2754 Y4.4119
G01 X9.2570 Y4.4459
G01 X9.2539 Y4.4575
G01 X9.2454 Y4.4784
G01 X9.2410 Y4.4873
G01 X9.2384 Y4.4917
G01 X9.2346 Y4.4967
G01 X9.2310 Y4.5005
G01 X9.2296 Y4.5041
G01 X9.2218 Y4.5365
G01 X9.2199 Y4.5423
G01 X9.1991 Y4.5830
G01 X9.1888 Y4.6258
G01 X9.1873 Y4.6306
G01 X9.1847 Y4.6364
G01 X9.1690 Y4.6664
G01 X9.1629 Y4.6897
G01 X9.1554 Y4.7325
G01 X9.1534 Y4.7384
G01 X9.1369 Y4.7790
G01 X9.1297 Y4.8090
G01 X9.1228 Y4.8501
G01 X9.1079 Y4.9015
G01 X9.1032 Y4.9280
G01 X9.1005 Y4.9374
G01 X9.0991 Y4.9630
G01 X9.1155 Y4.9691
G01 X9.1206 Y4.9720
G01 X9.1370 Y4.9828
G01 X9.1505 Y4.9880
G01 X9.1911 Y4.9983
G01 X9.2124 Y5.0077
G01 X9.2396 Y5.0177
G01 X9.2478 Y5.0198
G01 X9.2941 Y5.0265
G01 X9.3364 Y5.0370
G01 X9.3541 Y5.0418
G01 X9.3668 Y5.0443
G01 X9.3928 Y5.0472
G01 X9.4660 Y5.0504
G01 X9.5863 Y5.0489
G01 X9.5985 Y5.0461
G01 X9.6301 Y5.0428
G01 X9.6863 Y5.0284
G01 X9.7471 Y5.0182
G01 X9.7625 Y5.0147
G01 X9.7880 Y5.0034
G01 X9.8083 Y4.9952
G01 X9.8384 Y4.9875
G01 X9.8533 Y4.9833
G01 X9.8677 Y4.9736
G01 X9.8745 Y4.9700
G01 X9.9045 Y4.9588
G01 X9.9187 Y4.9550
G01 X9.9227 Y4.9534
G01 X9.9279 Y4.9490
G01 X9.9331 Y4.9457
G01 X9.9640 Y4.9285
G01 X9.9757 Y4.9235
G01 X9.9819 Y4.9177
G01 X9.9888 Y4.9129
G01 X10.0141 Y4.8985
G01 X10.0254 Y4.8937
G01 X10.0356 Y4.8836
G01 X10.0402 Y4.8797
G01 X10.0442 Y4.8770
G01 X10.0626 Y4.8665
G01 X10.0701 Y4.8589
G01 X10.0747 Y4.8550
G01 X10.1081 Y4.8321
G01 X10.1135 Y4.8289
G01 X10.1359 Y4.8065
G01 X10.1408 Y4.8027
G01 X10.1464 Y4.7992
G01 X10.1714 Y4.7742
G01 X10.1788 Y4.7684
G01 X10.1846 Y4.7610
G01 X10.2086 Y4.7370
G01 X10.2184 Y4.7250
G01 X10.2216 Y4.7191
G01 X10.2252 Y4.7141
G01 X10.2384 Y4.7005
G01 X10.2482 Y4.6887
G01 X10.2514 Y4.6828
G01 X10.2551 Y4.6777
G01 X10.2700 Y4.6624
G01 X10.2857 Y4.6346
G01 X10.2900 Y4.6291
G01 X10.3001 Y4.6190
G01 X10.3117 Y4.5989
G01 X10.3370 Y4.5624
G01 X10.3402 Y4.5515
G01 X10.3515 Y4.5251
G01 X10.3558 Y4.5179
G01 X10.3595 Y4.5133
G01 X10.3639 Y4.5088
G01 X10.3685 Y4.5016
G01 X10.3729 Y4.4862
G01 X10.3838 Y4.4608
G01 X10.3900 Y4.4485
G01 X10.3952 Y4.4413
G01 X10.3969 Y4.4370
G01 X10.4055 Y4.4019
G01 X10.4199 Y4.3687
G01 X10.4262 Y4.3523
G01 X10.4319 Y4.3203
G01 X10.4335 Y4.3137
G01 X10.4150 Y4.3062
G01 X10.3999 Y4.2994
G01 X10.3799 Y4.2943
G01 X10.3473 Y4.2891
G01 X10.3161 Y4.2811
G01 X10.3093 Y4.2783
G01 X10.2891 Y4.2675
G01 X10.2788 Y4.2633
G01 X10.2434 Y4.2547
G01 X10.1982 Y4.2351
G01 X10.1860 Y4.2302
G01 X10.1658 Y4.2255
G01 X10.1568 Y4.2220
G01 X10.1505 Y4.2182
G01 X10.1449 Y4.2136
G01 X10.1341 Y4.2027
G01 X10.1282 Y4.1948
G01 X10.1254 Y4.1894
G01 X10.1229 Y4.1824
G01 X10.1180 Y4.1574
G01 X10.1179 Y4.1501
G01 X10.1185 Y4.1440
G01 X10.1226 Y4.1272
G01 X10.1244 Y4.1213
G01 X10.1264 Y4.1168
G01 X10.1295 Y4.1115
G01 X10.1332 Y4.1066
G01 X10.1386 Y4.1011
G01 X10.1431 Y4.0940
G01 X10.1494 Y4.0697
G01 X10.1509 Y4.0650
G01 X10.1769 Y4.0097
G01 X10.1834 Y3.9842
G01 X10.1947 Y3.9573
G01 X10.2007 Y3.9454
G01 X10.2060 Y3.9378
G01 X10.2095 Y3.9286
G01 X10.2157 Y3.9040
G01 X10.2180 Y3.8973
G01 X10.2384 Y3.8580
G01 X10.2470 Y3.8268
G01 X10.2590 Y3.7987
G01 X10.2641 Y3.7889
G01 X10.2692 Y3.7817
G01 X10.2708 Y3.7779
G01 X10.2752 Y3.7589
G01 X10.2774 Y3.7523
G01 X10.3065 Y3.6904
G01 X10.3092 Y3.6863
G01 X10.3130 Y3.6814
G01 X10.3257 Y3.6688
G01 X10.3306 Y3.6651
G01 X10.3359 Y3.6621
G01 X10.3427 Y3.6592
G01 X10.3486 Y3.6577
G01 X10.3812 Y3.6535
G01 X10.3885 Y3.6535
G01 X10.3945 Y3.6543
G01 X10.4027 Y3.6567
G01 X10.4104 Y3.6604
G01 X10.4343 Y3.6776
G01 X10.4413 Y3.6805
G01 X10.4732 Y3.6881
G01 X10.5003 Y3.6958
G01 X10.5222 Y3.7055
G01 X10.5345 Y3.7104
G01 X10.5426 Y3.7124
G01 X10.5818 Y3.7190
G01 X10.6108 Y3.7262
G01 X10.6497 Y3.7401
G01 X10.6585 Y3.7423
G01 X10.6749 Y3.7450
G01 X10.7076 Y3.7483
G01 X10.7362 Y3.7519
G01 X10.7560 Y3.7552
G01 X10.7741 Y3.7588
G01 X10.7888 Y3.7624
G01 X10.8023 Y3.7651
G01 X10.8411 Y3.7702
G01 X10.8518 Y3.7732
G01 X10.9076 Y3.7762
G01 X10.9885 Y3.7794
G01 X11.1188 Y3.7761
G01 X11.1796 Y3.7729
G01 X11.2207 Y3.7684
G01 X11.2682 Y3.7588
G01 X11.3108 Y3.7517
G01 X11.3767 Y3.7436
G01 X11.4152 Y3.7337
G01 X11.4396 Y3.7246
G01 X11.4457 Y3.7227
G01 X11.5066 Y3.7117
G01 X11.5483 Y3.6927
G01 X11.5540 Y3.6911
G01 X11.5832 Y3.6846
G01 X11.6052 Y3.6791
G01 X11.6159 Y3.6745
G01 X11.6234 Y3.6689
G01 X11.6314 Y3.6650
G01 X11.6553 Y3.6559
G01 X11.6873 Y3.6472
G01 X11.7076 Y3.6351
G01 X11.7120 Y3.6328
G01 X11.7562 Y3.6171
G01 X11.7601 Y3.6138
G01 X11.7727 Y3.6047
G01 X11.7793 Y3.6008
G01 X11.8045 Y3.5909
G01 X11.8239 Y3.5825
G01 X11.8315 Y3.5753
G01 X11.8355 Y3.5723
G01 X11.8399 Y3.5697
G01 X11.8560 Y3.5626
G01 X11.8759 Y3.5551
G01 X11.8886 Y3.5447
G01 X11.8934 Y3.5414
G01 X11.9330 Y3.5197
G01 X11.9379 Y3.5153
G01 X11.9430 Y3.5117
G01 X11.9753 Y3.4940
G01 X11.9854 Y3.4840
G01 X11.9904 Y3.4800
G01 X12.0183 Y3.4643
G01 X12.0308 Y3.4518
G01 X12.0364 Y3.4472
G01 X12.0655 Y3.4303
G01 X12.0741 Y3.4219
G01 X12.0932 Y3.4062
G01 X12.0973 Y3.4032
G01 X12.1021 Y3.4004
G01 X12.1106 Y3.3921
G01 X12.1297 Y3.3764
G01 X12.1337 Y3.3735
G01 X12.1384 Y3.3707
G01 X12.1577 Y3.3515
G01 X12.1626 Y3.3476
G01 X12.1683 Y3.3442
G01 X12.1765 Y3.3359
G01 X12.1813 Y3.3319
G01 X12.1880 Y3.3246
G01 X12.1929 Y3.3208
G01 X12.1979 Y3.3178
G01 X12.2073 Y3.3085
G01 X12.2141 Y3.3032
G01 X12.2197 Y3.2961
G01 X12.2339 Y3.2819
G01 X12.2388 Y3.2781
G01 X12.2444 Y3.2747
G01 X12.2479 Y3.2711
G01 X12.2507 Y3.2664
G01 X12.2544 Y3.2615
G01 X12.2661 Y3.2496
G01 X12.2709 Y3.2456
G01 X12.2779 Y3.2411
G01 X12.2815 Y3.2353
G01 X12.2852 Y3.2307
G01 X12.3075 Y3.2083
G01 X12.3117 Y3.2015
G01 X12.3175 Y3.1949
G01 X12.3203 Y3.1902
G01 X12.3240 Y3.1853
G01 X12.3407 Y3.1684
G01 X12.3442 Y3.1627
G01 X12.3507 Y3.1551
G01 X12.3557 Y3.1474
G01 X12.3589 Y3.1436
G01 X12.3674 Y3.1351
G01 X12.3857 Y3.1115
G01 X12.3892 Y3.1051
G01 X12.3935 Y3.0992
G01 X12.3996 Y3.0932
G01 X12.4060 Y3.0887
G01 X12.4204 Y3.0633
G01 X12.4243 Y3.0584
G01 X12.4343 Y3.0483
G01 X12.4502 Y3.0204
G01 X12.4548 Y3.0146
G01 X12.4639 Y3.0054
G01 X12.4823 Y2.9720
G01 X12.4866 Y2.9662
G01 X12.4938 Y2.9589
G01 X12.5184 Y2.9129
G01 X12.5220 Y2.9080
G01 X12.5270 Y2.9025
G01 X12.5371 Y2.8845
G01 X12.5402 Y2.8730
G01 X12.5438 Y2.8652
G01 X12.5486 Y2.8581
G01 X12.5567 Y2.8497
G01 X12.5627 Y2.8406
G01 X12.5668 Y2.8262
G01 X12.5754 Y2.8050
G01 X12.5790 Y2.7987
G01 X12.5925 Y2.7799
G01 X12.5994 Y2.7614
G01 X12.6059 Y2.7388
G01 X12.6082 Y2.7329
G01 X12.6112 Y2.7273
G01 X12.6220 Y2.7111
G01 X12.6290 Y2.6926
G01 X12.6319 Y2.6810
G01 X12.6337 Y2.6756
G01 X12.6506 Y2.6384
G01 X12.6570 Y2.6216
G01 X12.6614 Y2.6026
G01 X12.6691 Y2.5724
G01 X12.6786 Y2.5507
G01 X12.6870 Y2.5285
G01 X12.6891 Y2.5201
G01 X12.6947 Y2.4862
G01 X12.7019 Y2.4609
G01 X12.7131 Y2.4241
G01 X12.7189 Y2.4007
G01 X12.7216 Y2.3844
G01 X12.7269 Y2.3311
G01 X12.7305 Y2.3162
G01 X12.7373 Y2.2756
G01 X12.7414 Y2.2598
G01 X12.7434 Y2.2534
G01 X12.7465 Y2.2141
G01 X12.7476 Y2.2081
G01 X12.7496 Y2.2017
G01 X12.7527 Y2.0666
G01 X12.7535 Y2.0591
G01 X12.7546 Y2.0542
G01 X12.7562 Y2.0494
G01 X12.7660 Y2.0277
G01 X12.7698 Y2.0213
G01 X12.7744 Y2.0156
G01 X12.7818 Y2.0090
G01 X12.7903 Y2.0041
G01 X12.7996 Y2.0009
G01 X12.8094 Y1.9996
G01 X13.2913 Y1.9963
G01 X13.2963 Y1.9965
G01 X13.3013 Y1.9972
G01 X13.3204 Y2.0021
G01 X13.3292 Y2.0060
G01 X13.3343 Y2.0092
G01 X13.3380 Y2.0122
G01 X13.3465 Y2.0206
G01 X13.3518 Y2.0274
G01 X13.3559 Y2.0351
G01 X13.3585 Y2.0433
G01 X13.3597 Y2.0519
G01 X13.3631 Y2.1185
G01 X13.3597 Y2.1927
G01 X13.3562 Y2.2491
G01 X13.3510 Y2.2952
G01 X13.3441 Y2.3304
G01 X13.3378 Y2.3680
G01 X13.3347 Y2.3959
G01 X13.3293 Y2.4539
G01 X13.3258 Y2.4685
G01 X13.3220 Y2.4937
G01 X13.3068 Y2.5461
G01 X13.2996 Y2.5768
G01 X13.2965 Y2.6076
G01 X13.2954 Y2.6137
G01 X13.2876 Y2.6438
G01 X13.2780 Y2.6655
G01 X13.2714 Y2.6828
G01 X13.2694 Y2.6906
G01 X13.2658 Y2.7150
G01 X13.2583 Y2.7451
G01 X13.2558 Y2.7517
G01 X13.2387 Y2.7887
G01 X13.2360 Y2.8044
G01 X13.2291 Y2.8322
G01 X13.2274 Y2.8378
G01 X13.2155 Y2.8655
G01 X13.2123 Y2.8710
G01 X13.2087 Y2.8758
G01 X13.2051 Y2.8850
G01 X13.1981 Y2.9124
G01 X13.1868 Y2.9392
G01 X13.1804 Y2.9518
G01 X13.1753 Y2.9590
G01 X13.1736 Y2.9632
G01 X13.1658 Y2.9924
G01 X13.1638 Y2.9984
G01 X13.1597 Y3.0062
G01 X13.1457 Y3.0259
G01 X13.1348 Y3.0559
G01 X13.1259 Y3.0777
G01 X13.1221 Y3.0841
G01 X13.1156 Y3.0917
G01 X13.1128 Y3.0964
G01 X13.1092 Y3.1012
G01 X13.0949 Y3.1381
G01 X13.0898 Y3.1466
G01 X13.0783 Y3.1608
G01 X13.0642 Y3.1944
G01 X13.0615 Y3.1998
G01 X13.0560 Y3.2075
G01 X13.0462 Y3.2175
G01 X13.0402 Y3.2328
G01 X13.0274 Y3.2565
G01 X13.0227 Y3.2637
G01 X13.0107 Y3.2783
G01 X13.0045 Y3.2938
G01 X13.0012 Y3.3002
G01 X12.9963 Y3.3069
G01 X12.9857 Y3.3177
G01 X12.9675 Y3.3509
G01 X12.9624 Y3.3575
G01 X12.9524 Y3.3676
G01 X12.9392 Y3.3913
G01 X12.9359 Y3.3964
G01 X12.9329 Y3.4002
G01 X12.9278 Y3.4055
G01 X12.9160 Y3.4198
G01 X12.8980 Y3.4475
G01 X12.8925 Y3.4540
G01 X12.8869 Y3.4588
G01 X12.8774 Y3.4744
G01 X12.8744 Y3.4785
G01 X12.8702 Y3.4830
G01 X12.8654 Y3.4904
G01 X12.8622 Y3.4941
G01 X12.8518 Y3.5047
G01 X12.8357 Y3.5295
G01 X12.8320 Y3.5343
G01 X12.8259 Y3.5401
G01 X12.8199 Y3.5443
G01 X12.8151 Y3.5502
G01 X12.8119 Y3.5561
G01 X12.8075 Y3.5620
G01 X12.7841 Y3.5856
G01 X12.7812 Y3.5905
G01 X12.7775 Y3.5953
G01 X12.7543 Y3.6187
G01 X12.7508 Y3.6244
G01 X12.7461 Y3.6302
G01 X12.7342 Y3.6419
G01 X12.7267 Y3.6473
G01 X12.7228 Y3.6529
G01 X12.7188 Y3.6576
G01 X12.6367 Y3.7396
G01 X12.6319 Y3.7436
G01 X12.6273 Y3.7466
G01 X12.6216 Y3.7547
G01 X12.6099 Y3.7663
G01 X12.6051 Y3.7704
G01 X12.5989 Y3.7742
G01 X12.5761 Y3.7969
G01 X12.5712 Y3.8008
G01 X12.5654 Y3.8043
G01 X12.5503 Y3.8192
G01 X12.5302 Y3.8356
G01 X12.5245 Y3.8395
G01 X12.5197 Y3.8464
G01 X12.5136 Y3.8526
G01 X12.4882 Y3.8705
G01 X12.4827 Y3.8738
G01 X12.4710 Y3.8855
G01 X12.4663 Y3.8894
G01 X12.4623 Y3.8921
G01 X12.4439 Y3.9026
G01 X12.4295 Y3.9166
G01 X12.3976 Y3.9386
G01 X12.3912 Y3.9452
G01 X12.3725 Y3.9598
G01 X12.3435 Y3.9765
G01 X12.3365 Y3.9833
G01 X12.3304 Y3.9878
G01 X12.2970 Y4.0064
G01 X12.2899 Y4.0133
G01 X12.2837 Y4.0178
G01 X12.2514 Y4.0355
G01 X12.2431 Y4.0438
G01 X12.2362 Y4.0490
G01 X12.1904 Y4.0722
G01 X12.1754 Y4.0844
G01 X12.1680 Y4.0891
G01 X12.1521 Y4.0961
G01 X12.1395 Y4.1009
G01 X12.1347 Y4.1050
G01 X12.1305 Y4.1078
G01 X12.0985 Y4.1255
G01 X12.0682 Y4.1391
G01 X12.0614 Y4.1454
G01 X12.0533 Y4.1506
G01 X12.0478 Y4.1530
G01 X12.0175 Y4.1642
G01 X11.9993 Y4.1720
G01 X11.9834 Y4.1821
G01 X11.9790 Y4.1845
G01 X11.9528 Y4.1947
G01 X11.9407 Y4.1980
G01 X11.9100 Y4.2140
G01 X11.8899 Y4.2222
G01 X11.8834 Y4.2242
G01 X11.8556 Y4.2309
G01 X11.8340 Y4.2436
G01 X11.8117 Y4.2528
G01 X11.8057 Y4.2545
G01 X11.7723 Y4.2617
G01 X11.7409 Y4.2752
G01 X11.7096 Y4.2867
G01 X11.7036 Y4.2881
G01 X11.6754 Y4.2926
G01 X11.6485 Y4.3006
G01 X11.6217 Y4.3126
G01 X11.6157 Y4.3148
G01 X11.6107 Y4.3160
G01 X11.5915 Y4.3192
G01 X11.5754 Y4.3230
G01 X11.5435 Y4.3262
G01 X11.5350 Y4.3283
G01 X11.5016 Y4.3384
G01 X11.4663 Y4.3475
G01 X11.4429 Y4.3514
G01 X11.3910 Y4.3560
G01 X11.3759 Y4.3596
G01 X11.3313 Y4.3645
G01 X11.3144 Y4.3673
G01 X11.2967 Y4.3714
G01 X11.2878 Y4.3743
G01 X11.2816 Y4.3758
G01 X11.2333 Y4.3793
G01 X11.2252 Y4.3818
G01 X11.2181 Y4.3830
G01 X11.0535 Y4.3865
G01 X11.0401 Y4.3875
G01 X11.0353 Y4.4221
G01 X11.0312 Y4.4379
G01 X11.0164 Y4.4859
G01 X11.0137 Y4.4965
G01 X11.0088 Y4.5215
G01 X11.0008 Y4.5527
G01 X10.9863 Y4.5859
G01 X10.9797 Y4.6031
G01 X10.9687 Y4.6485
G01 X10.9669 Y4.6543
G01 X10.9637 Y4.6610
G01 X10.9506 Y4.6830
G01 X10.9401 Y4.7113
G01 X10.9291 Y4.7369
G01 X10.9117 Y4.7689
G01 X10.9091 Y4.7841
G01 X10.9058 Y4.7935
G01 X10.9028 Y4.7989
G01 X10.8900 Y4.8182
G01 X10.8760 Y4.8435
G01 X10.8701 Y4.8582
G01 X10.8668 Y4.8647
G01 X10.8618 Y4.8715
G01 X10.8544 Y4.8790
G01 X10.8317 Y4.9197
G01 X10.8288 Y4.9240
G01 X10.8165 Y4.9390
G01 X10.8099 Y4.9554
G01 X10.8065 Y4.9617
G01 X10.8014 Y4.9683
G01 X10.7915 Y4.9783
G01 X10.7745 Y5.0032
G01 X10.7716 Y5.0089
G01 X10.7689 Y5.0131
G01 X10.7651 Y5.0180
G01 X10.7563 Y5.0268
G01 X10.7444 Y5.0435
G01 X10.7417 Y5.0487
G01 X10.7383 Y5.0539
G01 X10.7344 Y5.0586
G01 X10.7213 Y5.0718
G01 X10.7137 Y5.0842
G01 X10.7102 Y5.0891
G01 X10.6862 Y5.1135
G01 X10.6827 Y5.1192
G01 X10.6789 Y5.1241
G01 X10.6647 Y5.1383
G01 X10.6573 Y5.1441
G01 X10.6515 Y5.1515
G01 X10.6233 Y5.1797
G01 X10.6191 Y5.1864
G01 X10.6142 Y5.1922
G01 X10.5743 Y5.2320
G01 X10.5694 Y5.2358
G01 X10.5637 Y5.2393
G01 X10.5484 Y5.2543
G01 X10.5293 Y5.2700
G01 X10.5248 Y5.2732
G01 X10.5207 Y5.2788
G01 X10.5154 Y5.2842
G01 X10.4975 Y5.2981
G01 X10.4907 Y5.3023
G01 X10.4732 Y5.3196
G01 X10.4368 Y5.3457
G01 X10.4168 Y5.3618
G01 X10.4104 Y5.3656
G01 X10.3999 Y5.3700
G01 X10.3950 Y5.3746
G01 X10.3738 Y5.3916
G01 X10.3449 Y5.4083
G01 X10.3356 Y5.4176
G01 X10.3287 Y5.4228
G01 X10.3168 Y5.4290
G01 X10.2944 Y5.4390
G01 X10.2878 Y5.4446
G01 X10.2720 Y5.4547
G01 X10.2659 Y5.4592
G01 X10.2616 Y5.4616
G01 X10.2535 Y5.4649
G01 X10.2422 Y5.4677
G01 X10.2342 Y5.4713
G01 X10.2193 Y5.4836
G01 X10.2122 Y5.4880
G01 X10.1724 Y5.5046
G01 X10.1674 Y5.5094
G01 X10.1636 Y5.5124
G01 X10.1596 Y5.5150
G01 X10.1542 Y5.5176
G01 X10.1192 Y5.5306
G01 X10.0928 Y5.5376
G01 X10.0786 Y5.5470
G01 X10.0714 Y5.5508
G01 X10.0501 Y5.5591
G01 X10.0293 Y5.5641
G01 X9.9974 Y5.5778
G01 X9.9769 Y5.5857
G01 X9.9417 Y5.5950
G01 X9.9049 Y5.6012
G01 X9.8629 Y5.6183
G01 X9.8441 Y5.6232
G01 X9.8014 Y5.6289
G01 X9.7476 Y5.6353
G01 X9.7192 Y5.6428
G01 X9.6992 Y5.6474
G01 X9.6882 Y5.6510
G01 X9.6799 Y5.6524
G01 X9.5985 Y5.6556
G01 X9.5891 Y5.6583
G01 X9.5803 Y5.6592
G01 X9.4083 Y5.6575
G01 X9.3313 Y5.6540
G01 X9.3078 Y5.6502
G01 X9.2897 Y5.6466
G01 X9.2504 Y5.6368
G01 X9.2140 Y5.6321
G01 X9.2001 Y5.6288
G01 X9.1614 Y5.6259
G01 X9.1543 Y5.6248
G01 X9.1154 Y5.6132
G01 X9.0893 Y5.6026
G01 X9.0761 Y5.5999
G01 X9.0788 Y5.6210
G01 X9.0820 Y5.6374
G01 X9.0921 Y5.6984
G01 X9.0969 Y5.7412
G01 X9.1005 Y5.7571
G01 X9.1036 Y5.7879
G01 X9.1057 Y5.7963
G01 X9.1190 Y5.8396
G01 X9.1246 Y5.8602
G01 X9.1301 Y5.8982
G01 X9.1356 Y5.9312
G01 X9.1531 Y5.9713
G01 X9.1680 Y6.0355
G01 X9.1861 Y6.0773
G01 X9.1953 Y6.1148
G01 X9.2013 Y6.1354
G01 X9.2149 Y6.1571
G01 X9.2177 Y6.1626
G01 X9.2198 Y6.1684
G01 X9.2297 Y6.2039
G01 X9.2419 Y6.2241
G01 X9.2441 Y6.2286
G01 X9.2538 Y6.2536
G01 X9.2575 Y6.2673
G01 X9.2674 Y6.2898
G01 X9.2776 Y6.3059
G01 X9.2800 Y6.3103
G01 X9.2924 Y6.3418
G01 X9.2960 Y6.3460
G01 X9.3008 Y6.3535
G01 X9.3056 Y6.3593
G01 X9.3093 Y6.3656
G01 X9.3117 Y6.3712
G01 X9.3229 Y6.4021
G01 X9.3277 Y6.4082
G01 X9.3418 Y6.4305
G01 X9.3443 Y6.4359
G01 X9.3525 Y6.4582
G01 X9.3597 Y6.4655
G01 X9.3641 Y6.4711
G01 X9.3871 Y6.5127
G01 X9.3936 Y6.5194
G01 X9.3979 Y6.5251
G01 X9.4162 Y6.5583
G01 X9.4234 Y6.5658
G01 X9.4278 Y6.5717
G01 X9.4493 Y6.6114
G01 X9.4583 Y6.6204
G01 X9.4629 Y6.6260
G01 X9.4755 Y6.6475
G01 X9.4930 Y6.6652
G01 X9.4974 Y6.6711
G01 X9.5049 Y6.6835
G01 X9.5213 Y6.7000
G01 X9.5247 Y6.7038
G01 X9.5282 Y6.7091
G01 X9.5419 Y6.7338
G01 X9.5544 Y6.7463
G01 X9.5583 Y6.7509
G01 X9.5610 Y6.7549
G01 X9.5707 Y6.7719
G01 X9.5771 Y6.7762
G01 X9.5826 Y6.7811
G01 X9.6001 Y6.8035
G01 X9.6075 Y6.8093
G01 X9.6241 Y6.8260
G01 X9.6288 Y6.8317
G01 X9.6321 Y6.8373
G01 X9.6498 Y6.8550
G01 X9.6632 Y6.8713
G01 X9.6784 Y6.8838
G01 X9.6820 Y6.8872
G01 X9.6866 Y6.8928
G01 X9.6939 Y6.9036
G01 X9.7002 Y6.9087
G01 X9.7168 Y6.9253
G01 X9.7215 Y6.9311
G01 X9.7250 Y6.9368
G01 X9.7314 Y6.9407
G01 X9.7369 Y6.9453
G01 X9.7485 Y6.9573
G01 X9.7516 Y6.9613
G01 X9.7547 Y6.9664
G01 X9.7585 Y6.9702
G01 X9.7636 Y6.9733
G01 X9.7686 Y6.9772
G01 X9.7804 Y6.9888
G01 X9.7848 Y6.9944
G01 X9.7881 Y6.9999
G01 X9.7928 Y7.0027
G01 X9.7977 Y7.0064
G01 X9.8129 Y7.0214
G01 X9.8176 Y7.0272
G01 X9.8211 Y7.0329
G01 X9.8279 Y7.0371
G01 X9.8337 Y7.0420
G01 X9.8453 Y7.0541
G01 X9.8483 Y7.0581
G01 X9.8511 Y7.0629
G01 X9.8568 Y7.0664
G01 X9.8626 Y7.0711
G01 X9.8776 Y7.0863
G01 X9.8813 Y7.0912
G01 X9.8842 Y7.0960
G01 X9.8899 Y7.0994
G01 X9.8946 Y7.1032
G01 X9.9098 Y7.1183
G01 X9.9130 Y7.1222
G01 X9.9162 Y7.1269
G01 X9.9217 Y7.1307
G01 X9.9265 Y7.1348
G01 X9.9406 Y7.1492
G01 X9.9444 Y7.1542
G01 X9.9472 Y7.1590
G01 X9.9529 Y7.1625
G01 X9.9587 Y7.1672
G01 X9.9737 Y7.1824
G01 X9.9774 Y7.1873
G01 X9.9802 Y7.1920
G01 X9.9857 Y7.1953
G01 X9.9913 Y7.1997
G01 X10.0037 Y7.2125
G01 X10.0068 Y7.2165
G01 X10.0102 Y7.2219
G01 X10.0169 Y7.2261
G01 X10.0226 Y7.2309
G01 X10.0367 Y7.2453
G01 X10.0405 Y7.2503
G01 X10.0433 Y7.2551
G01 X10.0490 Y7.2586
G01 X10.0539 Y7.2624
G01 X10.0665 Y7.2752
G01 X10.0702 Y7.2801
G01 X10.0729 Y7.2847
G01 X10.0765 Y7.2882
G01 X10.0832 Y7.2924
G01 X10.0889 Y7.2972
G01 X10.1005 Y7.3092
G01 X10.1034 Y7.3132
G01 X10.1062 Y7.3179
G01 X10.1113 Y7.3211
G01 X10.1160 Y7.3247
G01 X10.1311 Y7.3396
G01 X10.1358 Y7.3454
G01 X10.1393 Y7.3511
G01 X10.1457 Y7.3550
G01 X10.1521 Y7.3605
G01 X10.1627 Y7.3714
G01 X10.1664 Y7.3763
G01 X10.1690 Y7.3808
G01 X10.1740 Y7.3838
G01 X10.1789 Y7.3875
G01 X10.1941 Y7.4025
G01 X10.1989 Y7.4084
G01 X10.2024 Y7.4142
G01 X10.2091 Y7.4184
G01 X10.2148 Y7.4232
G01 X10.2289 Y7.4376
G01 X10.2326 Y7.4425
G01 X10.2354 Y7.4472
G01 X10.2409 Y7.4505
G01 X10.2465 Y7.4549
G01 X10.2589 Y7.4677
G01 X10.2620 Y7.4717
G01 X10.2651 Y7.4768
G01 X10.2714 Y7.4809
G01 X10.2751 Y7.4838
G01 X10.2902 Y7.4987
G01 X10.2949 Y7.5045
G01 X10.2984 Y7.5102
G01 X10.3042 Y7.5138
G01 X10.3100 Y7.5185
G01 X10.3217 Y7.5304
G01 X10.3254 Y7.5353
G01 X10.3282 Y7.5400
G01 X10.3330 Y7.5428
G01 X10.3380 Y7.5466
G01 X10.3532 Y7.5616
G01 X10.3580 Y7.5675
G01 X10.3615 Y7.5733
G01 X10.3662 Y7.5761
G01 X10.3702 Y7.5790
G01 X10.3822 Y7.5906
G01 X10.3870 Y7.5963
G01 X10.3912 Y7.6030
G01 X10.3945 Y7.6063
G01 X10.4009 Y7.6102
G01 X10.4064 Y7.6148
G01 X10.4180 Y7.6268
G01 X10.4211 Y7.6308
G01 X10.4242 Y7.6359
G01 X10.4309 Y7.6403
G01 X10.4348 Y7.6434
G01 X10.4499 Y7.6584
G01 X10.4544 Y7.6640
G01 X10.4576 Y7.6694
G01 X10.4623 Y7.6722
G01 X10.4672 Y7.6759
G01 X10.4783 Y7.6867
G01 X10.4831 Y7.6924
G01 X10.4873 Y7.6991
G01 X10.4931 Y7.7026
G01 X10.4990 Y7.7074
G01 X10.5140 Y7.7226
G01 X10.5170 Y7.7265
G01 X10.5208 Y7.7325
G01 X10.5259 Y7.7356
G01 X10.5299 Y7.7387
G01 X10.5410 Y7.7494
G01 X10.5465 Y7.7558
G01 X10.5504 Y7.7622
G01 X10.5537 Y7.7655
G01 X10.5604 Y7.7697
G01 X10.5661 Y7.7745
G01 X10.5777 Y7.7865
G01 X10.5806 Y7.7905
G01 X10.5834 Y7.7952
G01 X10.5892 Y7.7987
G01 X10.5951 Y7.8035
G01 X10.6101 Y7.8187
G01 X10.6139 Y7.8237
G01 X10.6167 Y7.8285
G01 X10.6214 Y7.8313
G01 X10.6263 Y7.8350
G01 X10.6382 Y7.8467
G01 X10.6429 Y7.8525
G01 X10.6464 Y7.8582
G01 X10.6532 Y7.8625
G01 X10.6589 Y7.8673
G01 X10.6729 Y7.8816
G01 X10.6758 Y7.8853
G01 X10.6799 Y7.8916
G01 X10.6850 Y7.8947
G01 X10.6890 Y7.8978
G01 X10.7018 Y7.9102
G01 X10.7062 Y7.9158
G01 X10.7095 Y7.9213
G01 X10.7142 Y7.9241
G01 X10.7191 Y7.9278
G01 X10.7343 Y7.9428
G01 X10.7390 Y7.9486
G01 X10.7425 Y7.9543
G01 X10.7483 Y7.9578
G01 X10.7542 Y7.9626
G01 X10.7692 Y7.9778
G01 X10.7729 Y7.9827
G01 X10.7759 Y7.9877
G01 X10.7804 Y7.9903
G01 X10.7853 Y7.9940
G01 X10.7971 Y8.0055
G01 X10.8017 Y8.0110
G01 X10.8056 Y8.0174
G01 X10.8113 Y8.0209
G01 X10.8171 Y8.0256
G01 X10.8320 Y8.0407
G01 X10.8356 Y8.0454
G01 X10.8387 Y8.0505
G01 X10.8434 Y8.0532
G01 X10.8484 Y8.0570
G01 X10.8603 Y8.0687
G01 X10.8650 Y8.0745
G01 X10.8687 Y8.0805
G01 X10.8733 Y8.0832
G01 X10.8782 Y8.0869
G01 X10.8926 Y8.1010
G01 X10.8974 Y8.1067
G01 X10.9016 Y8.1134
G01 X10.9083 Y8.1176
G01 X10.9139 Y8.1224
G01 X10.9282 Y8.1367
G01 X10.9313 Y8.1407
G01 X10.9351 Y8.1468
G01 X10.9402 Y8.1499
G01 X10.9442 Y8.1530
G01 X10.9570 Y8.1654
G01 X10.9614 Y8.1710
G01 X10.9647 Y8.1765
G01 X10.9694 Y8.1793
G01 X10.9743 Y8.1830
G01 X10.9895 Y8.1980
G01 X10.9942 Y8.2038
G01 X10.9977 Y8.2095
G01 X11.0032 Y8.2128
G01 X11.0088 Y8.2172
G01 X11.0204 Y8.2290
G01 X11.0243 Y8.2340
G01 X11.0274 Y8.2391
G01 X11.0311 Y8.2429
G01 X11.0357 Y8.2456
G01 X11.0406 Y8.2493
G01 X11.0517 Y8.2601
G01 X11.0565 Y8.2658
G01 X11.0608 Y8.2726
G01 X11.0665 Y8.2761
G01 X11.0723 Y8.2808
G01 X11.0873 Y8.2960
G01 X11.0910 Y8.3009
G01 X11.0937 Y8.3055
G01 X11.1027 Y8.3114
G01 X11.1147 Y8.3230
G01 X11.1196 Y8.3288
G01 X11.1238 Y8.3356
G01 X11.1285 Y8.3384
G01 X11.1334 Y8.3421
G01 X11.1478 Y8.3562
G01 X11.1526 Y8.3619
G01 X11.1568 Y8.3686
G01 X11.1623 Y8.3719
G01 X11.1679 Y8.3763
G01 X11.1787 Y8.3872
G01 X11.1843 Y8.3943
G01 X11.1872 Y8.3963
G01 X11.1994 Y8.4001
G01 X11.2251 Y8.4121
G01 X11.2282 Y7.8741
G01 X11.2318 Y7.8385
G01 X11.2327 Y7.8335
G01 X11.2340 Y7.8287
G01 X11.2518 Y7.7890
G01 X11.2682 Y7.7466
G01 X11.2721 Y7.7389
G01 X11.2765 Y7.7329
G01 X11.2835 Y7.7255
G01 X11.3019 Y7.7019
G01 X11.3068 Y7.6934
G01 X11.3123 Y7.6867
G01 X11.3210 Y7.6784
G01 X11.3250 Y7.6755
G01 X11.3297 Y7.6727
G01 X11.3332 Y7.6692
G01 X11.3361 Y7.6643
G01 X11.3398 Y7.6595
G01 X11.3480 Y7.6511
G01 X11.3539 Y7.6463
G01 X11.3596 Y7.6429
G01 X11.3663 Y7.6361
G01 X11.3698 Y7.6304
G01 X11.3745 Y7.6246
G01 X11.3840 Y7.6154
G01 X11.3880 Y7.6125
G01 X11.3927 Y7.6097
G01 X11.3961 Y7.6063
G01 X11.3989 Y7.6016
G01 X11.4026 Y7.5967
G01 X11.4143 Y7.5848
G01 X11.4202 Y7.5800
G01 X11.4260 Y7.5765
G01 X11.4292 Y7.5733
G01 X11.4332 Y7.5668
G01 X11.4387 Y7.5604
G01 X11.4474 Y7.5522
G01 X11.4555 Y7.5469
G01 X11.4591 Y7.5433
G01 X11.4626 Y7.5376
G01 X11.4673 Y7.5318
G01 X11.4792 Y7.5201
G01 X11.4841 Y7.5164
G01 X11.4888 Y7.5136
G01 X11.4922 Y7.5102
G01 X11.4950 Y7.5055
G01 X11.4987 Y7.5006
G01 X11.5071 Y7.4920
G01 X11.5130 Y7.4872
G01 X11.5188 Y7.4837
G01 X11.5220 Y7.4805
G01 X11.5262 Y7.4737
G01 X11.5311 Y7.4679
G01 X11.5431 Y7.4563
G01 X11.5471 Y7.4534
G01 X11.5518 Y7.4506
G01 X11.5552 Y7.4472
G01 X11.5587 Y7.4415
G01 X11.5634 Y7.4357
G01 X11.5753 Y7.4240
G01 X11.5802 Y7.4203
G01 X11.5849 Y7.4175
G01 X11.5884 Y7.4140
G01 X11.5913 Y7.4091
G01 X11.5950 Y7.4043
G01 X11.6032 Y7.3959
G01 X11.6091 Y7.3911
G01 X11.6148 Y7.3877
G01 X11.6182 Y7.3842
G01 X11.6224 Y7.3775
G01 X11.6272 Y7.3718
G01 X11.6392 Y7.3602
G01 X11.6432 Y7.3573
G01 X11.6479 Y7.3545
G01 X11.6508 Y7.3497
G01 X11.6545 Y7.3448
G01 X11.6695 Y7.3296
G01 X11.6754 Y7.3248
G01 X11.6811 Y7.3214
G01 X11.6845 Y7.3179
G01 X11.6872 Y7.3134
G01 X11.6908 Y7.3086
G01 X11.6981 Y7.3009
G01 X11.7045 Y7.2954
G01 X11.7110 Y7.2914
G01 X11.7143 Y7.2881
G01 X11.7185 Y7.2814
G01 X11.7233 Y7.2757
G01 X11.7353 Y7.2641
G01 X11.7393 Y7.2612
G01 X11.7440 Y7.2584
G01 X11.7475 Y7.2549
G01 X11.7518 Y7.2481
G01 X11.7565 Y7.2425
G01 X11.7651 Y7.2343
G01 X11.7691 Y7.2314
G01 X11.7738 Y7.2286
G01 X11.7773 Y7.2251
G01 X11.7808 Y7.2194
G01 X11.7855 Y7.2136
G01 X11.7974 Y7.2019
G01 X11.8023 Y7.1982
G01 X11.8070 Y7.1954
G01 X11.8099 Y7.1906
G01 X11.8136 Y7.1857
G01 X11.8286 Y7.1705
G01 X11.8344 Y7.1658
G01 X11.8401 Y7.1623
G01 X11.8436 Y7.1589
G01 X11.8477 Y7.1522
G01 X11.8526 Y7.1464
G01 X11.8613 Y7.1382
G01 X11.8653 Y7.1352
G01 X11.8700 Y7.1325
G01 X11.8734 Y7.1290
G01 X11.8776 Y7.1223
G01 X11.8824 Y7.1166
G01 X11.8944 Y7.1050
G01 X11.8984 Y7.1021
G01 X11.9031 Y7.0993
G01 X11.9060 Y7.0945
G01 X11.9097 Y7.0896
G01 X11.9247 Y7.0744
G01 X11.9305 Y7.0697
G01 X11.9364 Y7.0661
G01 X11.9390 Y7.0615
G01 X11.9427 Y7.0566
G01 X11.9534 Y7.0456
G01 X11.9598 Y7.0401
G01 X11.9662 Y7.0362
G01 X11.9695 Y7.0329
G01 X11.9737 Y7.0262
G01 X11.9785 Y7.0205
G01 X11.9872 Y7.0122
G01 X11.9912 Y7.0093
G01 X11.9959 Y7.0065
G01 X11.9993 Y7.0031
G01 X12.0021 Y6.9984
G01 X12.0058 Y6.9935
G01 X12.0175 Y6.9816
G01 X12.0234 Y6.9768
G01 X12.0291 Y6.9734
G01 X12.0325 Y6.9699
G01 X12.0367 Y6.9632
G01 X12.0415 Y6.9575
G01 X12.0535 Y6.9459
G01 X12.0575 Y6.9430
G01 X12.0622 Y6.9402
G01 X12.0665 Y6.9334
G01 X12.0713 Y6.9277
G01 X12.0857 Y6.9136
G01 X12.0906 Y6.9099
G01 X12.0953 Y6.9071
G01 X12.0987 Y6.9017
G01 X12.1018 Y6.8977
G01 X12.1142 Y6.8849
G01 X12.1198 Y6.8805
G01 X12.1252 Y6.8772
G01 X12.1294 Y6.8705
G01 X12.1343 Y6.8647
G01 X12.1487 Y6.8506
G01 X12.1536 Y6.8469
G01 X12.1583 Y6.8441
G01 X12.1619 Y6.8405
G01 X12.1649 Y6.8354
G01 X12.1680 Y6.8315
G01 X12.1754 Y6.8237
G01 X12.1817 Y6.8183
G01 X12.1881 Y6.8143
G01 X12.1949 Y6.8076
G01 X12.1988 Y6.8012
G01 X12.2035 Y6.7956
G01 X12.2130 Y6.7866
G01 X12.2211 Y6.7813
G01 X12.2256 Y6.7743
G01 X12.2296 Y6.7695
G01 X12.2448 Y6.7545
G01 X12.2497 Y6.7508
G01 X12.2544 Y6.7480
G01 X12.2585 Y6.7415
G01 X12.2634 Y6.7358
G01 X12.2751 Y6.7242
G01 X12.2799 Y6.7207
G01 X12.2843 Y6.7182
G01 X12.2877 Y6.7147
G01 X12.2912 Y6.7090
G01 X12.2959 Y6.7032
G01 X12.3054 Y6.6940
G01 X12.3094 Y6.6911
G01 X12.3141 Y6.6883
G01 X12.3208 Y6.6816
G01 X12.3241 Y6.6761
G01 X12.3279 Y6.6714
G01 X12.3339 Y6.6656
G01 X12.3584 Y6.6485
G01 X12.3636 Y6.6454
G01 X12.3741 Y6.6352
G01 X12.3818 Y6.6297
G01 X12.4074 Y6.6151
G01 X12.4660 Y6.5876
G01 X12.4739 Y6.5848
G01 X12.4785 Y6.5839
G01 X12.4845 Y6.5833
G01 X12.5843 Y6.5800
G01 X12.5905 Y6.5807
G01 X12.6315 Y6.5875
G01 X12.6376 Y6.5891
G01 X12.6423 Y6.5909
G01 X12.6468 Y6.5931
G01 X12.6693 Y6.6066
G01 X12.6794 Y6.6107
G01 X12.6982 Y6.6159
G01 X12.7070 Y6.6199
G01 X12.7129 Y6.6240
G01 X12.7182 Y6.6288
G01 X12.7227 Y6.6315
G01 X12.7267 Y6.6344
G01 X12.7336 Y6.6410
G01 X12.7456 Y6.6508
G01 X12.7525 Y6.6547
G01 X12.7593 Y6.6601
G01 X12.7735 Y6.6743
G01 X12.7766 Y6.6782
G01 X12.7796 Y6.6828
G01 X12.7843 Y6.6858
G01 X12.7882 Y6.6890
G01 X12.8025 Y6.7032
G01 X12.8072 Y6.7090
G01 X12.8107 Y6.7147
G01 X12.8390 Y6.7431
G01 X12.8447 Y6.7504
G01 X12.8512 Y6.7553
G01 X12.8638 Y6.7681
G01 X12.8675 Y6.7730
G01 X12.8703 Y6.7777
G01 X12.8768 Y6.7853
G01 X12.8803 Y6.7910
G01 X12.9011 Y6.8121
G01 X12.9040 Y6.8161
G01 X12.9068 Y6.8208
G01 X12.9133 Y6.8284
G01 X12.9168 Y6.8342
G01 X12.9221 Y6.8397
G01 X12.9427 Y6.8655
G01 X12.9502 Y6.8709
G01 X12.9603 Y6.8813
G01 X12.9641 Y6.8865
G01 X12.9717 Y6.8990
G01 X12.9857 Y6.9134
G01 X13.0061 Y6.9411
G01 X13.0095 Y6.9467
G01 X13.0212 Y6.9584
G01 X13.0243 Y6.9620
G01 X13.0278 Y6.9670
G01 X13.0384 Y6.9855
G01 X13.0511 Y6.9983
G01 X13.0565 Y7.0052
G01 X13.0717 Y7.0321
G01 X13.0842 Y7.0446
G01 X13.0890 Y7.0505
G01 X13.1049 Y7.0786
G01 X13.1150 Y7.0888
G01 X13.1190 Y7.0939
G01 X13.1381 Y7.1283
G01 X13.1488 Y7.1392
G01 X13.1538 Y7.1460
G01 X13.1751 Y7.1852
G01 X13.1802 Y7.1908
G01 X13.1842 Y7.1968
G01 X13.2045 Y7.2345
G01 X13.2159 Y7.2460
G01 X13.2218 Y7.2539
G01 X13.2251 Y7.2605
G01 X13.2365 Y7.2896
G01 X13.2408 Y7.2941
G01 X13.2446 Y7.2988
G01 X13.2582 Y7.3201
G01 X13.2606 Y7.3246
G01 X13.2626 Y7.3293
G01 X13.2662 Y7.3424
G01 X13.2866 Y7.3708
G01 X13.2898 Y7.3763
G01 X13.2927 Y7.3833
G01 X13.2975 Y7.4007
G01 X13.3023 Y7.4119
G01 X13.3060 Y7.4161
G01 X13.3088 Y7.4201
G01 X13.3240 Y7.4464
G01 X13.3275 Y7.4545
G01 X13.3307 Y7.4669
G01 X13.3358 Y7.4780
G01 X13.3506 Y7.5017
G01 X13.3535 Y7.5071
G01 X13.3561 Y7.5140
G01 X13.3604 Y7.5296
G01 X13.3710 Y7.5534
G01 X13.3767 Y7.5606
G01 X13.3812 Y7.5694
G01 X13.3936 Y7.6031
G01 X13.4004 Y7.6261
G01 X13.4121 Y7.6442
G01 X13.4209 Y7.6655
G01 X13.4231 Y7.6727
G01 X13.4297 Y7.7032
G01 X13.4424 Y7.7246
G01 X13.4515 Y7.7470
G01 X13.4532 Y7.7529
G01 X13.4604 Y7.7863
G01 X13.4739 Y7.8178
G01 X13.4847 Y7.8466
G01 X13.4864 Y7.8529
G01 X13.4912 Y7.8799
G01 X13.4968 Y7.8995
G01 X13.5010 Y7.9120
G01 X13.5153 Y7.9487
G01 X13.5198 Y7.9700
G01 X13.5245 Y8.0003
G01 X13.5270 Y8.0100
G01 X13.5458 Y8.0703
G01 X13.5562 Y8.1359
G01 X13.5625 Y8.1672
G01 X13.5671 Y8.1870
G01 X13.5757 Y8.2199
G01 X13.5797 Y8.2400
G01 X13.5833 Y8.2690
G01 X13.5900 Y8.3419
G01 X13.5930 Y8.3698
G01 X13.5960 Y8.3875
G01 X13.5993 Y8.4043
G01 X13.6038 Y8.4327
G01 X13.6066 Y8.4411
G01 X13.6080 Y8.4485
G01 X13.6113 Y8.5183
G01 X13.6138 Y8.5263
G01 X13.6149 Y8.5348
G01 X13.6183 Y9.5905
G01 X13.6269 Y9.5991
G01 X13.6506 Y9.6123
G01 X13.6559 Y9.6157
G01 X13.6606 Y9.6196
G01 X13.6698 Y9.6287
G01 X13.7062 Y9.6483
G01 X13.7115 Y9.6515
G01 X13.7173 Y9.6563
G01 X13.7266 Y9.6657
G01 X13.7450 Y9.6762
G01 X13.7499 Y9.6796
G01 X13.7535 Y9.6827
G01 X13.7661 Y9.6952
G01 X13.7984 Y9.7128
G01 X13.8060 Y9.7185
G01 X13.8161 Y9.7286
G01 X13.8320 Y9.7377
G01 X13.8396 Y9.7415
G01 X13.8440 Y9.7442
G01 X13.8499 Y9.7491
G01 X13.8625 Y9.7618
G01 X13.8903 Y9.7774
G01 X13.8952 Y9.7813
G01 X13.9053 Y9.7913
G01 X13.9323 Y9.8065
G01 X13.9382 Y9.8111
G01 X13.9519 Y9.8247
G01 X13.9703 Y9.8352
G01 X13.9743 Y9.8379
G01 X13.9790 Y9.8418
G01 X13.9950 Y9.8578
G01 X14.0219 Y9.8729
G01 X14.0278 Y9.8774
G01 X14.0381 Y9.8877
G01 X14.0565 Y9.8982
G01 X14.0605 Y9.9009
G01 X14.0652 Y9.9048
G01 X14.0764 Y9.9160
G01 X14.0931 Y9.9279
G01 X14.0994 Y9.9312
G01 X14.1054 Y9.9355
G01 X14.1210 Y9.9506
G01 X14.1416 Y9.9626
G01 X14.1473 Y9.9671
G01 X14.1573 Y9.9770
G01 X14.1819 Y9.9939
G01 X14.1887 Y9.9974
G01 X14.1939 Y10.0010
G01 X14.1978 Y10.0043
G01 X14.2108 Y10.0173
G01 X14.2232 Y10.0248
G01 X14.2291 Y10.0292
G01 X14.2469 Y10.0468
G01 X14.2653 Y10.0573
G01 X14.2712 Y10.0615
G01 X14.2900 Y10.0799
G01 X14.3085 Y10.0905
G01 X14.3135 Y10.0940
G01 X14.3171 Y10.0971
G01 X14.3278 Y10.1078
G01 X14.3398 Y10.1176
G01 X14.3456 Y10.1208
G01 X14.3506 Y10.1244
G01 X14.3675 Y10.1408
G01 X14.3796 Y10.1507
G01 X14.3855 Y10.1539
G01 X14.3905 Y10.1575
G01 X14.4040 Y10.1707
G01 X14.4161 Y10.1806
G01 X14.4211 Y10.1833
G01 X14.4261 Y10.1867
G01 X14.4372 Y10.1973
G01 X14.4506 Y10.2083
G01 X14.4651 Y10.2169
G01 X14.4691 Y10.2197
G01 X14.4729 Y10.2230
G01 X14.4869 Y10.2370
G01 X14.4989 Y10.2468
G01 X14.5048 Y10.2500
G01 X14.5098 Y10.2536
G01 X14.5226 Y10.2661
G01 X14.5281 Y10.2730
G01 X14.5338 Y10.2761
G01 X14.5388 Y10.2795
G01 X14.5425 Y10.2827
G01 X14.5598 Y10.3000
G01 X14.5718 Y10.3098
G01 X14.5787 Y10.3137
G01 X14.5846 Y10.3182
G01 X14.5964 Y10.3300
G01 X14.6009 Y10.3359
G01 X14.6100 Y10.3421
G01 X14.6168 Y10.3458
G01 X14.6216 Y10.3491
G01 X14.6252 Y10.3522
G01 X14.6405 Y10.3674
G01 X14.6466 Y10.3712
G01 X14.6535 Y10.3771
G01 X14.6593 Y10.3807
G01 X14.6642 Y10.3845
G01 X14.6834 Y10.4037
G01 X14.6891 Y10.4072
G01 X14.6949 Y10.4119
G01 X14.7166 Y10.4336
G01 X14.7225 Y10.4372
G01 X14.7272 Y10.4410
G01 X14.7530 Y10.4667
G01 X14.7577 Y10.4695
G01 X14.7626 Y10.4732
G01 X14.7860 Y10.4964
G01 X14.7908 Y10.4992
G01 X14.7958 Y10.5030
G01 X14.8195 Y10.5265
G01 X14.8253 Y10.5301
G01 X14.8299 Y10.5338
G01 X14.8556 Y10.5594
G01 X14.8604 Y10.5622
G01 X14.8654 Y10.5660
G01 X14.8889 Y10.5893
G01 X14.8947 Y10.5928
G01 X14.8995 Y10.5967
G01 X14.9253 Y10.6224
G01 X14.9310 Y10.6259
G01 X14.9359 Y10.6298
G01 X14.9651 Y10.6589
G01 X14.9708 Y10.6624
G01 X14.9757 Y10.6662
G01 X15.0016 Y10.6921
G01 X15.0073 Y10.6956
G01 X15.0131 Y10.7003
G01 X15.0289 Y10.7160
G01 X15.0328 Y10.7204
G01 X15.0371 Y10.7243
G01 X15.0714 Y10.7585
G01 X15.0776 Y10.7623
G01 X15.0833 Y10.7672
G01 X15.0941 Y10.7780
G01 X15.0996 Y10.7857
G01 X15.1140 Y10.7979
G01 X15.1265 Y10.8127
G01 X15.1309 Y10.8156
G01 X15.1357 Y10.8196
G01 X15.2036 Y10.8875
G01 X15.2102 Y10.8915
G01 X15.2158 Y10.8962
G01 X15.2213 Y10.9027
G01 X15.2253 Y10.9091
G01 X15.2551 Y10.9389
G01 X15.2592 Y10.9437
G01 X15.2622 Y10.9485
G01 X15.2697 Y10.9538
G01 X15.2808 Y10.9646
G01 X15.2856 Y10.9703
G01 X15.2898 Y10.9769
G01 X15.3181 Y11.0052
G01 X15.3241 Y11.0128
G01 X15.3311 Y11.0184
G01 X15.3452 Y11.0324
G01 X15.3497 Y11.0380
G01 X15.3529 Y11.0434
G01 X15.3794 Y11.0701
G01 X15.3831 Y11.0750
G01 X15.3859 Y11.0797
G01 X15.3919 Y11.0857
G01 X15.3950 Y11.0896
G01 X15.3992 Y11.0963
G01 X15.4192 Y11.1165
G01 X15.4229 Y11.1214
G01 X15.4257 Y11.1261
G01 X15.4375 Y11.1381
G01 X15.4532 Y11.1573
G01 X15.4561 Y11.1613
G01 X15.4587 Y11.1658
G01 X15.4813 Y11.1884
G01 X15.4853 Y11.1934
G01 X15.4888 Y11.1992
G01 X15.5112 Y11.2216
G01 X15.5150 Y11.2265
G01 X15.5185 Y11.2322
G01 X15.5302 Y11.2441
G01 X15.5467 Y11.2642
G01 X15.5516 Y11.2720
G01 X15.5622 Y11.2828
G01 X15.5657 Y11.2876
G01 X15.5683 Y11.2920
G01 X15.5738 Y11.2982
G01 X15.5765 Y11.3022
G01 X15.5871 Y11.3207
G01 X15.5973 Y11.3312
G01 X15.6130 Y11.3504
G01 X15.6179 Y11.3581
G01 X15.6264 Y11.3668
G01 X15.6421 Y11.3860
G01 X15.6451 Y11.3902
G01 X15.6476 Y11.3944
G01 X15.6595 Y11.4064
G01 X15.6627 Y11.4102
G01 X15.6662 Y11.4152
G01 X15.6695 Y11.4215
G01 X15.6845 Y11.4426
G01 X15.6875 Y11.4476
G01 X15.6967 Y11.4569
G01 X15.7005 Y11.4617
G01 X15.7134 Y11.4837
G01 X15.7257 Y11.4958
G01 X15.7303 Y11.5014
G01 X15.7472 Y11.5305
G01 X15.7647 Y11.5516
G01 X15.7682 Y11.5565
G01 X15.7835 Y11.5833
G01 X15.7899 Y11.5907
G01 X15.8072 Y11.6149
G01 X15.8101 Y11.6199
G01 X15.8193 Y11.6292
G01 X15.8230 Y11.6338
G01 X15.8262 Y11.6389
G01 X15.8426 Y11.6690
G01 X15.8524 Y11.6788
G01 X15.8576 Y11.6854
G01 X15.8799 Y11.7261
G01 X15.8843 Y11.7310
G01 X15.8879 Y11.7361
G01 X15.9057 Y11.7685
G01 X15.9139 Y11.7771
G01 X15.9168 Y11.7811
G01 X15.9194 Y11.7855
G01 X15.9234 Y11.7898
G01 X15.9270 Y11.7946
G01 X15.9338 Y11.8077
G01 X15.9404 Y11.8232
G01 X15.9452 Y11.8280
G01 X15.9491 Y11.8328
G01 X15.9627 Y11.8541
G01 X15.9661 Y11.8608
G01 X15.9711 Y11.8737
G01 X15.9768 Y11.8797
G01 X15.9810 Y11.8857
G01 X16.0090 Y11.9381
G01 X16.0166 Y11.9460
G01 X16.0215 Y11.9532
G01 X16.0271 Y11.9645
G01 X16.0338 Y11.9813
G01 X16.0388 Y11.9922
G01 X16.0519 Y12.0079
G01 X16.0566 Y12.0150
G01 X16.0592 Y12.0206
G01 X16.0674 Y12.0429
G01 X16.0742 Y12.0504
G01 X16.0839 Y12.0639
G01 X16.0865 Y12.0682
G01 X16.0891 Y12.0739
G01 X16.1006 Y12.1059
G01 X16.1059 Y12.1115
G01 X16.1096 Y12.1165
G01 X16.1263 Y12.1464
G01 X16.1292 Y12.1547
G01 X16.1315 Y12.1677
G01 X16.1402 Y12.1809
G01 X16.1581 Y12.2129
G01 X16.1609 Y12.2195
G01 X16.1635 Y12.2290
G01 X16.1793 Y12.2526
G01 X16.1824 Y12.2582
G01 X16.2001 Y12.3050
G01 X16.2142 Y12.3274
G01 X16.2171 Y12.3328
G01 X16.2197 Y12.3397
G01 X16.2240 Y12.3553
G01 X16.2348 Y12.3795
G01 X16.2519 Y12.4107
G01 X16.2545 Y12.4174
G01 X16.2574 Y12.4287
G01 X16.2677 Y12.4520
G01 X16.2735 Y12.4595
G01 X16.2776 Y12.4673
G01 X16.2871 Y12.4922
G01 X16.2935 Y12.5144
G01 X16.2986 Y12.5262
G01 X16.3030 Y12.5320
G01 X16.3060 Y12.5373
G01 X16.3147 Y12.5583
G01 X16.3165 Y12.5643
G01 X16.3234 Y12.5931
G01 X16.3421 Y12.6292
G01 X16.3447 Y12.6351
G01 X16.3564 Y12.6790
G01 X16.3752 Y12.7152
G01 X16.3776 Y12.7205
G01 X16.3794 Y12.7261
G01 X16.3898 Y12.7699
G01 X16.4049 Y12.8031
G01 X16.4129 Y12.8229
G01 X16.4148 Y12.8299
G01 X16.4181 Y12.8530
G01 X16.4199 Y12.8599
G01 X16.4336 Y12.8921
G01 X16.4447 Y12.9220
G01 X16.4462 Y12.9278
G01 X16.4495 Y12.9473
G01 X16.4532 Y12.9633
G01 X16.4701 Y13.0047
G01 X16.4719 Y13.0101
G01 X16.4807 Y13.0474
G01 X16.4843 Y13.0716
G01 X16.4863 Y13.0794
G01 X16.5050 Y13.1295
G01 X16.5091 Y13.1459
G01 X16.5141 Y13.1774
G01 X16.5166 Y13.1872
G01 X16.5353 Y13.2475
G01 X16.5404 Y13.2725
G01 X16.5442 Y13.2883
G01 X16.5476 Y13.3214
G01 X16.5559 Y13.3543
G01 X16.5626 Y13.3717
G01 X16.5689 Y13.3950
G01 X16.5759 Y13.4375
G01 X16.5793 Y13.4674
G01 X16.5837 Y13.4956
G01 X16.5915 Y13.5250
G01 X16.5990 Y13.5560
G01 X16.6058 Y13.6004
G01 X16.6092 Y13.6341
G01 X16.6124 Y13.6591
G01 X16.6220 Y13.7170
G01 X16.6254 Y13.7344
G01 X16.6320 Y13.7741
G01 X16.6358 Y13.8037
G01 X16.6393 Y13.8451
G01 X16.6425 Y13.8908
G01 X16.6458 Y13.9241
G01 X16.6524 Y13.9994
G01 X16.6589 Y14.0558
G01 X16.6636 Y14.1154
G01 X16.6665 Y14.1254
G01 X16.6675 Y14.1339
G01 X16.6708 Y15.3064
G01 X16.6668 Y15.3469
G01 X16.6624 Y15.3649
G01 X16.6600 Y15.3718
G01 X16.6449 Y15.4007
G01 X16.6309 Y15.4365
G01 X16.6277 Y15.4429
G01 X16.6237 Y15.4489
G01 X16.6187 Y15.4544
G01 X16.6133 Y15.4626
G01 X16.6043 Y15.4720
G01 X16.5963 Y15.4854
G01 X16.5920 Y15.4910
G01 X16.5837 Y15.4993
G01 X16.5797 Y15.5026
G01 X16.5640 Y15.5124
G01 X16.5526 Y15.5238
G01 X16.5488 Y15.5271
G01 X16.5217 Y15.5449
G01 X16.5173 Y15.5470
G01 X16.4835 Y15.5603
G01 X16.4657 Y15.5720
G01 X16.4579 Y15.5757
G01 X16.4508 Y15.5779
G01 X16.4324 Y15.5810
G01 X16.4214 Y15.5844
G01 X16.4141 Y15.5855
G01 X15.2718 Y15.5840
G01 X15.2077 Y15.5805
G01 X15.1347 Y15.5738
G01 X15.0778 Y15.5671
G01 X15.0452 Y15.5639
G01 X14.9730 Y15.5574
G01 X14.8945 Y15.5523
G01 X14.8881 Y15.5513
G01 X14.8769 Y15.5485
G01 X14.8342 Y15.5437
G01 X14.8115 Y15.5399
G01 X14.7790 Y15.5335
G01 X14.7414 Y15.5271
G01 X14.6962 Y15.5222
G01 X14.6721 Y15.5186
G01 X14.6323 Y15.5120
G01 X14.6152 Y15.5079
G01 X14.5856 Y15.5001
G01 X14.5491 Y15.4940
G01 X14.5018 Y15.4886
G01 X14.4714 Y15.4811
G01 X14.4250 Y15.4667
G01 X14.3384 Y15.4520
G01 X14.2778 Y15.4331
G01 X14.2463 Y15.4256
G01 X14.2233 Y15.4223
G01 X14.2053 Y15.4178
G01 X14.1999 Y15.4159
G01 X14.1823 Y15.4078
G01 X14.1618 Y15.4002
G01 X14.1171 Y15.3924
G01 X14.0857 Y15.3846
G01 X14.0808 Y15.3828
G01 X14.0625 Y15.3745
G01 X14.0501 Y15.3696
G01 X14.0008 Y15.3575
G01 X13.9799 Y15.3490
G01 X13.9645 Y15.3406
G01 X13.9546 Y15.3367
G01 X13.9193 Y15.3289
G01 X13.9011 Y15.3242
G01 X13.8631 Y15.3063
G01 X13.8330 Y15.2991
G01 X13.8018 Y15.2911
G01 X13.7940 Y15.2875
G01 X13.7714 Y15.2740
G01 X13.7616 Y15.2701
G01 X13.7301 Y15.2627
G01 X13.7245 Y15.2609
G01 X13.7192 Y15.2585
G01 X13.6830 Y15.2397
G01 X13.6590 Y15.2345
G01 X13.6385 Y15.2289
G01 X13.6338 Y15.2272
G01 X13.6283 Y15.2245
G01 X13.6063 Y15.2114
G01 X13.5771 Y15.2006
G01 X13.5463 Y15.1869
G01 X13.5345 Y15.1808
G01 X13.5277 Y15.1760
G01 X13.5184 Y15.1725
G01 X13.4936 Y15.1662
G01 X13.4855 Y15.1631
G01 X13.4790 Y15.1594
G01 X13.4601 Y15.1460
G01 X13.4424 Y15.1393
G01 X13.4175 Y15.1331
G01 X13.4093 Y15.1300
G01 X13.4027 Y15.1263
G01 X13.3835 Y15.1125
G01 X13.3706 Y15.1074
G01 X13.3408 Y15.0941
G01 X13.3322 Y15.0898
G01 X13.3249 Y15.0853
G01 X13.3182 Y15.0795
G01 X13.3147 Y15.0780
G01 X13.2946 Y15.0733
G01 X13.2879 Y15.0709
G01 X13.2806 Y15.0669
G01 X13.2528 Y15.0481
G01 X13.2112 Y15.0318
G01 X13.2039 Y15.0273
G01 X13.1901 Y15.0161
G01 X13.1693 Y15.0083
G01 X13.1478 Y14.9985
G01 X13.1408 Y14.9941
G01 X13.1271 Y14.9830
G01 X13.1071 Y14.9754
G01 X13.1029 Y14.9735
G01 X13.0978 Y14.9704
G01 X13.0753 Y14.9544
G01 X13.0634 Y14.9473
G01 X13.0422 Y14.9382
G01 X13.0313 Y14.9326
G01 X13.0245 Y14.9279
G01 X13.0173 Y14.9210
G01 X13.0145 Y14.9190
G01 X12.9881 Y14.9093
G01 X12.9813 Y14.9059
G01 X12.9742 Y14.9008
G01 X12.9631 Y14.8901
G01 X12.9256 Y14.8699
G01 X12.9193 Y14.8657
G01 X12.9133 Y14.8602
G01 X12.8737 Y14.8387
G01 X12.8678 Y14.8343
G01 X12.8603 Y14.8271
G01 X12.8261 Y14.8081
G01 X12.8205 Y14.8037
G01 X12.8140 Y14.7973
G01 X12.7732 Y14.7751
G01 X12.7675 Y14.7706
G01 X12.7574 Y14.7606
G01 X12.7269 Y14.7440
G01 X12.7227 Y14.7414
G01 X12.7170 Y14.7367
G01 X12.7042 Y14.7240
G01 X12.6774 Y14.7090
G01 X12.6707 Y14.7037
G01 X12.6655 Y14.6979
G01 X12.6372 Y14.6822
G01 X12.6307 Y14.6770
G01 X12.6180 Y14.6643
G01 X12.5901 Y14.6486
G01 X12.5844 Y14.6439
G01 X12.5716 Y14.6312
G01 X12.5447 Y14.6161
G01 X12.5388 Y14.6116
G01 X12.5300 Y14.6028
G01 X12.5134 Y14.5910
G01 X12.5069 Y14.5876
G01 X12.5028 Y14.5848
G01 X12.4980 Y14.5808
G01 X12.4873 Y14.5700
G01 X12.4754 Y14.5603
G01 X12.4695 Y14.5571
G01 X12.4645 Y14.5535
G01 X12.4511 Y14.5404
G01 X12.4390 Y14.5306
G01 X12.4341 Y14.5279
G01 X12.4290 Y14.5244
G01 X12.4200 Y14.5160
G01 X12.3962 Y14.4975
G01 X12.3906 Y14.4945
G01 X12.3857 Y14.4911
G01 X12.3769 Y14.4828
G01 X12.3533 Y14.4645
G01 X12.3468 Y14.4610
G01 X12.3418 Y14.4574
G01 X12.3207 Y14.4366
G01 X12.3150 Y14.4331
G01 X12.3092 Y14.4284
G01 X12.2877 Y14.4069
G01 X12.2818 Y14.4034
G01 X12.2769 Y14.3994
G01 X12.2586 Y14.3812
G01 X12.2437 Y14.3689
G01 X12.2304 Y14.3592
G01 X12.2250 Y14.3540
G01 X12.2204 Y14.3479
G01 X12.2161 Y14.3448
G01 X12.2114 Y14.3406
G01 X12.2034 Y14.3354
G01 X12.1979 Y14.3304
G01 X12.1934 Y14.3277
G01 X12.1894 Y14.3248
G01 X12.1717 Y14.3074
G01 X12.1659 Y14.3039
G01 X12.1610 Y14.3000
G01 X12.1318 Y14.2709
G01 X12.1261 Y14.2674
G01 X12.1203 Y14.2627
G01 X12.1095 Y14.2519
G01 X12.1044 Y14.2452
G01 X12.0971 Y14.2395
G01 X12.0655 Y14.2079
G01 X12.0598 Y14.2044
G01 X12.0540 Y14.1997
G01 X12.0423 Y14.1878
G01 X12.0369 Y14.1803
G01 X12.0323 Y14.1772
G01 X12.0275 Y14.1732
G01 X11.9959 Y14.1416
G01 X11.9893 Y14.1375
G01 X11.9837 Y14.1327
G01 X11.9789 Y14.1272
G01 X11.9745 Y14.1202
G01 X11.9122 Y14.0580
G01 X11.9089 Y14.0543
G01 X11.9056 Y14.0497
G01 X11.8991 Y14.0448
G01 X11.8849 Y14.0306
G01 X11.8802 Y14.0248
G01 X11.8767 Y14.0191
G01 X11.8734 Y14.0158
G01 X11.8689 Y14.0132
G01 X11.8640 Y14.0096
G01 X11.8556 Y14.0013
G01 X11.8509 Y13.9958
G01 X11.8469 Y13.9893
G01 X11.7879 Y13.9303
G01 X11.7841 Y13.9254
G01 X11.7806 Y13.9197
G01 X11.7549 Y13.8938
G01 X11.7511 Y13.8892
G01 X11.7476 Y13.8834
G01 X11.7216 Y13.8574
G01 X11.7178 Y13.8525
G01 X11.7143 Y13.8468
G01 X11.6886 Y13.8209
G01 X11.6848 Y13.8163
G01 X11.6813 Y13.8105
G01 X11.6520 Y13.7811
G01 X11.6481 Y13.7762
G01 X11.6446 Y13.7704
G01 X11.6222 Y13.7480
G01 X11.6184 Y13.7431
G01 X11.6149 Y13.7374
G01 X11.6116 Y13.7341
G01 X11.6070 Y13.7314
G01 X11.6031 Y13.7286
G01 X11.5977 Y13.7236
G01 X11.5932 Y13.7179
G01 X11.5899 Y13.7124
G01 X11.5852 Y13.7066
G01 X11.5817 Y13.7009
G01 X11.5592 Y13.6784
G01 X11.5554 Y13.6735
G01 X11.5519 Y13.6678
G01 X11.5294 Y13.6452
G01 X11.5255 Y13.6403
G01 X11.5220 Y13.6346
G01 X11.5004 Y13.6130
G01 X11.4957 Y13.6073
G01 X11.4922 Y13.6015
G01 X11.4722 Y13.5813
G01 X11.4685 Y13.5764
G01 X11.4656 Y13.5716
G01 X11.4599 Y13.5650
G01 X11.4558 Y13.5584
G01 X11.4434 Y13.5457
G01 X11.4276 Y13.5265
G01 X11.4225 Y13.5185
G01 X11.4142 Y13.5100
G01 X11.3977 Y13.4899
G01 X11.3928 Y13.4822
G01 X11.3695 Y13.4587
G01 X11.3657 Y13.4537
G01 X11.3629 Y13.4489
G01 X11.3514 Y13.4372
G01 X11.3348 Y13.4171
G01 X11.3298 Y13.4093
G01 X11.3181 Y13.3973
G01 X11.3024 Y13.3782
G01 X11.2995 Y13.3742
G01 X11.2967 Y13.3695
G01 X11.2917 Y13.3640
G01 X11.2678 Y13.3331
G01 X11.2637 Y13.3266
G01 X11.2551 Y13.3178
G01 X11.2394 Y13.2987
G01 X11.2364 Y13.2946
G01 X11.2337 Y13.2899
G01 X11.2163 Y13.2722
G01 X11.2126 Y13.2672
G01 X11.2052 Y13.2549
G01 X11.1889 Y13.2385
G01 X11.1858 Y13.2349
G01 X11.1823 Y13.2299
G01 X11.1717 Y13.2114
G01 X11.1557 Y13.1953
G01 X11.1512 Y13.1898
G01 X11.1386 Y13.1683
G01 X11.1209 Y13.1505
G01 X11.1166 Y13.1446
G01 X11.1092 Y13.1323
G01 X11.1028 Y13.1253
G01 X11.0931 Y13.1162
G01 X11.0891 Y13.1115
G01 X11.0863 Y13.1073
G01 X11.0755 Y13.0887
G01 X11.0693 Y13.0817
G01 X11.0625 Y13.0756
G01 X11.0579 Y13.0700
G01 X11.0423 Y13.0422
G01 X11.0265 Y13.0264
G01 X11.0234 Y13.0228
G01 X11.0199 Y13.0178
G01 X11.0093 Y12.9993
G01 X10.9976 Y12.9872
G01 X10.9789 Y12.9613
G01 X10.9752 Y12.9552
G01 X10.9668 Y12.9467
G01 X10.9627 Y12.9419
G01 X10.9593 Y12.9365
G01 X10.9462 Y12.9129
G01 X10.9304 Y12.8971
G01 X10.9265 Y12.8925
G01 X10.9232 Y12.8875
G01 X10.9089 Y12.8624
G01 X10.8997 Y12.8530
G01 X10.8960 Y12.8484
G01 X10.8834 Y12.8269
G01 X10.8782 Y12.8217
G01 X10.8746 Y12.8172
G01 X10.8524 Y12.7848
G01 X10.8493 Y12.7795
G01 X10.8377 Y12.7679
G01 X10.8328 Y12.7620
G01 X10.8169 Y12.7339
G01 X10.8070 Y12.7239
G01 X10.8019 Y12.7173
G01 X10.7837 Y12.6841
G01 X10.7748 Y12.6752
G01 X10.7709 Y12.6708
G01 X10.7677 Y12.6659
G01 X10.7539 Y12.6411
G01 X10.7440 Y12.6311
G01 X10.7389 Y12.6245
G01 X10.7207 Y12.5913
G01 X10.7109 Y12.5816
G01 X10.7065 Y12.5760
G01 X10.6909 Y12.5483
G01 X10.6790 Y12.5363
G01 X9.7384 Y12.5331
G01 X9.7311 Y12.5325
G01 X9.7229 Y12.5306
G01 X9.7137 Y12.5314
G01 X9.7085 Y12.5315
G01 X9.6631 Y12.5297
G01 X9.5641 Y12.5247
G01 X9.5277 Y12.5210
G01 X9.5067 Y12.5175
G01 X9.4893 Y12.5141
G01 X9.4518 Y12.5078
G01 X9.4238 Y12.5048
G01 X9.3650 Y12.4997
G01 X9.3392 Y12.4960
G01 X9.2994 Y12.4893
G01 X9.2691 Y12.4819
G01 X9.2515 Y12.4771
G01 X9.2372 Y12.4743
G01 X9.2104 Y12.4696
G01 X9.1614 Y12.4624
G01 X9.1004 Y12.4435
G01 X9.0905 Y12.4410
G01 X9.0505 Y12.4343
G01 X9.0269 Y12.4288
G01 X9.0214 Y12.4271
G01 X8.9795 Y12.4100
G01 X8.9609 Y12.4057
G01 X8.9300 Y12.3978
G01 X8.8926 Y12.3818
G01 X8.8797 Y12.3767
G01 X8.8719 Y12.3747
G01 X8.8413 Y12.3699
G01 X8.8342 Y12.3680
G01 X8.8063 Y12.3562
G01 X8.7821 Y12.3435
G01 X8.7631 Y12.3397
G01 X8.7561 Y12.3376
G01 X8.7002 Y12.3114
G01 X8.6764 Y12.3044
G01 X8.6444 Y12.2902
G01 X8.6378 Y12.2866
G01 X8.6291 Y12.2804
G01 X8.6216 Y12.2774
G01 X8.5990 Y12.2719
G01 X8.5778 Y12.2635
G01 X8.5695 Y12.2588
G01 X8.5622 Y12.2524
G01 X8.5573 Y12.2495
G01 X8.5535 Y12.2467
G01 X8.5449 Y12.2438
G01 X8.5151 Y12.2305
G01 X8.5065 Y12.2262
G01 X8.4992 Y12.2217
G01 X8.4930 Y12.2163
G01 X8.4706 Y12.2081
G01 X8.4529 Y12.2010
G01 X8.4486 Y12.1989
G01 X8.4416 Y12.1943
G01 X8.4355 Y12.1887
G01 X8.4146 Y12.1771
G01 X8.3988 Y12.1707
G01 X8.3924 Y12.1672
G01 X8.3866 Y12.1629
G01 X8.3771 Y12.1534
G01 X8.3742 Y12.1513
G01 X8.3411 Y12.1384
G01 X8.3333 Y12.1344
G01 X8.3272 Y12.1299
G01 X8.3196 Y12.1226
G01 X8.2895 Y12.1061
G01 X8.2844 Y12.1029
G01 X8.2798 Y12.0992
G01 X8.2720 Y12.0915
G01 X8.2627 Y12.0856
G01 X8.2446 Y12.0786
G01 X8.2369 Y12.0746
G01 X8.2300 Y12.0693
G01 X8.2202 Y12.0595
G01 X8.1870 Y12.0413
G01 X8.1804 Y12.0362
G01 X8.1704 Y12.0263
G01 X8.1423 Y12.0104
G01 X8.1364 Y12.0055
G01 X8.1240 Y11.9931
G01 X8.1003 Y11.9801
G01 X8.0953 Y11.9769
G01 X8.0899 Y11.9724
G01 X8.0773 Y11.9597
G01 X8.0589 Y11.9492
G01 X8.0530 Y11.9450
G01 X8.0343 Y11.9266
G01 X8.0159 Y11.9161
G01 X8.0109 Y11.9127
G01 X8.0005 Y11.9028
G01 X7.9946 Y11.8953
G01 X7.9821 Y11.8862
G01 X7.9757 Y11.8827
G01 X7.9705 Y11.8790
G01 X7.9576 Y11.8666
G01 X7.9536 Y11.8619
G01 X7.9474 Y11.8583
G01 X7.9427 Y11.8547
G01 X7.9227 Y11.8349
G01 X7.9169 Y11.8314
G01 X7.9093 Y11.8249
G01 X7.9046 Y11.8221
G01 X7.9006 Y11.8192
G01 X7.8795 Y11.7984
G01 X7.8728 Y11.7942
G01 X7.8662 Y11.7884
G01 X7.8605 Y11.7849
G01 X7.8556 Y11.7811
G01 X7.8439 Y11.7694
G01 X7.8388 Y11.7627
G01 X7.8316 Y11.7571
G01 X7.7999 Y11.7255
G01 X7.7931 Y11.7213
G01 X7.7875 Y11.7164
G01 X7.7841 Y11.7127
G01 X7.7752 Y11.7012
G01 X7.7605 Y11.6891
G01 X7.7569 Y11.6857
G01 X7.7387 Y11.6637
G01 X7.7338 Y11.6560
G01 X7.7287 Y11.6507
G01 X7.7122 Y11.6306
G01 X7.7093 Y11.6265
G01 X7.7063 Y11.6209
G01 X7.6992 Y11.6033
G01 X7.6732 Y11.5482
G01 X7.6706 Y11.5411
G01 X7.6691 Y11.5349
G01 X7.6686 Y11.5299
G01 X7.6652 Y11.4313
G01 X7.6655 Y11.4250
G01 X7.6692 Y11.3993
G01 X7.6736 Y11.3811
G01 X7.6756 Y11.3753
G01 X7.6912 Y11.3455
G01 X7.7053 Y11.3094
G01 X7.7086 Y11.3027
G01 X7.7145 Y11.2947
G01 X7.7281 Y11.2809
G01 X7.7394 Y11.2614
G01 X7.7429 Y11.2565
G01 X7.7461 Y11.2529
G01 X7.7581 Y11.2413
G01 X7.7621 Y11.2384
G01 X7.7668 Y11.2356
G01 X7.7702 Y11.2322
G01 X7.7737 Y11.2265
G01 X7.7784 Y11.2207
G01 X7.7879 Y11.2115
G01 X7.7919 Y11.2086
G01 X7.7966 Y11.2058
G01 X7.8001 Y11.2023
G01 X7.8036 Y11.1966
G01 X7.8081 Y11.1910
G01 X7.8197 Y11.1794
G01 X7.8244 Y11.1758
G01 X7.8299 Y11.1725
G01 X7.8332 Y11.1692
G01 X7.8360 Y11.1645
G01 X7.8389 Y11.1605
G01 X7.8481 Y11.1510
G01 X7.8539 Y11.1463
G01 X7.8596 Y11.1428
G01 X7.8662 Y11.1362
G01 X7.8702 Y11.1297
G01 X7.8749 Y11.1241
G01 X7.8843 Y11.1152
G01 X7.8882 Y11.1124
G01 X7.8927 Y11.1097
G01 X7.8962 Y11.1062
G01 X7.8997 Y11.1005
G01 X7.9044 Y11.0947
G01 X7.9163 Y11.0830
G01 X7.9212 Y11.0793
G01 X7.9259 Y11.0765
G01 X7.9288 Y11.0717
G01 X7.9325 Y11.0668
G01 X7.9475 Y11.0516
G01 X7.9533 Y11.0469
G01 X7.9592 Y11.0432
G01 X7.9621 Y11.0383
G01 X7.9650 Y11.0344
G01 X7.9764 Y11.0226
G01 X7.9822 Y11.0177
G01 X7.9889 Y11.0136
G01 X7.9923 Y11.0101
G01 X7.9965 Y11.0034
G01 X8.0013 Y10.9977
G01 X8.0133 Y10.9861
G01 X8.0173 Y10.9832
G01 X8.0220 Y10.9804
G01 X8.0254 Y10.9770
G01 X8.0282 Y10.9723
G01 X8.0319 Y10.9674
G01 X8.0403 Y10.9588
G01 X8.0461 Y10.9541
G01 X8.0518 Y10.9506
G01 X8.0553 Y10.9472
G01 X8.0591 Y10.9409
G01 X8.0637 Y10.9354
G01 X8.0757 Y10.9238
G01 X8.0797 Y10.9207
G01 X8.0848 Y10.9176
G01 X8.0886 Y10.9116
G01 X8.0916 Y10.9077
G01 X8.1066 Y10.8925
G01 X8.1124 Y10.8878
G01 X8.1181 Y10.8843
G01 X8.1215 Y10.8789
G01 X8.1246 Y10.8749
G01 X8.1362 Y10.8629
G01 X8.1417 Y10.8583
G01 X8.1480 Y10.8545
G01 X8.1514 Y10.8510
G01 X8.1547 Y10.8455
G01 X8.1592 Y10.8400
G01 X8.1676 Y10.8317
G01 X8.1725 Y10.8278
G01 X8.1776 Y10.8248
G01 X8.1845 Y10.8179
G01 X8.1873 Y10.8132
G01 X8.1902 Y10.8092
G01 X8.1985 Y10.8005
G01 X8.2042 Y10.7957
G01 X8.2109 Y10.7915
G01 X8.2144 Y10.7881
G01 X8.2178 Y10.7824
G01 X8.2226 Y10.7765
G01 X8.2343 Y10.7650
G01 X8.2391 Y10.7613
G01 X8.2442 Y10.7582
G01 X8.2470 Y10.7535
G01 X8.2507 Y10.7486
G01 X8.2657 Y10.7334
G01 X8.2715 Y10.7287
G01 X8.2773 Y10.7251
G01 X8.2801 Y10.7204
G01 X8.2830 Y10.7164
G01 X8.2946 Y10.7044
G01 X8.3003 Y10.6996
G01 X8.3072 Y10.6953
G01 X8.3113 Y10.6886
G01 X8.3162 Y10.6828
G01 X8.3306 Y10.6687
G01 X8.3355 Y10.6650
G01 X8.3402 Y10.6622
G01 X8.3436 Y10.6588
G01 X8.3464 Y10.6541
G01 X8.3501 Y10.6492
G01 X8.3585 Y10.6406
G01 X8.3643 Y10.6359
G01 X8.3700 Y10.6324
G01 X8.3733 Y10.6291
G01 X8.3773 Y10.6226
G01 X8.3828 Y10.6162
G01 X8.3915 Y10.6080
G01 X8.3954 Y10.6052
G01 X8.3999 Y10.6026
G01 X8.4066 Y10.5958
G01 X8.4108 Y10.5891
G01 X8.4156 Y10.5834
G01 X8.4243 Y10.5751
G01 X8.4283 Y10.5722
G01 X8.4330 Y10.5694
G01 X8.4397 Y10.5627
G01 X8.4439 Y10.5560
G01 X8.4487 Y10.5503
G01 X8.4574 Y10.5420
G01 X8.4614 Y10.5391
G01 X8.4661 Y10.5363
G01 X8.4696 Y10.5328
G01 X8.4740 Y10.5258
G01 X8.4789 Y10.5202
G01 X8.4900 Y10.5095
G01 X8.4940 Y10.5064
G01 X8.4994 Y10.5030
G01 X8.5036 Y10.4963
G01 X8.5084 Y10.4906
G01 X8.5204 Y10.4790
G01 X8.5244 Y10.4761
G01 X8.5291 Y10.4733
G01 X8.5325 Y10.4699
G01 X8.5353 Y10.4652
G01 X8.5390 Y10.4603
G01 X8.5474 Y10.4517
G01 X8.5532 Y10.4470
G01 X8.5589 Y10.4435
G01 X8.5657 Y10.4367
G01 X8.5697 Y10.4303
G01 X8.5751 Y10.4240
G01 X8.5838 Y10.4158
G01 X8.5919 Y10.4105
G01 X8.5988 Y10.4036
G01 X8.6030 Y10.3969
G01 X8.6078 Y10.3912
G01 X8.6165 Y10.3829
G01 X8.6205 Y10.3800
G01 X8.6252 Y10.3772
G01 X8.6286 Y10.3738
G01 X8.6321 Y10.3681
G01 X8.6368 Y10.3623
G01 X8.6486 Y10.3507
G01 X8.6534 Y10.3470
G01 X8.6583 Y10.3441
G01 X8.6618 Y10.3406
G01 X8.6646 Y10.3359
G01 X8.6683 Y10.3310
G01 X8.6767 Y10.3224
G01 X8.6825 Y10.3177
G01 X8.6882 Y10.3142
G01 X8.6916 Y10.3108
G01 X8.6944 Y10.3061
G01 X8.6973 Y10.3021
G01 X8.7056 Y10.2934
G01 X8.7113 Y10.2886
G01 X8.7180 Y10.2844
G01 X8.7248 Y10.2777
G01 X8.7282 Y10.2720
G01 X8.7321 Y10.2671
G01 X8.7375 Y10.2619
G01 X8.7491 Y10.2528
G01 X8.7658 Y10.2333
G01 X8.7717 Y10.2284
G01 X8.7960 Y10.2111
G01 X8.8009 Y10.2082
G01 X8.8242 Y10.1886
G01 X8.8305 Y10.1843
G01 X8.8362 Y10.1815
G01 X8.8720 Y10.1675
G01 X8.9035 Y10.1503
G01 X8.9106 Y10.1478
G01 X8.9168 Y10.1466
G01 X8.9230 Y10.1462
G01 X9.4984 Y10.1431
G01 X9.4932 Y10.1316
G01 X9.4826 Y10.1023
G01 X9.4764 Y10.0975
G01 X9.4678 Y10.0889
G01 X9.4639 Y10.0840
G01 X9.4604 Y10.0782
G01 X9.4571 Y10.0749
G01 X9.4504 Y10.0707
G01 X9.4447 Y10.0659
G01 X9.4306 Y10.0515
G01 X9.4269 Y10.0466
G01 X9.4241 Y10.0419
G01 X9.4196 Y10.0393
G01 X9.4147 Y10.0357
G01 X9.4055 Y10.0265
G01 X9.4009 Y10.0209
G01 X9.3976 Y10.0154
G01 X9.3908 Y10.0086
G01 X9.3863 Y10.0059
G01 X9.3824 Y10.0031
G01 X9.3738 Y9.9950
G01 X9.3683 Y9.9886
G01 X9.3643 Y9.9821
G01 X9.3610 Y9.9788
G01 X9.3543 Y9.9746
G01 X9.3486 Y9.9698
G01 X9.3378 Y9.9587
G01 X9.3341 Y9.9538
G01 X9.3313 Y9.9491
G01 X9.3280 Y9.9458
G01 X9.3215 Y9.9418
G01 X9.3151 Y9.9363
G01 X9.3070 Y9.9277
G01 X9.3042 Y9.9238
G01 X9.3015 Y9.9193
G01 X9.2947 Y9.9125
G01 X9.2900 Y9.9097
G01 X9.2860 Y9.9068
G01 X9.2773 Y9.8985
G01 X9.2725 Y9.8928
G01 X9.2683 Y9.8861
G01 X9.2621 Y9.8799
G01 X9.2519 Y9.8725
G01 X9.2473 Y9.8684
G01 X9.2426 Y9.8629
G01 X9.2385 Y9.8563
G01 X9.2317 Y9.8495
G01 X9.2250 Y9.8453
G01 X9.2193 Y9.8405
G01 X9.2112 Y9.8320
G01 X9.2083 Y9.8281
G01 X9.2054 Y9.8232
G01 X9.2019 Y9.8197
G01 X9.1972 Y9.8169
G01 X9.1923 Y9.8132
G01 X9.1804 Y9.8015
G01 X9.1757 Y9.7957
G01 X9.1722 Y9.7900
G01 X9.1689 Y9.7867
G01 X9.1624 Y9.7827
G01 X9.1560 Y9.7772
G01 X9.1479 Y9.7686
G01 X9.1451 Y9.7647
G01 X9.1424 Y9.7602
G01 X9.1356 Y9.7534
G01 X9.1311 Y9.7507
G01 X9.1272 Y9.7479
G01 X9.1186 Y9.7398
G01 X9.1131 Y9.7334
G01 X9.1092 Y9.7272
G01 X9.0882 Y9.7093
G01 X9.0835 Y9.7038
G01 X9.0794 Y9.6972
G01 X9.0728 Y9.6906
G01 X9.0660 Y9.6864
G01 X9.0602 Y9.6815
G01 X9.0486 Y9.6694
G01 X9.0456 Y9.6654
G01 X9.0428 Y9.6606
G01 X9.0400 Y9.6578
G01 X9.0307 Y9.6511
G01 X9.0261 Y9.6472
G01 X9.0205 Y9.6408
G01 X9.0164 Y9.6342
G01 X9.0097 Y9.6275
G01 X9.0030 Y9.6233
G01 X8.9973 Y9.6185
G01 X8.9865 Y9.6074
G01 X8.9828 Y9.6025
G01 X8.9800 Y9.5978
G01 X8.9765 Y9.5943
G01 X8.9683 Y9.5890
G01 X8.9587 Y9.5799
G01 X8.9540 Y9.5743
G01 X8.9500 Y9.5678
G01 X8.9467 Y9.5645
G01 X8.9420 Y9.5617
G01 X8.9380 Y9.5588
G01 X8.9260 Y9.5472
G01 X8.9212 Y9.5415
G01 X8.9170 Y9.5348
G01 X8.9136 Y9.5314
G01 X8.9089 Y9.5286
G01 X8.9049 Y9.5257
G01 X8.8962 Y9.5174
G01 X8.8914 Y9.5117
G01 X8.8872 Y9.5050
G01 X8.8810 Y9.4988
G01 X8.8708 Y9.4915
G01 X8.8662 Y9.4874
G01 X8.8613 Y9.4817
G01 X8.8572 Y9.4750
G01 X8.8478 Y9.4656
G01 X8.8376 Y9.4582
G01 X8.8330 Y9.4541
G01 X8.8283 Y9.4486
G01 X8.8242 Y9.4420
G01 X8.8176 Y9.4354
G01 X8.8111 Y9.4314
G01 X8.8047 Y9.4259
G01 X8.7964 Y9.4171
G01 X8.7911 Y9.4089
G01 X8.7876 Y9.4054
G01 X8.7829 Y9.4026
G01 X8.7780 Y9.3989
G01 X8.7661 Y9.3872
G01 X8.7614 Y9.3814
G01 X8.7579 Y9.3757
G01 X8.7545 Y9.3723
G01 X8.7498 Y9.3695
G01 X8.7458 Y9.3666
G01 X8.7371 Y9.3583
G01 X8.7323 Y9.3526
G01 X8.7281 Y9.3460
G01 X8.7032 Y9.3210
G01 X8.6970 Y9.3133
G01 X8.6899 Y9.3077
G01 X8.6667 Y9.2845
G01 X8.6609 Y9.2771
G01 X8.6544 Y9.2722
G01 X8.6410 Y9.2589
G01 X8.6363 Y9.2533
G01 X8.6320 Y9.2465
G01 X8.5954 Y9.2099
G01 X8.5888 Y9.2058
G01 X8.5824 Y9.2002
G01 X8.5777 Y9.1946
G01 X8.5740 Y9.1885
G01 X8.5407 Y9.1552
G01 X8.5348 Y9.1477
G01 X8.5275 Y9.1420
G01 X8.5133 Y9.1278
G01 X8.5095 Y9.1229
G01 X8.5060 Y9.1172
G01 X8.5012 Y9.1143
G01 X8.4963 Y9.1106
G01 X8.4852 Y9.0998
G01 X8.4804 Y9.0941
G01 X8.4762 Y9.0874
G01 X8.3824 Y8.9937
G01 X8.3776 Y8.9880
G01 X8.3734 Y8.9813
G01 X8.3187 Y8.9264
G01 X8.3140 Y8.9207
G01 X8.3105 Y8.9151
G01 X8.2814 Y8.8859
G01 X8.2774 Y8.8809
G01 X8.2739 Y8.8751
G01 X8.2491 Y8.8503
G01 X8.2451 Y8.8455
G01 X8.2421 Y8.8409
G01 X8.2340 Y8.8352
G01 X8.2216 Y8.8227
G01 X8.2178 Y8.8179
G01 X8.2144 Y8.8123
G01 X8.1877 Y8.7854
G01 X8.1840 Y8.7805
G01 X8.1812 Y8.7758
G01 X8.1530 Y8.7476
G01 X8.1472 Y8.7402
G01 X8.1406 Y8.7351
G01 X8.1265 Y8.7211
G01 X8.1219 Y8.7155
G01 X8.1183 Y8.7096
G01 X8.0933 Y8.6846
G01 X8.0893 Y8.6798
G01 X8.0862 Y8.6752
G01 X8.0787 Y8.6698
G01 X8.0668 Y8.6581
G01 X8.0621 Y8.6523
G01 X8.0586 Y8.6466
G01 X8.0286 Y8.6164
G01 X8.0249 Y8.6115
G01 X8.0222 Y8.6070
G01 X8.0123 Y8.5998
G01 X8.0069 Y8.5949
G01 X8.0023 Y8.5892
G01 X7.9989 Y8.5836
G01 X7.9690 Y8.5534
G01 X7.9653 Y8.5485
G01 X7.9625 Y8.5439
G01 X7.9334 Y8.5147
G01 X7.9294 Y8.5097
G01 X7.9259 Y8.5039
G01 X7.9052 Y8.4829
G01 X7.9023 Y8.4789
G01 X7.8996 Y8.4744
G01 X7.8934 Y8.4673
G01 X7.8894 Y8.4608
G01 X7.8703 Y8.4417
G01 X7.8665 Y8.4368
G01 X7.8630 Y8.4311
G01 X7.8372 Y8.4053
G01 X7.8334 Y8.4004
G01 X7.8299 Y8.3947
G01 X7.8040 Y8.3688
G01 X7.8002 Y8.3639
G01 X7.7967 Y8.3582
G01 X7.7734 Y8.3347
G01 X7.7697 Y8.3298
G01 X7.7669 Y8.3251
G01 X7.7634 Y8.3215
G01 X7.7560 Y8.3168
G01 X7.7497 Y8.3111
G01 X7.7452 Y8.3054
G01 X7.7421 Y8.3002
G01 X7.7372 Y8.2942
G01 X7.7338 Y8.2886
G01 X7.7261 Y8.2837
G01 X7.7197 Y8.2778
G01 X7.7165 Y8.2740
G01 X7.7076 Y8.2614
G01 X7.7041 Y8.2557
G01 X7.6814 Y8.2328
G01 X7.6776 Y8.2280
G01 X7.6741 Y8.2223
G01 X7.6516 Y8.1998
G01 X7.6478 Y8.1949
G01 X7.6443 Y8.1892
G01 X7.6268 Y8.1713
G01 X7.6238 Y8.1673
G01 X7.6211 Y8.1627
G01 X7.6153 Y8.1568
G01 X7.6121 Y8.1529
G01 X7.6078 Y8.1461
G01 X7.5853 Y8.1235
G01 X7.5814 Y8.1186
G01 X7.5779 Y8.1128
G01 X7.5523 Y8.0871
G01 X7.5486 Y8.0825
G01 X7.5450 Y8.0767
G01 X7.5223 Y8.0539
G01 X7.5177 Y8.0480
G01 X7.5135 Y8.0404
G01 X7.5117 Y8.0381
G01 X7.5062 Y8.0342
G01 X7.5008 Y8.0291
G01 X7.4835 Y8.0080
G01 X7.4786 Y8.0003
G01 X7.4594 Y7.9810
G01 X7.4555 Y7.9761
G01 X7.4520 Y7.9703
G01 X7.4354 Y7.9535
G01 X7.4317 Y7.9486
G01 X7.4290 Y7.9441
G01 X7.4225 Y7.9366
G01 X7.4188 Y7.9306
G01 X7.4131 Y7.9240
G01 X7.4090 Y7.9174
G01 X7.3923 Y7.9005
G01 X7.3886 Y7.8956
G01 X7.3859 Y7.8911
G01 X7.3808 Y7.8854
G01 X7.3741 Y7.8790
G01 X7.3583 Y7.8598
G01 X7.3554 Y7.8558
G01 X7.3526 Y7.8511
G01 X7.3301 Y7.8286
G01 X7.3263 Y7.8237
G01 X7.3228 Y7.8180
G01 X7.3079 Y7.8028
G01 X7.2921 Y7.7837
G01 X7.2887 Y7.7790
G01 X7.2823 Y7.7741
G01 X7.2771 Y7.7687
G01 X7.2640 Y7.7518
G01 X7.2597 Y7.7449
G01 X7.2490 Y7.7339
G01 X7.2243 Y7.7022
G01 X7.2201 Y7.6954
G01 X7.2000 Y7.6751
G01 X7.1963 Y7.6702
G01 X7.1935 Y7.6655
G01 X7.1818 Y7.6536
G01 X7.1661 Y7.6345
G01 X7.1631 Y7.6304
G01 X7.1603 Y7.6256
G01 X7.1557 Y7.6229
G01 X7.1518 Y7.6200
G01 X7.1449 Y7.6132
G01 X7.1336 Y7.5976
G01 X7.1306 Y7.5926
G01 X7.1223 Y7.5841
G01 X7.1065 Y7.5650
G01 X7.1035 Y7.5609
G01 X7.1006 Y7.5560
G01 X7.0899 Y7.5449
G01 X7.0652 Y7.5131
G01 X7.0610 Y7.5064
G01 X7.0493 Y7.4947
G01 X7.0462 Y7.4911
G01 X7.0434 Y7.4871
G01 X7.0359 Y7.4748
G01 X7.0226 Y7.4613
G01 X7.0062 Y7.4411
G01 X7.0013 Y7.4335
G01 X6.9887 Y7.4206
G01 X6.9731 Y7.4013
G01 X6.9682 Y7.3937
G01 X6.9599 Y7.3852
G01 X6.9433 Y7.3651
G01 X6.9383 Y7.3573
G01 X6.9233 Y7.3423
G01 X6.9201 Y7.3386
G01 X6.9167 Y7.3336
G01 X6.9062 Y7.3152
G01 X6.8934 Y7.3022
G01 X6.8769 Y7.2820
G01 X6.8722 Y7.2746
G01 X6.8603 Y7.2625
G01 X6.8446 Y7.2434
G01 X6.8413 Y7.2388
G01 X6.8352 Y7.2341
G01 X6.8294 Y7.2281
G01 X6.8123 Y7.2036
G01 X6.8091 Y7.1982
G01 X6.8008 Y7.1897
G01 X6.7850 Y7.1706
G01 X6.7820 Y7.1665
G01 X6.7791 Y7.1616
G01 X6.7642 Y7.1467
G01 X6.7603 Y7.1420
G01 X6.7576 Y7.1380
G01 X6.7471 Y7.1196
G01 X6.7287 Y7.1008
G01 X6.7251 Y7.0959
G01 X6.7177 Y7.0836
G01 X6.7023 Y7.0679
G01 X6.6835 Y7.0419
G01 X6.6798 Y7.0358
G01 X6.6681 Y7.0241
G01 X6.6649 Y7.0204
G01 X6.6615 Y7.0154
G01 X6.6510 Y6.9970
G01 X6.6385 Y6.9840
G01 X6.6192 Y6.9570
G01 X6.6118 Y6.9512
G01 X6.6021 Y6.9410
G01 X6.5986 Y6.9360
G01 X6.5880 Y6.9174
G01 X6.5795 Y6.9085
G01 X6.5548 Y6.8768
G01 X6.5506 Y6.8701
G01 X6.5424 Y6.8615
G01 X6.5244 Y6.8364
G01 X6.5207 Y6.8303
G01 X6.5090 Y6.8186
G01 X6.5057 Y6.8148
G01 X6.5029 Y6.8108
G01 X6.4956 Y6.7985
G01 X6.4826 Y6.7856
G01 X6.4794 Y6.7819
G01 X6.4615 Y6.7568
G01 X6.4578 Y6.7508
G01 X6.4461 Y6.7391
G01 X6.4430 Y6.7355
G01 X6.4395 Y6.7305
G01 X6.4289 Y6.7120
G01 X6.4138 Y6.6966
G01 X6.3962 Y6.6713
G01 X6.3898 Y6.6662
G01 X6.3800 Y6.6559
G01 X6.3765 Y6.6509
G01 X6.3659 Y6.6324
G01 X6.3532 Y6.6196
G01 X6.3478 Y6.6127
G01 X6.3326 Y6.5858
G01 X6.3201 Y6.5733
G01 X6.3162 Y6.5686
G01 X6.3135 Y6.5646
G01 X6.3030 Y6.5462
G01 X6.2871 Y6.5304
G01 X6.2832 Y6.5257
G01 X6.2804 Y6.5217
G01 X6.2698 Y6.5032
G01 X6.2571 Y6.4904
G01 X6.2517 Y6.4835
G01 X6.2365 Y6.4566
G01 X6.2240 Y6.4441
G01 X6.2208 Y6.4404
G01 X6.2174 Y6.4354
G01 X6.2069 Y6.4170
G01 X6.1944 Y6.4041
G01 X6.1764 Y6.3790
G01 X6.1727 Y6.3729
G01 X6.1610 Y6.3611
G01 X6.1576 Y6.3573
G01 X6.1541 Y6.3520
G01 X6.1404 Y6.3273
G01 X6.1279 Y6.3148
G01 X6.1240 Y6.3102
G01 X6.1213 Y6.3062
G01 X6.1107 Y6.2877
G01 X6.0947 Y6.2717
G01 X6.0915 Y6.2680
G01 X6.0881 Y6.2630
G01 X6.0776 Y6.2447
G01 X6.0641 Y6.2311
G01 X6.0594 Y6.2251
G01 X6.0442 Y6.1981
G01 X6.0317 Y6.1855
G01 X6.0279 Y6.1809
G01 X6.0252 Y6.1770
G01 X6.0146 Y6.1585
G01 X6.0019 Y6.1457
G01 X5.9978 Y6.1409
G01 X5.9944 Y6.1355
G01 X5.9813 Y6.1119
G01 X5.9712 Y6.1017
G01 X5.9666 Y6.0958
G01 X5.9514 Y6.0688
G01 X5.9356 Y6.0529
G01 X5.9311 Y6.0474
G01 X5.9142 Y6.0183
G01 X5.9049 Y6.0089
G01 X5.9002 Y6.0029
G01 X5.8852 Y5.9760
G01 X5.8760 Y5.9668
G01 X5.8721 Y5.9621
G01 X5.8694 Y5.9581
G01 X5.8589 Y5.9398
G01 X5.8463 Y5.9271
G01 X5.8414 Y5.9212
G01 X5.8255 Y5.8931
G01 X5.8198 Y5.8868
G01 X5.8148 Y5.8791
G01 X5.8088 Y5.8730
G01 X5.8049 Y5.8681
G01 X5.7890 Y5.8401
G01 X5.7765 Y5.8275
G01 X5.7734 Y5.8239
G01 X5.7700 Y5.8190
G01 X5.7594 Y5.8005
G01 X5.7558 Y5.7966
G01 X5.7387 Y5.7755
G01 X5.7235 Y5.7492
G00 Z1.5000
G00 X7.6958 Y6.4863
G01 F80.00
G01 Z-0.0450
G01 F80.00
G01 X7.6814 Y6.4899
G01 X7.6766 Y6.4907
G01 X7.6693 Y6.4911
G01 X7.6620 Y6.4904
G01 X7.6537 Y6.4882
G01 X7.6298 Y6.4790
G01 X7.6243 Y6.4763
G01 X7.6192 Y6.4730
G01 X7.6136 Y6.4682
G01 X7.6088 Y6.4627
G01 X7.5939 Y6.4395
G01 X7.5908 Y6.4331
G01 X7.5768 Y6.3975
G01 X7.5754 Y6.3927
G01 X7.5715 Y6.3738
G01 X7.5667 Y6.3433
G01 X7.5598 Y6.3171
G01 X7.5457 Y6.2775
G01 X7.5417 Y6.2611
G01 X7.5335 Y6.2071
G01 X7.5278 Y6.1843
G01 X7.5162 Y6.1462
G01 X7.5123 Y6.1305
G01 X7.5069 Y6.0908
G01 X7.5033 Y6.0751
G01 X7.4983 Y6.0312
G01 X7.4957 Y6.0178
G01 X7.4891 Y5.9914
G01 X7.4845 Y5.9684
G01 X7.4814 Y5.9590
G01 X7.4803 Y5.9542
G01 X7.4765 Y5.9241
G01 X7.4764 Y5.9155
G01 X7.4775 Y5.9083
G01 X7.4814 Y5.8926
G01 X7.4849 Y5.8834
G01 X7.4887 Y5.8770
G01 X7.4942 Y5.8704
G01 X7.5029 Y5.8622
G01 X7.5110 Y5.8567
G01 X7.5166 Y5.8542
G01 X7.5236 Y5.8520
G01 X7.5541 Y5.8466
G01 X7.5938 Y5.8429
G01 X7.6184 Y5.8397
G01 X7.6366 Y5.8367
G01 X7.6855 Y5.8270
G01 X7.7081 Y5.8232
G01 X7.7501 Y5.8181
G01 X7.7738 Y5.8148
G01 X7.8508 Y5.8066
G01 X7.8686 Y5.8036
G01 X7.8833 Y5.8007
G01 X7.8977 Y5.7971
G01 X7.9189 Y5.7935
G01 X7.9543 Y5.7889
G01 X7.9633 Y5.7861
G01 X7.9695 Y5.7849
G01 X8.0071 Y5.7814
G01 X8.0145 Y5.7813
G01 X8.0218 Y5.7822
G01 X8.0375 Y5.7862
G01 X8.0422 Y5.7876
G01 X8.0478 Y5.7901
G01 X8.0531 Y5.7932
G01 X8.0571 Y5.7962
G01 X8.0607 Y5.7995
G01 X8.0648 Y5.8042
G01 X8.0695 Y5.8116
G01 X8.0738 Y5.8168
G01 X8.0772 Y5.8220
G01 X8.0803 Y5.8288
G01 X8.0823 Y5.8359
G01 X8.0832 Y5.8421
G01 X8.0862 Y5.8777
G01 X8.1040 Y5.9479
G01 X8.1127 Y6.0018
G01 X8.1177 Y6.0456
G01 X8.1203 Y6.0590
G01 X8.1225 Y6.0677
G01 X8.1345 Y6.0977
G01 X8.1363 Y6.1031
G01 X8.1407 Y6.1211
G01 X8.1455 Y6.1547
G01 X8.1539 Y6.1885
G01 X8.1641 Y6.2133
G01 X8.1661 Y6.2190
G01 X8.1733 Y6.2478
G01 X8.1787 Y6.2783
G01 X8.1795 Y6.2879
G01 X8.1792 Y6.2927
G01 X8.1781 Y6.2987
G01 X8.1759 Y6.3056
G01 X8.1673 Y6.3265
G01 X8.1642 Y6.3318
G01 X8.1604 Y6.3366
G01 X8.1561 Y6.3409
G01 X8.1513 Y6.3447
G01 X8.1427 Y6.3494
G01 X8.1227 Y6.3574
G01 X8.1157 Y6.3593
G01 X8.0853 Y6.3647
G01 X8.0541 Y6.3789
G01 X8.0481 Y6.3812
G01 X7.9845 Y6.3959
G01 X7.9393 Y6.4141
G01 X7.9217 Y6.4186
G01 X7.8930 Y6.4237
G01 X7.8844 Y6.4259
G01 X7.8511 Y6.4387
G01 X7.8428 Y6.4429
G01 X7.8243 Y6.4491
G01 X7.8060 Y6.4537
G01 X7.7830 Y6.4570
G01 X7.7757 Y6.4589
G01 X7.7318 Y6.4767
G01 X7.6958 Y6.4863
G00 Z1.5000
G00 X7.8496 Y7.0886
G01 F80.00
G01 Z-0.0450
G01 F80.00
G01 X7.8447 Y7.0836
G01 X7.8417 Y7.0797
G01 X7.8385 Y7.0745
G01 X7.8364 Y7.0700
G01 X7.8208 Y7.0302
G01 X7.8170 Y7.0191
G01 X7.8152 Y7.0121
G01 X7.8143 Y7.0049
G01 X7.8145 Y6.9989
G01 X7.8156 Y6.9917
G01 X7.8199 Y6.9748
G01 X7.8227 Y6.9678
G01 X7.8257 Y6.9624
G01 X7.8303 Y6.9564
G01 X7.8387 Y6.9479
G01 X7.8435 Y6.9440
G01 X7.8509 Y6.9396
G01 X7.8660 Y6.9331
G01 X7.8814 Y6.9286
G01 X7.8965 Y6.9186
G01 X7.9241 Y6.9030
G01 X7.9311 Y6.9003
G01 X7.9428 Y6.8974
G01 X7.9592 Y6.8903
G01 X7.9671 Y6.8832
G01 X7.9755 Y6.8781
G01 X8.0150 Y6.8637
G01 X8.0335 Y6.8505
G01 X8.0408 Y6.8463
G01 X8.0691 Y6.8356
G01 X8.0956 Y6.8238
G01 X8.1280 Y6.8062
G01 X8.1326 Y6.8044
G01 X8.1508 Y6.7992
G01 X8.1601 Y6.7936
G01 X8.1721 Y6.7851
G01 X8.1776 Y6.7821
G01 X8.2038 Y6.7718
G01 X8.2174 Y6.7682
G01 X8.2275 Y6.7636
G01 X8.2565 Y6.7438
G01 X8.2608 Y6.7413
G01 X8.2654 Y6.7392
G01 X8.2726 Y6.7370
G01 X8.2917 Y6.7332
G01 X8.2965 Y6.7326
G01 X8.3026 Y6.7326
G01 X8.3111 Y6.7337
G01 X8.3279 Y6.7379
G01 X8.3347 Y6.7406
G01 X8.3400 Y6.7435
G01 X8.3468 Y6.7486
G01 X8.3620 Y6.7637
G01 X8.3660 Y6.7686
G01 X8.3695 Y6.7744
G01 X8.3743 Y6.7797
G01 X8.3778 Y6.7847
G01 X8.3940 Y6.8134
G01 X8.3962 Y6.8193
G01 X8.3992 Y6.8312
G01 X8.4037 Y6.8418
G01 X8.4117 Y6.8502
G01 X8.4166 Y6.8572
G01 X8.4193 Y6.8628
G01 X8.4277 Y6.8846
G01 X8.4335 Y6.8981
G01 X8.4383 Y6.9037
G01 X8.4417 Y6.9091
G01 X8.4588 Y6.9400
G01 X8.4666 Y6.9577
G01 X8.4712 Y6.9630
G01 X8.4745 Y6.9680
G01 X8.4889 Y6.9933
G01 X8.4938 Y7.0049
G01 X8.5096 Y7.0242
G01 X8.5132 Y7.0292
G01 X8.5196 Y7.0415
G01 X8.5288 Y7.0630
G01 X8.5351 Y7.0694
G01 X8.5394 Y7.0752
G01 X8.5578 Y7.1085
G01 X8.5676 Y7.1185
G01 X8.5715 Y7.1234
G01 X8.5915 Y7.1589
G01 X8.5998 Y7.1671
G01 X8.6038 Y7.1718
G01 X8.6072 Y7.1770
G01 X8.6213 Y7.2020
G01 X8.6305 Y7.2112
G01 X8.6345 Y7.2161
G01 X8.6504 Y7.2442
G01 X8.6629 Y7.2568
G01 X8.6667 Y7.2614
G01 X8.6694 Y7.2653
G01 X8.6800 Y7.2838
G01 X8.6985 Y7.3022
G01 X8.7025 Y7.3068
G01 X8.7072 Y7.3140
G01 X8.7093 Y7.3185
G01 X8.7112 Y7.3239
G01 X8.7127 Y7.3264
G01 X8.7192 Y7.3334
G01 X8.7431 Y7.3643
G01 X8.7473 Y7.3710
G01 X8.7565 Y7.3805
G01 X8.7722 Y7.3997
G01 X8.7771 Y7.4074
G01 X8.7856 Y7.4161
G01 X8.8013 Y7.4353
G01 X8.8043 Y7.4395
G01 X8.8068 Y7.4437
G01 X8.8295 Y7.4664
G01 X8.8333 Y7.4713
G01 X8.8368 Y7.4770
G01 X8.8593 Y7.4997
G01 X8.8631 Y7.5045
G01 X8.8666 Y7.5102
G01 X8.8891 Y7.5327
G01 X8.8929 Y7.5376
G01 X8.8964 Y7.5433
G01 X8.8993 Y7.5462
G01 X8.9096 Y7.5536
G01 X8.9142 Y7.5578
G01 X8.9190 Y7.5635
G01 X8.9228 Y7.5696
G01 X8.9562 Y7.6033
G01 X8.9599 Y7.6082
G01 X8.9627 Y7.6129
G01 X9.2784 Y7.9290
G01 X9.2839 Y7.9371
G01 X9.2860 Y7.9415
G01 X9.2880 Y7.9473
G01 X9.2893 Y7.9533
G01 X9.2930 Y7.9835
G01 X9.2929 Y7.9921
G01 X9.2916 Y7.9993
G01 X9.2893 Y8.0063
G01 X9.2854 Y8.0139
G01 X9.2793 Y8.0217
G01 X9.2627 Y8.0383
G01 X9.2553 Y8.0441
G01 X9.2504 Y8.0506
G01 X9.2395 Y8.0615
G01 X9.2340 Y8.0660
G01 X9.2282 Y8.0696
G01 X9.2246 Y8.0732
G01 X9.2211 Y8.0790
G01 X9.2163 Y8.0848
G01 X9.2019 Y8.0990
G01 X9.1981 Y8.1021
G01 X9.1936 Y8.1051
G01 X9.1905 Y8.1097
G01 X9.1865 Y8.1145
G01 X9.1699 Y8.1311
G01 X9.1625 Y8.1369
G01 X9.1568 Y8.1442
G01 X9.1411 Y8.1600
G01 X9.1364 Y8.1642
G01 X9.1305 Y8.1681
G01 X9.1273 Y8.1730
G01 X9.1243 Y8.1766
G01 X9.1078 Y8.1933
G01 X9.1031 Y8.1973
G01 X9.0975 Y8.2012
G01 X9.0944 Y8.2058
G01 X9.0913 Y8.2097
G01 X9.0780 Y8.2231
G01 X9.0735 Y8.2270
G01 X9.0677 Y8.2309
G01 X9.0647 Y8.2356
G01 X9.0615 Y8.2395
G01 X9.0449 Y8.2563
G01 X9.0401 Y8.2604
G01 X9.0344 Y8.2642
G01 X9.0314 Y8.2688
G01 X9.0274 Y8.2736
G01 X9.0108 Y8.2902
G01 X9.0034 Y8.2960
G01 X8.9977 Y8.3033
G01 X8.9820 Y8.3191
G01 X8.9773 Y8.3233
G01 X8.9716 Y8.3272
G01 X8.9685 Y8.3318
G01 X8.9645 Y8.3366
G01 X8.9471 Y8.3541
G01 X8.9424 Y8.3581
G01 X8.9352 Y8.3628
G01 X8.9261 Y8.3666
G01 X8.9081 Y8.3711
G01 X8.9021 Y8.3719
G01 X8.8972 Y8.3720
G01 X8.8924 Y8.3716
G01 X8.8795 Y8.3698
G01 X8.8727 Y8.3683
G01 X8.8506 Y8.3596
G01 X8.8428 Y8.3554
G01 X8.8368 Y8.3508
G01 X8.8291 Y8.3432
G01 X8.8244 Y8.3374
G01 X8.8210 Y8.3318
G01 X8.8139 Y8.3248
G01 X8.8058 Y8.3195
G01 X8.7963 Y8.3105
G01 X8.7916 Y8.3049
G01 X8.7876 Y8.2984
G01 X8.7843 Y8.2951
G01 X8.7796 Y8.2923
G01 X8.7756 Y8.2894
G01 X8.7636 Y8.2778
G01 X8.7588 Y8.2721
G01 X8.7546 Y8.2654
G01 X8.7513 Y8.2621
G01 X8.7448 Y8.2581
G01 X8.7384 Y8.2526
G01 X8.7303 Y8.2440
G01 X8.7275 Y8.2401
G01 X8.7248 Y8.2356
G01 X8.7180 Y8.2288
G01 X8.7135 Y8.2261
G01 X8.7096 Y8.2233
G01 X8.7002 Y8.2144
G01 X8.6955 Y8.2088
G01 X8.6915 Y8.2023
G01 X8.6882 Y8.1990
G01 X8.6835 Y8.1962
G01 X8.6795 Y8.1933
G01 X8.6675 Y8.1817
G01 X8.6627 Y8.1760
G01 X8.6585 Y8.1693
G01 X8.6537 Y8.1665
G01 X8.6497 Y8.1635
G01 X8.6376 Y8.1519
G01 X8.6327 Y8.1461
G01 X8.6285 Y8.1393
G01 X8.6252 Y8.1360
