(G-CODE GENERATED BY FLATCAM v8.994 - www.flatcam.org - Version Date: 2020/11/7)

(Name: PCB1.GTL_iso_combined_cnc)
(Type: G-code from Geometry)
(Units: MM)

(Created on Wednesday, 15 February 2023 at 14:57)

(This preprocessor is the default preprocessor used by FlatCAM.)
(It is made to work with MACH3 compatible motion controllers.)

(TOOL DIAMETER: 0.188 mm)
(Feedrate_XY: 80.0 mm/min)
(Feedrate_Z: 80.0 mm/min)
(Feedrate rapids 1500.0 mm/min)

(Z_Cut: -0.035 mm)
(Z_Move: 2.0 mm)
(Z Start: None mm)
(Z End: 15.0 mm)
(X,Y End: None mm)
(Steps per circle: 64)
(Preprocessor Geometry: default)

(X range:    0.0330 ...   21.5570  mm)
(Y range:   -0.0940 ...   30.1930  mm)

(Spindle Speed: 10000.0 RPM)
G21
G90
G94

G01 F80.00

M5
G00 Z15.0000
G00 X0.0000 Y0.0000
T2
M6    
(MSG, Change to Tool Dia = 0.1880)
M0
G00 Z15.0000

M03 S10000.0
G01 F80.00
G00 X6.5461 Y5.2911
G01 F80.00
G01 Z-0.0350
G01 F80.00
G01 X6.4801 Y5.2911
G01 X6.4801 Y4.9520
G01 X7.1191 Y4.9520
G01 X7.1191 Y5.0180
G01 X6.6378 Y5.0180
G01 X6.6263 Y5.0190
G01 X6.6195 Y5.0203
G01 X6.6128 Y5.0221
G01 X6.6020 Y5.0261
G01 X6.5917 Y5.0314
G01 X6.5841 Y5.0365
G01 X6.5769 Y5.0424
G01 X6.5689 Y5.0506
G01 X6.5632 Y5.0579
G01 X6.5572 Y5.0677
G01 X6.5532 Y5.0760
G01 X6.5501 Y5.0847
G01 X6.5475 Y5.0959
G01 X6.5465 Y5.1028
G01 X6.5461 Y5.1120
G01 X6.5461 Y5.2911
G00 Z2.0000
G00 X7.1191 Y6.0721
G01 F80.00
G01 Z-0.0350
G01 F80.00
G01 X6.4801 Y6.0721
G01 X6.4801 Y5.7331
G01 X6.5461 Y5.7331
G01 X6.5461 Y5.9121
G01 X6.5465 Y5.9213
G01 X6.5479 Y5.9304
G01 X6.5501 Y5.9394
G01 X6.5541 Y5.9502
G01 X6.5594 Y5.9604
G01 X6.5646 Y5.9681
G01 X6.5704 Y5.9752
G01 X6.5787 Y5.9833
G01 X6.5878 Y5.9903
G01 X6.5958 Y5.9950
G01 X6.6062 Y5.9998
G01 X6.6172 Y6.0033
G01 X6.6263 Y6.0051
G01 X6.6378 Y6.0061
G01 X7.1191 Y6.0061
G01 X7.1191 Y6.0721
G00 Z2.0000
G00 X8.1999 Y6.0721
G01 F80.00
G01 Z-0.0350
G01 F80.00
G01 X7.5611 Y6.0721
G01 X7.5611 Y6.0061
G01 X8.0424 Y6.0061
G01 X8.0516 Y6.0054
G01 X8.0607 Y6.0038
G01 X8.0674 Y6.0021
G01 X8.0761 Y5.9989
G01 X8.0864 Y5.9939
G01 X8.0961 Y5.9876
G01 X8.1049 Y5.9802
G01 X8.1128 Y5.9717
G01 X8.1195 Y5.9624
G01 X8.1251 Y5.9523
G01 X8.1286 Y5.9438
G01 X8.1318 Y5.9327
G01 X8.1337 Y5.9213
G01 X8.1341 Y5.9121
G01 X8.1341 Y5.7331
G01 X8.1999 Y5.7331
G01 X8.1999 Y6.0721
G00 Z2.0000
G00 X8.1999 Y5.2911
G01 F80.00
G01 Z-0.0350
G01 F80.00
G01 X8.1341 Y5.2911
G01 X8.1341 Y5.1120
G01 X8.1337 Y5.1028
G01 X8.1323 Y5.0937
G01 X8.1301 Y5.0847
G01 X8.1260 Y5.0739
G01 X8.1219 Y5.0657
G01 X8.1156 Y5.0560
G01 X8.1098 Y5.0489
G01 X8.1015 Y5.0408
G01 X8.0923 Y5.0338
G01 X8.0844 Y5.0291
G01 X8.0739 Y5.0243
G01 X8.0630 Y5.0208
G01 X8.0539 Y5.0190
G01 X8.0424 Y5.0180
G01 X7.5611 Y5.0180
G01 X7.5611 Y4.9520
G01 X8.1999 Y4.9520
G01 X8.1999 Y5.2911
G00 Z2.0000
G00 X9.8929 Y5.6815
G01 F80.00
G01 Z-0.0350
G01 F80.00
G01 X9.8836 Y5.6754
G01 X9.8307 Y5.6360
G01 X9.7784 Y5.5886
G01 X9.7310 Y5.5363
G01 X9.6889 Y5.4796
G01 X9.6527 Y5.4191
G01 X9.6225 Y5.3553
G01 X9.5987 Y5.2888
G01 X9.5826 Y5.2248
G01 X9.5808 Y5.2158
G01 X9.5712 Y5.1505
G01 X9.5678 Y5.0846
G01 X9.5678 Y5.0754
G01 X9.5712 Y5.0095
G01 X9.5808 Y4.9442
G01 X9.5826 Y4.9352
G01 X9.5975 Y4.8757
G01 X9.6001 Y4.8668
G01 X9.6225 Y4.8047
G01 X9.6527 Y4.7409
G01 X9.6889 Y4.6804
G01 X9.7295 Y4.6255
G01 X9.7784 Y4.5714
G01 X13.3360 Y1.0138
G01 X13.3867 Y0.9680
G01 X13.4396 Y0.9286
G01 X13.4473 Y0.9235
G01 X13.5039 Y0.8897
G01 X13.5635 Y0.8613
G01 X13.5720 Y0.8578
G01 X13.6342 Y0.8357
G01 X13.7004 Y0.8190
G01 X13.7725 Y0.8082
G01 X13.8430 Y0.8047
G01 X17.5260 Y0.8047
G01 X17.5965 Y0.8082
G01 X17.6663 Y0.8185
G01 X17.7348 Y0.8357
G01 X17.7991 Y0.8586
G01 X17.8651 Y0.8897
G01 X17.9256 Y0.9259
G01 X17.9823 Y0.9680
G01 X18.0330 Y1.0138
G01 X20.0682 Y3.0490
G01 X20.1140 Y3.0997
G01 X20.1534 Y3.1526
G01 X20.1585 Y3.1603
G01 X20.1923 Y3.2169
G01 X20.2207 Y3.2765
G01 X20.2242 Y3.2850
G01 X20.2463 Y3.3472
G01 X20.2630 Y3.4134
G01 X20.2738 Y3.4855
G01 X20.2773 Y3.5560
G01 X20.2773 Y14.4780
G01 X20.2738 Y14.5485
G01 X20.2642 Y14.6138
G01 X20.2624 Y14.6228
G01 X20.2456 Y14.6890
G01 X20.2242 Y14.7490
G01 X20.2207 Y14.7575
G01 X20.1923 Y14.8171
G01 X20.1585 Y14.8737
G01 X20.1534 Y14.8814
G01 X20.1140 Y14.9343
G01 X20.0666 Y14.9866
G01 X20.0178 Y15.0310
G01 X20.0107 Y15.0368
G01 X19.9576 Y15.0761
G01 X19.9040 Y15.1083
G01 X12.5182 Y22.4942
G01 X12.5191 Y22.5034
G01 X12.5240 Y22.6060
G01 X12.5191 Y22.7086
G01 X12.5182 Y22.7178
G01 X12.5030 Y22.8194
G01 X12.4781 Y22.9191
G01 X12.4754 Y22.9280
G01 X12.4416 Y23.0225
G01 X12.3948 Y23.1217
G01 X12.3383 Y23.2157
G01 X12.2785 Y23.2964
G01 X12.2727 Y23.3035
G01 X12.2036 Y23.3796
G01 X12.1493 Y23.4289
G01 X12.1493 Y25.7922
G01 X12.3324 Y25.7922
G01 X12.3393 Y25.7926
G01 X12.3461 Y25.7935
G01 X12.3529 Y25.7950
G01 X12.3595 Y25.7969
G01 X12.3660 Y25.7993
G01 X12.3723 Y25.8022
G01 X12.3784 Y25.8055
G01 X12.3842 Y25.8093
G01 X12.3897 Y25.8135
G01 X12.3965 Y25.8197
G01 X12.4012 Y25.8248
G01 X12.4055 Y25.8302
G01 X12.4095 Y25.8359
G01 X12.4129 Y25.8418
G01 X12.4160 Y25.8481
G01 X12.4186 Y25.8545
G01 X12.4206 Y25.8611
G01 X12.4222 Y25.8678
G01 X12.4233 Y25.8747
G01 X12.4239 Y25.8815
G01 X12.4240 Y27.0860
G01 X12.4238 Y27.0930
G01 X12.4230 Y27.0998
G01 X12.4212 Y27.1089
G01 X12.4193 Y27.1155
G01 X12.4160 Y27.1241
G01 X12.4129 Y27.1304
G01 X12.4082 Y27.1383
G01 X12.4042 Y27.1439
G01 X12.3981 Y27.1509
G01 X12.3932 Y27.1557
G01 X12.3860 Y27.1616
G01 X12.3803 Y27.1655
G01 X12.3723 Y27.1700
G01 X12.3660 Y27.1729
G01 X12.3573 Y27.1760
G01 X12.3506 Y27.1778
G01 X12.3416 Y27.1793
G01 X12.3300 Y27.1800
G01 X11.6167 Y27.1800
G01 X11.5703 Y27.1916
G01 X11.5028 Y27.2017
G01 X11.4300 Y27.2054
G01 X11.3572 Y27.2017
G01 X11.2897 Y27.1916
G01 X11.2433 Y27.1800
G01 X10.5276 Y27.1800
G01 X10.5207 Y27.1796
G01 X10.5139 Y27.1787
G01 X10.5071 Y27.1772
G01 X10.5005 Y27.1753
G01 X10.4940 Y27.1729
G01 X10.4877 Y27.1700
G01 X10.4816 Y27.1667
G01 X10.4758 Y27.1629
G01 X10.4703 Y27.1587
G01 X10.4651 Y27.1541
G01 X10.4603 Y27.1492
G01 X10.4558 Y27.1439
G01 X10.4518 Y27.1383
G01 X10.4482 Y27.1324
G01 X10.4431 Y27.1220
G01 X10.4400 Y27.1133
G01 X10.4378 Y27.1044
G01 X10.4364 Y27.0953
G01 X10.4360 Y27.0860
G01 X10.4360 Y25.8862
G01 X10.4364 Y25.8769
G01 X10.4378 Y25.8678
G01 X10.4407 Y25.8567
G01 X10.4431 Y25.8502
G01 X10.4460 Y25.8439
G01 X10.4493 Y25.8378
G01 X10.4531 Y25.8320
G01 X10.4603 Y25.8230
G01 X10.4651 Y25.8181
G01 X10.4703 Y25.8135
G01 X10.4758 Y25.8093
G01 X10.4816 Y25.8055
G01 X10.4877 Y25.8022
G01 X10.4940 Y25.7993
G01 X10.5049 Y25.7956
G01 X10.5162 Y25.7932
G01 X10.5276 Y25.7922
G01 X10.7107 Y25.7922
G01 X10.7107 Y23.4289
G01 X10.6564 Y23.3796
G01 X10.5858 Y23.3018
G01 X10.5230 Y23.2176
G01 X10.5191 Y23.2119
G01 X10.4652 Y23.1217
G01 X10.4211 Y23.0289
G01 X10.4176 Y23.0203
G01 X10.3825 Y22.9214
G01 X10.3570 Y22.8194
G01 X10.3418 Y22.7178
G01 X10.3409 Y22.7086
G01 X10.3360 Y22.6060
G01 X10.3409 Y22.5034
G01 X10.3418 Y22.4942
G01 X10.3570 Y22.3926
G01 X10.3825 Y22.2906
G01 X10.4193 Y22.1873
G01 X10.4631 Y22.0944
G01 X10.4675 Y22.0863
G01 X10.5179 Y22.0021
G01 X10.5230 Y21.9944
G01 X10.5843 Y21.9120
G01 X10.6564 Y21.8324
G01 X10.7360 Y21.7603
G01 X10.8203 Y21.6977
G01 X10.9103 Y21.6435
G01 X10.9184 Y21.6391
G01 X11.0113 Y21.5953
G01 X11.1146 Y21.5585
G01 X11.2166 Y21.5330
G01 X11.3205 Y21.5175
G01 X11.4277 Y21.5120
G01 X11.4643 Y21.5136
G01 X18.8387 Y14.1392
G01 X18.8387 Y3.8539
G01 X17.2281 Y2.2433
G01 X14.1409 Y2.2433
G01 X10.7956 Y5.5886
G01 X10.7433 Y5.6360
G01 X10.6904 Y5.6754
G01 X10.6811 Y5.6815
G01 X10.6811 Y5.7280
G01 X10.6896 Y5.7621
G01 X10.6947 Y5.7957
G01 X10.6956 Y5.8049
G01 X10.6971 Y5.8390
G01 X10.6969 Y7.6914
G01 X10.6965 Y7.6983
G01 X10.6952 Y7.7074
G01 X10.6936 Y7.7142
G01 X10.6915 Y7.7208
G01 X10.6889 Y7.7272
G01 X10.6859 Y7.7334
G01 X10.6824 Y7.7394
G01 X10.6785 Y7.7451
G01 X10.6742 Y7.7505
G01 X10.6694 Y7.7556
G01 X10.6644 Y7.7603
G01 X10.6590 Y7.7646
G01 X10.6533 Y7.7685
G01 X10.6473 Y7.7720
G01 X10.6411 Y7.7750
G01 X10.6346 Y7.7776
G01 X10.6258 Y7.7803
G01 X10.6190 Y7.7817
G01 X10.6122 Y7.7826
G01 X10.6030 Y7.7831
G01 X10.0030 Y7.7831
G01 X9.9961 Y7.7828
G01 X9.9892 Y7.7821
G01 X9.9824 Y7.7808
G01 X9.9757 Y7.7790
G01 X9.9692 Y7.7768
G01 X9.9628 Y7.7741
G01 X9.9567 Y7.7709
G01 X9.9508 Y7.7672
G01 X9.9452 Y7.7632
G01 X9.9399 Y7.7587
G01 X9.9350 Y7.7539
G01 X9.9304 Y7.7487
G01 X9.9262 Y7.7432
G01 X9.9201 Y7.7334
G01 X9.9171 Y7.7272
G01 X9.9145 Y7.7208
G01 X9.9124 Y7.7142
G01 X9.9104 Y7.7052
G01 X9.9093 Y7.6960
G01 X9.9090 Y7.6891
G01 X9.9089 Y5.9339
G01 X9.9005 Y5.8998
G01 X9.8946 Y5.8593
G01 X9.8929 Y5.8230
G01 X9.8929 Y5.6815
G00 Z2.0000
G00 X10.8280 Y6.8201
G01 F80.00
G01 Z-0.0350
G01 F80.00
G01 X13.5776 Y6.8200
G01 X15.8503 Y4.5473
G01 X15.8790 Y4.5213
G01 X15.9063 Y4.5010
G01 X15.9139 Y4.4958
G01 X15.9432 Y4.4784
G01 X15.9782 Y4.4619
G01 X16.0102 Y4.4503
G01 X16.0190 Y4.4476
G01 X16.0521 Y4.4395
G01 X16.0881 Y4.4340
G01 X16.1290 Y4.4319
G01 X16.6334 Y4.4319
G01 X16.6432 Y4.4052
G01 X16.6871 Y4.3123
G01 X16.7421 Y4.2201
G01 X16.8073 Y4.1320
G01 X16.8811 Y4.0508
G01 X16.9555 Y3.9833
G01 X16.9626 Y3.9775
G01 X17.0452 Y3.9164
G01 X17.1333 Y3.8635
G01 X17.1414 Y3.8591
G01 X17.2343 Y3.8153
G01 X17.3354 Y3.7791
G01 X17.4396 Y3.7530
G01 X17.5458 Y3.7373
G01 X17.6530 Y3.7320
G01 X17.7602 Y3.7373
G01 X17.8664 Y3.7530
G01 X17.9706 Y3.7791
G01 X18.0717 Y3.8153
G01 X18.1687 Y3.8612
G01 X18.2608 Y3.9164
G01 X18.3470 Y3.9803
G01 X18.4266 Y4.0524
G01 X18.4987 Y4.1320
G01 X18.5626 Y4.2182
G01 X18.6178 Y4.3103
G01 X18.6637 Y4.4073
G01 X18.6999 Y4.5084
G01 X18.7260 Y4.6126
G01 X18.7412 Y4.7142
G01 X18.7421 Y4.7234
G01 X18.7469 Y4.8214
G01 X18.7469 Y4.8306
G01 X18.7417 Y4.9332
G01 X18.7260 Y5.0394
G01 X18.6999 Y5.1436
G01 X18.6654 Y5.2403
G01 X18.6619 Y5.2489
G01 X18.6199 Y5.3376
G01 X18.6155 Y5.3457
G01 X18.5626 Y5.4338
G01 X18.4987 Y5.5200
G01 X18.4266 Y5.5996
G01 X18.3505 Y5.6687
G01 X18.3434 Y5.6745
G01 X18.2589 Y5.7369
G01 X18.1687 Y5.7908
G01 X18.0717 Y5.8367
G01 X17.9706 Y5.8729
G01 X17.8709 Y5.8980
G01 X17.8619 Y5.8998
G01 X17.7602 Y5.9147
G01 X17.6576 Y5.9199
G01 X17.6484 Y5.9199
G01 X17.5458 Y5.9147
G01 X17.4441 Y5.8998
G01 X17.4351 Y5.8980
G01 X17.3399 Y5.8741
G01 X17.3310 Y5.8714
G01 X17.2343 Y5.8367
G01 X17.1414 Y5.7929
G01 X17.1333 Y5.7885
G01 X17.0452 Y5.7356
G01 X16.9626 Y5.6745
G01 X16.9555 Y5.6687
G01 X16.8828 Y5.6028
G01 X16.8762 Y5.5962
G01 X16.8073 Y5.5200
G01 X16.7434 Y5.4338
G01 X16.6871 Y5.3397
G01 X16.6432 Y5.2468
G01 X16.6334 Y5.2201
G01 X16.2922 Y5.2201
G01 X14.0179 Y7.4944
G01 X13.9944 Y7.5158
G01 X13.9873 Y7.5216
G01 X13.9599 Y7.5418
G01 X13.9307 Y7.5594
G01 X13.9226 Y7.5638
G01 X13.8917 Y7.5782
G01 X13.8553 Y7.5913
G01 X13.8178 Y7.6007
G01 X13.7841 Y7.6058
G01 X13.7749 Y7.6067
G01 X13.7409 Y7.6082
G01 X10.8280 Y7.6081
G01 X10.8165 Y7.6074
G01 X10.8052 Y7.6053
G01 X10.7985 Y7.6033
G01 X10.7899 Y7.6000
G01 X10.7837 Y7.5970
G01 X10.7777 Y7.5935
G01 X10.7720 Y7.5896
G01 X10.7666 Y7.5853
G01 X10.7616 Y7.5805
G01 X10.7568 Y7.5755
G01 X10.7512 Y7.5682
G01 X10.7474 Y7.5624
G01 X10.7441 Y7.5563
G01 X10.7412 Y7.5501
G01 X10.7388 Y7.5436
G01 X10.7368 Y7.5369
G01 X10.7354 Y7.5301
G01 X10.7345 Y7.5233
G01 X10.7340 Y7.5141
G01 X10.7341 Y6.9118
G01 X10.7347 Y6.9026
G01 X10.7363 Y6.8935
G01 X10.7388 Y6.8847
G01 X10.7421 Y6.8760
G01 X10.7462 Y6.8678
G01 X10.7499 Y6.8619
G01 X10.7554 Y6.8545
G01 X10.7616 Y6.8477
G01 X10.7684 Y6.8415
G01 X10.7758 Y6.8360
G01 X10.7837 Y6.8312
G01 X10.7921 Y6.8273
G01 X10.8007 Y6.8242
G01 X10.8097 Y6.8219
G01 X10.8188 Y6.8206
G01 X10.8280 Y6.8201
G00 Z2.0000
G00 X11.3121 Y6.7983
G01 F80.00
G01 Z-0.0350
G01 F80.00
G01 X11.2696 Y6.8066
G01 X11.2560 Y6.8080
G01 X10.8128 Y6.8080
G01 X10.8059 Y6.8077
G01 X10.7944 Y6.8062
G01 X10.7833 Y6.8032
G01 X10.7726 Y6.7990
G01 X10.7625 Y6.7934
G01 X10.7531 Y6.7866
G01 X10.7447 Y6.7788
G01 X10.7373 Y6.7700
G01 X10.7334 Y6.7643
G01 X10.7299 Y6.7583
G01 X10.7251 Y6.7478
G01 X10.7216 Y6.7368
G01 X10.7195 Y6.7255
G01 X10.7188 Y6.7140
G01 X10.7188 Y5.8482
G01 X10.7042 Y5.7745
G01 X10.7030 Y5.7653
G01 X10.7028 Y5.7584
G01 X10.7028 Y5.7264
G01 X10.7032 Y5.7194
G01 X10.7042 Y5.7125
G01 X10.7062 Y5.7034
G01 X10.7092 Y5.6946
G01 X10.7130 Y5.6861
G01 X10.7176 Y5.6780
G01 X10.7216 Y5.6723
G01 X10.7260 Y5.6669
G01 X10.7308 Y5.6618
G01 X10.7359 Y5.6571
G01 X10.8132 Y5.5977
G01 X14.1212 Y2.2896
G01 X14.1280 Y2.2834
G01 X14.1355 Y2.2779
G01 X14.1434 Y2.2732
G01 X14.1538 Y2.2684
G01 X14.1626 Y2.2655
G01 X14.1716 Y2.2635
G01 X14.1808 Y2.2624
G01 X14.1877 Y2.2621
G01 X17.1813 Y2.2621
G01 X17.1882 Y2.2624
G01 X17.1951 Y2.2631
G01 X17.2042 Y2.2649
G01 X17.2108 Y2.2669
G01 X17.2194 Y2.2702
G01 X17.2296 Y2.2755
G01 X17.2392 Y2.2820
G01 X17.2478 Y2.2896
G01 X18.7924 Y3.8342
G01 X18.7986 Y3.8410
G01 X18.8041 Y3.8485
G01 X18.8088 Y3.8564
G01 X18.8136 Y3.8668
G01 X18.8158 Y3.8734
G01 X18.8181 Y3.8823
G01 X18.8194 Y3.8915
G01 X18.8199 Y3.8984
G01 X18.8199 Y4.2842
G01 X18.8192 Y4.2957
G01 X18.8181 Y4.3025
G01 X18.8165 Y4.3092
G01 X18.8144 Y4.3158
G01 X18.8109 Y4.3243
G01 X18.8078 Y4.3304
G01 X18.8041 Y4.3363
G01 X18.7987 Y4.3437
G01 X18.7941 Y4.3489
G01 X18.7892 Y4.3537
G01 X18.7839 Y4.3582
G01 X18.7783 Y4.3622
G01 X18.7725 Y4.3659
G01 X18.7643 Y4.3700
G01 X18.7579 Y4.3726
G01 X18.7513 Y4.3747
G01 X18.7446 Y4.3763
G01 X18.7332 Y4.3779
G01 X18.7217 Y4.3781
G01 X18.7103 Y4.3769
G01 X18.6991 Y4.3743
G01 X18.6883 Y4.3704
G01 X18.6821 Y4.3674
G01 X18.6761 Y4.3639
G01 X18.6667 Y4.3573
G01 X18.6583 Y4.3495
G01 X18.6508 Y4.3408
G01 X18.6445 Y4.3312
G01 X18.5382 Y4.1469
G01 X18.3322 Y3.9411
G01 X18.0800 Y3.7955
G01 X17.7986 Y3.7201
G01 X17.5074 Y3.7201
G01 X17.2260 Y3.7955
G01 X16.9738 Y3.9411
G01 X16.7678 Y4.1469
G01 X16.6406 Y4.3671
G01 X16.6367 Y4.3728
G01 X16.6323 Y4.3781
G01 X16.6243 Y4.3862
G01 X16.6190 Y4.3906
G01 X16.6134 Y4.3946
G01 X16.6076 Y4.3982
G01 X16.6015 Y4.4013
G01 X16.5930 Y4.4048
G01 X16.5820 Y4.4080
G01 X16.5730 Y4.4095
G01 X16.5638 Y4.4102
G01 X16.1383 Y4.4102
G01 X15.9706 Y4.4436
G01 X15.8285 Y4.5386
G01 X13.5963 Y6.7708
G01 X13.5876 Y6.7784
G01 X13.5801 Y6.7837
G01 X13.5721 Y6.7883
G01 X13.5636 Y6.7920
G01 X13.5549 Y6.7949
G01 X13.5459 Y6.7969
G01 X13.5390 Y6.7979
G01 X13.5298 Y6.7983
G01 X11.3121 Y6.7983
G00 Z2.0000
G00 X10.7340 Y8.3139
G01 F80.00
G01 Z-0.0350
G01 F80.00
G01 X10.7340 Y7.7140
G01 X10.7345 Y7.7048
G01 X10.7354 Y7.6979
G01 X10.7368 Y7.6911
G01 X10.7388 Y7.6845
G01 X10.7412 Y7.6780
G01 X10.7441 Y7.6717
G01 X10.7474 Y7.6657
G01 X10.7512 Y7.6599
G01 X10.7554 Y7.6543
G01 X10.7599 Y7.6492
G01 X10.7649 Y7.6443
G01 X10.7702 Y7.6399
G01 X10.7758 Y7.6358
G01 X10.7817 Y7.6322
G01 X10.7878 Y7.6290
G01 X10.7942 Y7.6263
G01 X10.8007 Y7.6240
G01 X10.8074 Y7.6223
G01 X10.8142 Y7.6210
G01 X10.8211 Y7.6202
G01 X10.8280 Y7.6200
G01 X14.9389 Y7.6198
G01 X15.4733 Y7.0856
G01 X15.5003 Y7.0613
G01 X15.5276 Y7.0410
G01 X15.5353 Y7.0358
G01 X15.5666 Y7.0173
G01 X15.5995 Y7.0019
G01 X15.6315 Y6.9903
G01 X15.6404 Y6.9876
G01 X15.6734 Y6.9794
G01 X15.7071 Y6.9743
G01 X15.7163 Y6.9734
G01 X15.7457 Y6.9720
G01 X16.6334 Y6.9719
G01 X16.6432 Y6.9452
G01 X16.6871 Y6.8523
G01 X16.6905 Y6.8463
G01 X16.7447 Y6.7563
G01 X16.8073 Y6.6720
G01 X16.8762 Y6.5958
G01 X16.8828 Y6.5892
G01 X16.9608 Y6.5189
G01 X17.0452 Y6.4564
G01 X17.1333 Y6.4035
G01 X17.1414 Y6.3991
G01 X17.2343 Y6.3553
G01 X17.3310 Y6.3206
G01 X17.3399 Y6.3179
G01 X17.4396 Y6.2930
G01 X17.5435 Y6.2775
G01 X17.6530 Y6.2720
G01 X17.7602 Y6.2773
G01 X17.8664 Y6.2930
G01 X17.9706 Y6.3191
G01 X18.0717 Y6.3553
G01 X18.1687 Y6.4012
G01 X18.2608 Y6.4564
G01 X18.3470 Y6.5203
G01 X18.4266 Y6.5924
G01 X18.4987 Y6.6720
G01 X18.5626 Y6.7582
G01 X18.6178 Y6.8503
G01 X18.6637 Y6.9473
G01 X18.6999 Y7.0484
G01 X18.7260 Y7.1526
G01 X18.7415 Y7.2565
G01 X18.7470 Y7.3660
G01 X18.7417 Y7.4732
G01 X18.7260 Y7.5794
G01 X18.6999 Y7.6836
G01 X18.6637 Y7.7847
G01 X18.6178 Y7.8817
G01 X18.5626 Y7.9738
G01 X18.4987 Y8.0600
G01 X18.4266 Y8.1396
G01 X18.3470 Y8.2117
G01 X18.2608 Y8.2756
G01 X18.1687 Y8.3308
G01 X18.0717 Y8.3767
G01 X17.9706 Y8.4129
G01 X17.8664 Y8.4390
G01 X17.7625 Y8.4545
G01 X17.6530 Y8.4600
G01 X17.5504 Y8.4551
G01 X17.5412 Y8.4542
G01 X17.4441 Y8.4398
G01 X17.4351 Y8.4380
G01 X17.3354 Y8.4129
G01 X17.2343 Y8.3767
G01 X17.1373 Y8.3308
G01 X17.0491 Y8.2781
G01 X17.0414 Y8.2730
G01 X16.9626 Y8.2145
G01 X16.9555 Y8.2087
G01 X16.8794 Y8.1396
G01 X16.8073 Y8.0600
G01 X16.7434 Y7.9738
G01 X16.6893 Y7.8837
G01 X16.6432 Y7.7868
G01 X16.6334 Y7.7601
G01 X15.9135 Y7.7601
G01 X15.3807 Y8.2927
G01 X15.3521 Y8.3186
G01 X15.3248 Y8.3390
G01 X15.3171 Y8.3442
G01 X15.2878 Y8.3616
G01 X15.2529 Y8.3781
G01 X15.2165 Y8.3911
G01 X15.1835 Y8.3995
G01 X15.1743 Y8.4013
G01 X15.1406 Y8.4062
G01 X15.1021 Y8.4081
G01 X10.8257 Y8.4079
G01 X10.8165 Y8.4072
G01 X10.8074 Y8.4056
G01 X10.7985 Y8.4032
G01 X10.7899 Y8.3999
G01 X10.7837 Y8.3968
G01 X10.7758 Y8.3921
G01 X10.7684 Y8.3866
G01 X10.7616 Y8.3804
G01 X10.7554 Y8.3736
G01 X10.7499 Y8.3661
G01 X10.7451 Y8.3582
G01 X10.7412 Y8.3499
G01 X10.7381 Y8.3412
G01 X10.7358 Y8.3323
G01 X10.7345 Y8.3231
G01 X10.7340 Y8.3139
G00 Z2.0000
G00 X10.8280 Y8.4201
G01 F80.00
G01 Z-0.0350
G01 F80.00
G01 X11.7803 Y8.4201
G01 X11.7872 Y8.4205
G01 X11.7963 Y8.4219
G01 X11.8030 Y8.4235
G01 X11.8096 Y8.4256
G01 X11.8161 Y8.4281
G01 X11.8223 Y8.4312
G01 X11.8283 Y8.4347
G01 X11.8340 Y8.4386
G01 X11.8428 Y8.4460
G01 X11.8506 Y8.4544
G01 X11.8561 Y8.4619
G01 X11.8619 Y8.4718
G01 X11.8665 Y8.4824
G01 X11.8692 Y8.4912
G01 X11.8713 Y8.5026
G01 X11.8719 Y8.5118
G01 X11.8719 Y9.1163
G01 X11.8715 Y9.1232
G01 X11.8702 Y9.1324
G01 X11.8686 Y9.1391
G01 X11.8665 Y9.1457
G01 X11.8639 Y9.1521
G01 X11.8609 Y9.1583
G01 X11.8574 Y9.1643
G01 X11.8535 Y9.1700
G01 X11.8476 Y9.1772
G01 X11.8394 Y9.1852
G01 X11.8302 Y9.1922
G01 X11.8202 Y9.1980
G01 X11.8118 Y9.2017
G01 X11.8008 Y9.2052
G01 X11.7918 Y9.2070
G01 X11.7803 Y9.2080
G01 X10.8257 Y9.2080
G01 X10.8188 Y9.2076
G01 X10.8120 Y9.2066
G01 X10.8052 Y9.2052
G01 X10.7985 Y9.2033
G01 X10.7921 Y9.2009
G01 X10.7858 Y9.1980
G01 X10.7777 Y9.1934
G01 X10.7720 Y9.1895
G01 X10.7649 Y9.1837
G01 X10.7568 Y9.1754
G01 X10.7512 Y9.1682
G01 X10.7451 Y9.1583
G01 X10.7412 Y9.1500
G01 X10.7374 Y9.1391
G01 X10.7354 Y9.1301
G01 X10.7341 Y9.1186
G01 X10.7340 Y8.5141
G01 X10.7343 Y8.5072
G01 X10.7354 Y8.4980
G01 X10.7374 Y8.4890
G01 X10.7395 Y8.4824
G01 X10.7430 Y8.4739
G01 X10.7474 Y8.4658
G01 X10.7525 Y8.4581
G01 X10.7584 Y8.4510
G01 X10.7632 Y8.4460
G01 X10.7702 Y8.4400
G01 X10.7777 Y8.4347
G01 X10.7858 Y8.4301
G01 X10.7942 Y8.4264
G01 X10.8030 Y8.4235
G01 X10.8097 Y8.4219
G01 X10.8188 Y8.4205
G01 X10.8280 Y8.4201
G00 Z2.0000
G00 X10.8280 Y9.2199
G01 F80.00
G01 Z-0.0350
G01 F80.00
G01 X11.7803 Y9.2200
G01 X11.7872 Y9.2204
G01 X11.7963 Y9.2217
G01 X11.8030 Y9.2233
G01 X11.8096 Y9.2254
G01 X11.8161 Y9.2280
G01 X11.8223 Y9.2310
G01 X11.8283 Y9.2345
G01 X11.8340 Y9.2384
G01 X11.8428 Y9.2458
G01 X11.8506 Y9.2543
G01 X11.8561 Y9.2617
G01 X11.8619 Y9.2717
G01 X11.8665 Y9.2823
G01 X11.8692 Y9.2911
G01 X11.8713 Y9.3024
G01 X11.8719 Y9.3116
G01 X11.8719 Y9.9162
G01 X11.8715 Y9.9231
G01 X11.8702 Y9.9322
G01 X11.8686 Y9.9389
G01 X11.8665 Y9.9455
G01 X11.8639 Y9.9520
G01 X11.8609 Y9.9582
G01 X11.8574 Y9.9642
G01 X11.8535 Y9.9699
G01 X11.8476 Y9.9770
G01 X11.8394 Y9.9850
G01 X11.8302 Y9.9920
G01 X11.8202 Y9.9978
G01 X11.8118 Y10.0016
G01 X11.8008 Y10.0051
G01 X11.7918 Y10.0069
G01 X11.7803 Y10.0078
G01 X10.8257 Y10.0078
G01 X10.8188 Y10.0074
G01 X10.8120 Y10.0065
G01 X10.8052 Y10.0051
G01 X10.7985 Y10.0031
G01 X10.7921 Y10.0007
G01 X10.7858 Y9.9978
G01 X10.7777 Y9.9933
G01 X10.7720 Y9.9894
G01 X10.7649 Y9.9835
G01 X10.7568 Y9.9753
G01 X10.7512 Y9.9680
G01 X10.7451 Y9.9582
G01 X10.7412 Y9.9498
G01 X10.7374 Y9.9389
G01 X10.7354 Y9.9299
G01 X10.7341 Y9.9185
G01 X10.7340 Y9.3139
G01 X10.7343 Y9.3070
G01 X10.7354 Y9.2979
G01 X10.7374 Y9.2889
G01 X10.7395 Y9.2823
G01 X10.7430 Y9.2737
G01 X10.7474 Y9.2656
G01 X10.7525 Y9.2579
G01 X10.7584 Y9.2508
G01 X10.7632 Y9.2458
G01 X10.7702 Y9.2398
G01 X10.7777 Y9.2345
G01 X10.7858 Y9.2300
G01 X10.7942 Y9.2262
G01 X10.8030 Y9.2233
G01 X10.8097 Y9.2217
G01 X10.8188 Y9.2204
G01 X10.8280 Y9.2199
G00 Z2.0000
G00 X10.8280 Y10.0200
G01 F80.00
G01 Z-0.0350
G01 F80.00
G01 X13.1030 Y10.0199
G01 X13.1030 Y10.0089
G01 X13.1037 Y9.9997
G01 X13.1052 Y9.9906
G01 X13.1077 Y9.9817
G01 X13.1110 Y9.9731
G01 X13.1152 Y9.9648
G01 X13.1201 Y9.9570
G01 X13.1258 Y9.9498
G01 X13.1338 Y9.9415
G01 X13.1410 Y9.9357
G01 X13.1486 Y9.9305
G01 X13.1568 Y9.9262
G01 X13.1653 Y9.9227
G01 X13.1741 Y9.9200
G01 X13.1832 Y9.9182
G01 X13.1923 Y9.9173
G01 X14.9970 Y9.9172
G01 X15.0086 Y9.9179
G01 X15.0154 Y9.9190
G01 X15.0221 Y9.9206
G01 X15.0287 Y9.9227
G01 X15.0372 Y9.9262
G01 X15.0434 Y9.9294
G01 X15.0493 Y9.9330
G01 X15.0549 Y9.9371
G01 X15.0602 Y9.9415
G01 X15.0651 Y9.9463
G01 X15.0697 Y9.9515
G01 X15.0739 Y9.9570
G01 X15.0788 Y9.9648
G01 X15.0820 Y9.9710
G01 X15.0847 Y9.9773
G01 X15.0870 Y9.9839
G01 X15.0888 Y9.9906
G01 X15.0900 Y9.9974
G01 X15.0909 Y10.0065
G01 X15.0910 Y11.2110
G01 X15.0903 Y11.2226
G01 X15.0892 Y11.2294
G01 X15.0876 Y11.2361
G01 X15.0856 Y11.2427
G01 X15.0820 Y11.2512
G01 X15.0788 Y11.2574
G01 X15.0752 Y11.2633
G01 X15.0712 Y11.2689
G01 X15.0667 Y11.2742
G01 X15.0619 Y11.2791
G01 X15.0549 Y11.2852
G01 X15.0493 Y11.2892
G01 X15.0434 Y11.2928
G01 X15.0351 Y11.2970
G01 X15.0287 Y11.2996
G01 X15.0221 Y11.3016
G01 X15.0131 Y11.3037
G01 X15.0063 Y11.3046
G01 X14.9994 Y11.3050
G01 X13.1970 Y11.3050
G01 X13.1877 Y11.3046
G01 X13.1786 Y11.3032
G01 X13.1719 Y11.3016
G01 X13.1653 Y11.2996
G01 X13.1589 Y11.2970
G01 X13.1506 Y11.2928
G01 X13.1447 Y11.2892
G01 X13.1391 Y11.2852
G01 X13.1338 Y11.2807
G01 X13.1273 Y11.2742
G01 X13.1228 Y11.2689
G01 X13.1175 Y11.2613
G01 X13.1141 Y11.2554
G01 X13.1101 Y11.2470
G01 X13.1077 Y11.2405
G01 X13.1058 Y11.2339
G01 X13.1043 Y11.2271
G01 X13.1032 Y11.2180
G01 X13.1030 Y11.2110
G01 X13.1030 Y10.8081
G01 X10.8280 Y10.8080
G01 X10.8211 Y10.8077
G01 X10.8142 Y10.8070
G01 X10.8030 Y10.8046
G01 X10.7964 Y10.8025
G01 X10.7899 Y10.7999
G01 X10.7837 Y10.7969
G01 X10.7777 Y10.7934
G01 X10.7720 Y10.7895
G01 X10.7666 Y10.7851
G01 X10.7616 Y10.7804
G01 X10.7568 Y10.7754
G01 X10.7512 Y10.7681
G01 X10.7474 Y10.7623
G01 X10.7441 Y10.7562
G01 X10.7412 Y10.7499
G01 X10.7388 Y10.7435
G01 X10.7368 Y10.7368
G01 X10.7354 Y10.7300
G01 X10.7345 Y10.7232
G01 X10.7340 Y10.7140
G01 X10.7341 Y10.1117
G01 X10.7347 Y10.1025
G01 X10.7363 Y10.0934
G01 X10.7388 Y10.0845
G01 X10.7421 Y10.0759
G01 X10.7462 Y10.0677
G01 X10.7512 Y10.0599
G01 X10.7568 Y10.0526
G01 X10.7632 Y10.0459
G01 X10.7702 Y10.0399
G01 X10.7758 Y10.0359
G01 X10.7837 Y10.0311
G01 X10.7921 Y10.0272
G01 X10.8007 Y10.0241
G01 X10.8097 Y10.0218
G01 X10.8188 Y10.0205
G01 X10.8280 Y10.0200
G00 Z2.0000
G00 X8.8280 Y9.2199
G01 F80.00
G01 Z-0.0350
G01 F80.00
G01 X9.7803 Y9.2200
G01 X9.7872 Y9.2204
G01 X9.7963 Y9.2217
G01 X9.8031 Y9.2233
G01 X9.8096 Y9.2254
G01 X9.8161 Y9.2280
G01 X9.8223 Y9.2310
G01 X9.8283 Y9.2345
G01 X9.8340 Y9.2384
G01 X9.8428 Y9.2458
G01 X9.8506 Y9.2543
G01 X9.8561 Y9.2617
G01 X9.8619 Y9.2717
G01 X9.8665 Y9.2823
G01 X9.8692 Y9.2911
G01 X9.8713 Y9.3024
G01 X9.8720 Y9.3116
G01 X9.8720 Y9.9162
G01 X9.8715 Y9.9231
G01 X9.8702 Y9.9322
G01 X9.8686 Y9.9389
G01 X9.8665 Y9.9455
G01 X9.8639 Y9.9520
G01 X9.8609 Y9.9582
G01 X9.8574 Y9.9642
G01 X9.8535 Y9.9699
G01 X9.8476 Y9.9770
G01 X9.8394 Y9.9850
G01 X9.8302 Y9.9920
G01 X9.8202 Y9.9978
G01 X9.8118 Y10.0016
G01 X9.8008 Y10.0051
G01 X9.7918 Y10.0069
G01 X9.7803 Y10.0078
G01 X8.8257 Y10.0078
G01 X8.8188 Y10.0074
G01 X8.8120 Y10.0065
G01 X8.8052 Y10.0051
G01 X8.7985 Y10.0031
G01 X8.7921 Y10.0007
G01 X8.7858 Y9.9978
G01 X8.7777 Y9.9933
G01 X8.7720 Y9.9894
G01 X8.7649 Y9.9835
G01 X8.7568 Y9.9753
G01 X8.7512 Y9.9680
G01 X8.7451 Y9.9582
G01 X8.7412 Y9.9498
G01 X8.7374 Y9.9389
G01 X8.7354 Y9.9299
G01 X8.7341 Y9.9185
G01 X8.7340 Y9.3139
G01 X8.7343 Y9.3070
G01 X8.7354 Y9.2979
G01 X8.7374 Y9.2889
G01 X8.7395 Y9.2823
G01 X8.7431 Y9.2737
G01 X8.7474 Y9.2656
G01 X8.7525 Y9.2579
G01 X8.7584 Y9.2508
G01 X8.7632 Y9.2458
G01 X8.7702 Y9.2398
G01 X8.7777 Y9.2345
G01 X8.7858 Y9.2300
G01 X8.7942 Y9.2262
G01 X8.8030 Y9.2233
G01 X8.8097 Y9.2217
G01 X8.8188 Y9.2204
G01 X8.8280 Y9.2199
G00 Z2.0000
G00 X8.6563 Y9.2785
G01 F80.00
G01 Z-0.0350
G01 F80.00
G01 X8.6681 Y9.2831
G01 X8.6742 Y9.2862
G01 X8.6801 Y9.2899
G01 X8.6857 Y9.2939
G01 X8.6910 Y9.2984
G01 X8.6959 Y9.3032
G01 X8.7005 Y9.3084
G01 X8.7047 Y9.3139
G01 X8.7085 Y9.3197
G01 X8.7118 Y9.3258
G01 X8.7147 Y9.3321
G01 X8.7171 Y9.3385
G01 X8.7191 Y9.3452
G01 X8.7205 Y9.3520
G01 X8.7214 Y9.3588
G01 X8.7219 Y9.3680
G01 X8.7219 Y9.8600
G01 X8.7214 Y9.8692
G01 X8.7205 Y9.8761
G01 X8.7185 Y9.8851
G01 X8.7156 Y9.8939
G01 X8.7118 Y9.9023
G01 X8.7073 Y9.9103
G01 X8.7020 Y9.9179
G01 X8.6960 Y9.9248
G01 X8.6910 Y9.9297
G01 X8.6839 Y9.9355
G01 X8.6742 Y9.9418
G01 X8.6660 Y9.9460
G01 X8.6563 Y9.9496
G01 X8.6495 Y9.9602
G01 X8.6421 Y9.9690
G01 X8.6337 Y9.9769
G01 X8.6281 Y9.9811
G01 X8.6223 Y9.9848
G01 X8.6121 Y9.9902
G01 X8.6013 Y9.9942
G01 X8.5901 Y9.9968
G01 X8.5786 Y9.9981
G01 X7.9537 Y9.9982
G01 X7.9445 Y9.9975
G01 X7.9332 Y9.9954
G01 X7.9244 Y9.9927
G01 X7.9138 Y9.9882
G01 X7.9077 Y9.9848
G01 X7.9019 Y9.9811
G01 X7.8964 Y9.9769
G01 X7.8896 Y9.9707
G01 X7.3192 Y9.4003
G01 X7.3132 Y9.3933
G01 X7.3078 Y9.3857
G01 X7.3043 Y9.3797
G01 X7.3004 Y9.3713
G01 X7.2980 Y9.3647
G01 X7.2955 Y9.3558
G01 X7.2943 Y9.3489
G01 X7.2934 Y9.3397
G01 X7.2935 Y9.3304
G01 X7.2944 Y9.3211
G01 X7.2963 Y9.3120
G01 X7.2991 Y9.3032
G01 X7.3027 Y9.2946
G01 X7.3072 Y9.2865
G01 X7.3124 Y9.2788
G01 X7.3184 Y9.2717
G01 X7.3386 Y9.2521
G01 X7.3458 Y9.2465
G01 X7.3535 Y9.2417
G01 X7.3617 Y9.2377
G01 X7.3724 Y9.2338
G01 X7.3834 Y9.2312
G01 X7.3947 Y9.2299
G01 X8.5786 Y9.2299
G01 X8.5901 Y9.2312
G01 X8.6013 Y9.2339
G01 X8.6079 Y9.2361
G01 X8.6142 Y9.2389
G01 X8.6243 Y9.2444
G01 X8.6337 Y9.2512
G01 X8.6421 Y9.2590
G01 X8.6495 Y9.2678
G01 X8.6563 Y9.2785
G00 Z2.0000
G00 X5.8359 Y10.5744
G01 F80.00
G01 Z-0.0350
G01 F80.00
G01 X5.8359 Y11.0251
G01 X5.7700 Y11.0251
G01 X5.7700 Y10.6961
G01 X5.7696 Y10.6869
G01 X5.7682 Y10.6777
G01 X5.7653 Y10.6666
G01 X5.7610 Y10.6559
G01 X5.7566 Y10.6477
G01 X5.7501 Y10.6382
G01 X5.7441 Y10.6313
G01 X5.7356 Y10.6234
G01 X5.7282 Y10.6179
G01 X5.7223 Y10.6143
G01 X5.7162 Y10.6111
G01 X5.7098 Y10.6084
G01 X5.7033 Y10.6061
G01 X5.6921 Y10.6035
G01 X5.6852 Y10.6025
G01 X5.6783 Y10.6021
G01 X5.0470 Y10.6021
G01 X5.0470 Y10.5359
G01 X5.5089 Y10.5359
G01 X5.5856 Y10.5550
G01 X5.6896 Y10.5705
G01 X5.7968 Y10.5760
G01 X5.8359 Y10.5744
G00 Z2.0000
G00 X5.8359 Y11.9560
G01 F80.00
G01 Z-0.0350
G01 F80.00
G01 X5.0470 Y11.9560
G01 X5.0470 Y11.8901
G01 X5.6783 Y11.8901
G01 X5.6898 Y11.8891
G01 X5.7011 Y11.8867
G01 X5.7098 Y11.8838
G01 X5.7203 Y11.8790
G01 X5.7301 Y11.8730
G01 X5.7391 Y11.8658
G01 X5.7472 Y11.8575
G01 X5.7542 Y11.8484
G01 X5.7600 Y11.8384
G01 X5.7637 Y11.8300
G01 X5.7672 Y11.8190
G01 X5.7693 Y11.8076
G01 X5.7700 Y11.7961
G01 X5.7700 Y11.4671
G01 X5.8359 Y11.4671
G01 X5.8359 Y11.9560
G00 Z2.0000
G00 X4.6050 Y11.9560
G01 F80.00
G01 Z-0.0350
G01 F80.00
G01 X3.8161 Y11.9560
G01 X3.8161 Y11.4671
G01 X3.8820 Y11.4671
G01 X3.8820 Y11.7961
G01 X3.8824 Y11.8054
G01 X3.8843 Y11.8167
G01 X3.8875 Y11.8278
G01 X3.8920 Y11.8384
G01 X3.8966 Y11.8464
G01 X3.9019 Y11.8540
G01 X3.9095 Y11.8626
G01 X3.9182 Y11.8702
G01 X3.9257 Y11.8756
G01 X3.9358 Y11.8811
G01 X3.9422 Y11.8838
G01 X3.9487 Y11.8861
G01 X3.9599 Y11.8888
G01 X3.9668 Y11.8897
G01 X3.9737 Y11.8901
G01 X4.6050 Y11.8901
G01 X4.6050 Y11.9560
G00 Z2.0000
G00 X3.8820 Y11.0251
G01 F80.00
G01 Z-0.0350
G01 F80.00
G01 X3.8161 Y11.0251
G01 X3.8161 Y10.5359
G01 X4.6050 Y10.5359
G01 X4.6050 Y10.6021
G01 X3.9737 Y10.6021
G01 X3.9668 Y10.6025
G01 X3.9599 Y10.6035
G01 X3.9487 Y10.6061
G01 X3.9422 Y10.6084
G01 X3.9358 Y10.6111
G01 X3.9297 Y10.6143
G01 X3.9238 Y10.6179
G01 X3.9146 Y10.6249
G01 X3.9079 Y10.6313
G01 X3.9019 Y10.6382
G01 X3.8954 Y10.6477
G01 X3.8910 Y10.6559
G01 X3.8867 Y10.6666
G01 X3.8838 Y10.6777
G01 X3.8824 Y10.6869
G01 X3.8820 Y10.6961
G01 X3.8820 Y11.0251
G00 Z2.0000
G00 X3.9760 Y13.0019
G01 F80.00
G01 Z-0.0350
G01 F80.00
G01 X4.5072 Y13.0019
G01 X4.5507 Y12.9814
G01 X4.6128 Y12.9590
G01 X4.6217 Y12.9564
G01 X4.6834 Y12.9409
G01 X4.7555 Y12.9301
G01 X4.8283 Y12.9266
G01 X4.8965 Y12.9301
G01 X4.9618 Y12.9397
G01 X4.9708 Y12.9415
G01 X5.0303 Y12.9564
G01 X5.0392 Y12.9590
G01 X5.1013 Y12.9814
G01 X5.1448 Y13.0019
G01 X5.6760 Y13.0019
G01 X5.6829 Y13.0021
G01 X5.6898 Y13.0029
G01 X5.7011 Y13.0053
G01 X5.7077 Y13.0074
G01 X5.7141 Y13.0099
G01 X5.7243 Y13.0152
G01 X5.7301 Y13.0190
G01 X5.7356 Y13.0232
G01 X5.7408 Y13.0278
G01 X5.7457 Y13.0327
G01 X5.7501 Y13.0380
G01 X5.7542 Y13.0436
G01 X5.7600 Y13.0536
G01 X5.7629 Y13.0599
G01 X5.7653 Y13.0664
G01 X5.7672 Y13.0730
G01 X5.7686 Y13.0798
G01 X5.7698 Y13.0889
G01 X5.7700 Y13.0959
G01 X5.7700 Y14.1959
G01 X5.7696 Y14.2051
G01 X5.7677 Y14.2165
G01 X5.7660 Y14.2232
G01 X5.7637 Y14.2298
G01 X5.7610 Y14.2361
G01 X5.7578 Y14.2423
G01 X5.7515 Y14.2519
G01 X5.7441 Y14.2607
G01 X5.7391 Y14.2656
G01 X5.7338 Y14.2700
G01 X5.7282 Y14.2741
G01 X5.7223 Y14.2777
G01 X5.7162 Y14.2809
G01 X5.7098 Y14.2836
G01 X5.7011 Y14.2865
G01 X5.6943 Y14.2881
G01 X5.6875 Y14.2892
G01 X5.6806 Y14.2898
G01 X5.5453 Y14.2899
G01 X5.5453 Y15.8090
G01 X5.5422 Y15.8749
G01 X5.5412 Y15.8840
G01 X5.5315 Y15.9493
G01 X5.5149 Y16.0155
G01 X5.4914 Y16.0821
G01 X5.4752 Y16.1169
G01 X5.4751 Y16.1336
G01 X5.4715 Y16.2018
G01 X5.4614 Y16.2693
G01 X5.4498 Y16.3157
G01 X5.4498 Y17.0290
G01 X5.4491 Y17.0406
G01 X5.4480 Y17.0474
G01 X5.4464 Y17.0541
G01 X5.4443 Y17.0607
G01 X5.4418 Y17.0671
G01 X5.4365 Y17.0774
G01 X5.4327 Y17.0832
G01 X5.4285 Y17.0887
G01 X5.4239 Y17.0939
G01 X5.4190 Y17.0987
G01 X5.4137 Y17.1032
G01 X5.4081 Y17.1072
G01 X5.3981 Y17.1130
G01 X5.3918 Y17.1159
G01 X5.3853 Y17.1183
G01 X5.3787 Y17.1202
G01 X5.3696 Y17.1220
G01 X5.3628 Y17.1228
G01 X5.3558 Y17.1230
G01 X4.1513 Y17.1229
G01 X4.1444 Y17.1223
G01 X4.1376 Y17.1212
G01 X4.1309 Y17.1196
G01 X4.1243 Y17.1176
G01 X4.1179 Y17.1150
G01 X4.1116 Y17.1119
G01 X4.1057 Y17.1085
G01 X4.1000 Y17.1045
G01 X4.0946 Y17.1002
G01 X4.0895 Y17.0955
G01 X4.0848 Y17.0904
G01 X4.0804 Y17.0850
G01 X4.0765 Y17.0793
G01 X4.0720 Y17.0713
G01 X4.0691 Y17.0650
G01 X4.0667 Y17.0585
G01 X4.0642 Y17.0496
G01 X4.0630 Y17.0428
G01 X4.0622 Y17.0360
G01 X4.0620 Y17.0290
G01 X4.0620 Y16.3157
G01 X4.0500 Y16.2671
G01 X4.0406 Y16.2041
G01 X4.0397 Y16.1949
G01 X4.0366 Y16.1290
G01 X4.0366 Y15.8768
G01 X4.0397 Y15.8132
G01 X4.0406 Y15.8040
G01 X4.0504 Y15.7387
G01 X4.0620 Y15.6923
G01 X4.0620 Y15.2290
G01 X4.0624 Y15.2197
G01 X4.0642 Y15.2084
G01 X4.0674 Y15.1973
G01 X4.0710 Y15.1888
G01 X4.0765 Y15.1787
G01 X4.0818 Y15.1711
G01 X4.0895 Y15.1625
G01 X4.0981 Y15.1549
G01 X4.1067 Y15.1489
G01 X4.1067 Y14.2899
G01 X3.9714 Y14.2898
G01 X3.9622 Y14.2889
G01 X3.9554 Y14.2876
G01 X3.9465 Y14.2852
G01 X3.9400 Y14.2828
G01 X3.9337 Y14.2799
G01 X3.9277 Y14.2766
G01 X3.9219 Y14.2728
G01 X3.9164 Y14.2686
G01 X3.9112 Y14.2640
G01 X3.9063 Y14.2591
G01 X3.9019 Y14.2538
G01 X3.8978 Y14.2482
G01 X3.8942 Y14.2423
G01 X3.8910 Y14.2361
G01 X3.8883 Y14.2298
G01 X3.8860 Y14.2232
G01 X3.8834 Y14.2120
G01 X3.8824 Y14.2051
G01 X3.8820 Y14.1982
G01 X3.8820 Y13.0959
G01 X3.8822 Y13.0889
G01 X3.8834 Y13.0798
G01 X3.8854 Y13.0708
G01 X3.8883 Y13.0620
G01 X3.8920 Y13.0536
G01 X3.8966 Y13.0456
G01 X3.9005 Y13.0399
G01 X3.9063 Y13.0327
G01 X3.9129 Y13.0262
G01 X3.9200 Y13.0204
G01 X3.9277 Y13.0152
G01 X3.9358 Y13.0109
G01 X3.9422 Y13.0082
G01 X3.9509 Y13.0053
G01 X3.9577 Y13.0037
G01 X3.9668 Y13.0023
G01 X3.9760 Y13.0019
G00 Z2.0000
G00 X4.0438 Y15.6882
G01 F80.00
G01 Z-0.0350
G01 F80.00
G01 X4.0466 Y15.6797
G01 X4.0486 Y15.6707
G01 X4.0498 Y15.6615
G01 X4.0500 Y15.6545
G01 X4.0500 Y15.1043
G01 X4.0587 Y15.0970
G01 X4.0666 Y15.0886
G01 X4.0733 Y15.0792
G01 X4.0779 Y15.0712
G01 X4.0816 Y15.0628
G01 X4.0851 Y15.0518
G01 X4.0869 Y15.0427
G01 X4.0879 Y15.0312
G01 X4.0879 Y14.3960
G01 X4.0876 Y14.3890
G01 X4.0869 Y14.3822
G01 X4.0856 Y14.3754
G01 X4.0824 Y14.3643
G01 X4.0798 Y14.3579
G01 X4.0768 Y14.3516
G01 X4.0733 Y14.3457
G01 X4.0694 Y14.3400
G01 X4.0651 Y14.3346
G01 X4.0604 Y14.3295
G01 X4.0517 Y14.3219
G01 X4.0422 Y14.3153
G01 X4.0362 Y14.3120
G01 X4.0299 Y14.3091
G01 X4.0234 Y14.3067
G01 X4.0145 Y14.3042
G01 X4.0054 Y14.3027
G01 X3.9985 Y14.3021
G01 X3.8700 Y14.3020
G01 X3.8700 Y12.9901
G01 X4.4808 Y12.9901
G01 X4.4877 Y12.9898
G01 X4.4946 Y12.9891
G01 X4.5014 Y12.9878
G01 X4.5081 Y12.9860
G01 X4.5147 Y12.9838
G01 X4.6352 Y12.9338
G01 X4.8260 Y12.9086
G01 X5.0168 Y12.9338
G01 X5.1373 Y12.9838
G01 X5.1439 Y12.9860
G01 X5.1506 Y12.9878
G01 X5.1574 Y12.9891
G01 X5.1643 Y12.9898
G01 X5.1712 Y12.9901
G01 X5.7820 Y12.9901
G01 X5.7820 Y14.3020
G01 X5.6535 Y14.3021
G01 X5.6443 Y14.3030
G01 X5.6375 Y14.3042
G01 X5.6286 Y14.3067
G01 X5.6221 Y14.3091
G01 X5.6118 Y14.3142
G01 X5.6059 Y14.3178
G01 X5.6003 Y14.3219
G01 X5.5950 Y14.3263
G01 X5.5900 Y14.3311
G01 X5.5826 Y14.3400
G01 X5.5763 Y14.3496
G01 X5.5731 Y14.3558
G01 X5.5704 Y14.3621
G01 X5.5682 Y14.3687
G01 X5.5664 Y14.3754
G01 X5.5651 Y14.3822
G01 X5.5644 Y14.3890
G01 X5.5641 Y14.3960
G01 X5.5641 Y15.8028
G01 X5.5381 Y15.9999
G01 X5.5005 Y16.0913
G01 X5.4983 Y16.0978
G01 X5.4960 Y16.1067
G01 X5.4950 Y16.1135
G01 X5.4943 Y16.1226
G01 X5.4682 Y16.3199
G01 X5.4643 Y16.3328
G01 X5.4630 Y16.3397
G01 X5.4623 Y16.3466
G01 X5.4620 Y16.3535
G01 X5.4620 Y17.1351
G01 X4.0500 Y17.1351
G01 X4.0500 Y16.3512
G01 X4.0493 Y16.3420
G01 X4.0482 Y16.3351
G01 X4.0466 Y16.3283
G01 X4.0438 Y16.3199
G01 X4.0178 Y16.1228
G01 X4.0178 Y15.8852
G01 X4.0438 Y15.6882
G00 Z2.0000
G00 X3.0620 Y17.1537
G01 F80.00
G01 Z-0.0350
G01 F80.00
G01 X3.0620 Y16.3512
G01 X3.0627 Y16.3420
G01 X3.0638 Y16.3351
G01 X3.0654 Y16.3283
G01 X3.0682 Y16.3199
G01 X3.0942 Y16.1228
G01 X3.0942 Y10.6886
G01 X3.0945 Y10.6817
G01 X3.0952 Y10.6748
G01 X3.0965 Y10.6680
G01 X3.0983 Y10.6613
G01 X3.1005 Y10.6547
G01 X3.1042 Y10.6463
G01 X3.1076 Y10.6402
G01 X3.1114 Y10.6344
G01 X3.1170 Y10.6272
G01 X3.1217 Y10.6221
G01 X4.9460 Y8.7979
G01 X4.9564 Y8.7846
G01 X5.0255 Y8.7085
G01 X5.1016 Y8.6394
G01 X5.1149 Y8.6290
G01 X5.8662 Y7.8776
G01 X5.8713 Y7.8729
G01 X5.8786 Y7.8673
G01 X5.8863 Y7.8623
G01 X5.8946 Y7.8582
G01 X5.9010 Y7.8556
G01 X5.9076 Y7.8535
G01 X5.9143 Y7.8519
G01 X5.9212 Y7.8508
G01 X5.9304 Y7.8501
G01 X5.9628 Y7.8501
G01 X6.1598 Y7.8241
G01 X6.3377 Y7.7505
G01 X6.4887 Y7.6347
G01 X6.4985 Y7.6288
G01 X6.5088 Y7.6241
G01 X6.5197 Y7.6207
G01 X6.5309 Y7.6186
G01 X6.5423 Y7.6180
G01 X7.5712 Y7.6180
G01 X7.5804 Y7.6187
G01 X7.5918 Y7.6208
G01 X7.6006 Y7.6234
G01 X7.6112 Y7.6280
G01 X7.6192 Y7.6325
G01 X7.6268 Y7.6378
G01 X7.6354 Y7.6455
G01 X7.6416 Y7.6523
G01 X7.6458 Y7.6578
G01 X7.6507 Y7.6656
G01 X7.6549 Y7.6739
G01 X7.6574 Y7.6803
G01 X7.6601 Y7.6891
G01 X7.6616 Y7.6959
G01 X7.6627 Y7.7050
G01 X7.6629 Y7.7119
G01 X7.6627 Y7.7189
G01 X7.6616 Y7.7280
G01 X7.6601 Y7.7348
G01 X7.6574 Y7.7436
G01 X7.6539 Y7.7521
G01 X7.6507 Y7.7583
G01 X7.6458 Y7.7661
G01 X7.6401 Y7.7733
G01 X7.6354 Y7.7784
G01 X6.6359 Y8.7782
G01 X6.6447 Y8.7881
G01 X6.6499 Y8.7948
G01 X7.7110 Y7.7337
G01 X7.7380 Y7.7093
G01 X7.7691 Y7.6863
G01 X7.8023 Y7.6664
G01 X7.8330 Y7.6517
G01 X7.8415 Y7.6482
G01 X7.8736 Y7.6368
G01 X7.9112 Y7.6274
G01 X7.9494 Y7.6217
G01 X7.9880 Y7.6198
G01 X9.7780 Y7.6200
G01 X9.7849 Y7.6202
G01 X9.7918 Y7.6210
G01 X9.7986 Y7.6223
G01 X9.8053 Y7.6240
G01 X9.8140 Y7.6271
G01 X9.8202 Y7.6300
G01 X9.8263 Y7.6334
G01 X9.8321 Y7.6371
G01 X9.8394 Y7.6428
G01 X9.8476 Y7.6509
G01 X9.8535 Y7.6580
G01 X9.8598 Y7.6677
G01 X9.8648 Y7.6780
G01 X9.8679 Y7.6867
G01 X9.8706 Y7.6979
G01 X9.8719 Y7.7094
G01 X9.8720 Y8.3162
G01 X9.8715 Y8.3231
G01 X9.8706 Y8.3300
G01 X9.8692 Y8.3368
G01 X9.8672 Y8.3434
G01 X9.8630 Y8.3541
G01 X9.8598 Y8.3603
G01 X9.8561 Y8.3661
G01 X9.8521 Y8.3718
G01 X9.8476 Y8.3771
G01 X9.8394 Y8.3851
G01 X9.8340 Y8.3894
G01 X9.8283 Y8.3933
G01 X9.8182 Y8.3989
G01 X9.8075 Y8.4032
G01 X9.7986 Y8.4056
G01 X9.7895 Y8.4072
G01 X9.7780 Y8.4079
G01 X8.1513 Y8.4081
G01 X8.1394 Y8.4199
G01 X9.7780 Y8.4201
G01 X9.7872 Y8.4205
G01 X9.7986 Y8.4224
G01 X9.8075 Y8.4248
G01 X9.8161 Y8.4281
G01 X9.8223 Y8.4312
G01 X9.8283 Y8.4347
G01 X9.8340 Y8.4386
G01 X9.8394 Y8.4429
G01 X9.8444 Y8.4476
G01 X9.8492 Y8.4527
G01 X9.8561 Y8.4619
G01 X9.8598 Y8.4678
G01 X9.8630 Y8.4739
G01 X9.8657 Y8.4803
G01 X9.8679 Y8.4868
G01 X9.8706 Y8.4980
G01 X9.8715 Y8.5049
G01 X9.8720 Y8.5118
G01 X9.8719 Y9.1186
G01 X9.8710 Y9.1278
G01 X9.8686 Y9.1391
G01 X9.8648 Y9.1500
G01 X9.8598 Y9.1604
G01 X9.8548 Y9.1682
G01 X9.8476 Y9.1772
G01 X9.8394 Y9.1852
G01 X9.8302 Y9.1922
G01 X9.8243 Y9.1958
G01 X9.8182 Y9.1990
G01 X9.8118 Y9.2017
G01 X9.8053 Y9.2040
G01 X9.7986 Y9.2057
G01 X9.7918 Y9.2070
G01 X9.7849 Y9.2078
G01 X9.7780 Y9.2080
G01 X7.3512 Y9.2082
G01 X7.2238 Y9.3356
G01 X7.9082 Y10.0199
G01 X9.7780 Y10.0200
G01 X9.7849 Y10.0203
G01 X9.7918 Y10.0210
G01 X9.8031 Y10.0234
G01 X9.8140 Y10.0272
G01 X9.8243 Y10.0322
G01 X9.8340 Y10.0385
G01 X9.8428 Y10.0459
G01 X9.8476 Y10.0509
G01 X9.8521 Y10.0562
G01 X9.8586 Y10.0657
G01 X9.8639 Y10.0759
G01 X9.8679 Y10.0867
G01 X9.8706 Y10.0980
G01 X9.8715 Y10.1048
G01 X9.8720 Y10.1117
G01 X9.8719 Y10.7186
G01 X9.8710 Y10.7278
G01 X9.8686 Y10.7390
G01 X9.8657 Y10.7478
G01 X9.8609 Y10.7583
G01 X9.8548 Y10.7681
G01 X9.8492 Y10.7754
G01 X9.8428 Y10.7821
G01 X9.8358 Y10.7881
G01 X9.8283 Y10.7934
G01 X9.8223 Y10.7969
G01 X9.8140 Y10.8008
G01 X9.8075 Y10.8032
G01 X9.8008 Y10.8052
G01 X9.7941 Y10.8066
G01 X9.7849 Y10.8077
G01 X9.7780 Y10.8080
G01 X7.7450 Y10.8081
G01 X7.7110 Y10.8066
G01 X7.7018 Y10.8057
G01 X7.6681 Y10.8005
G01 X7.6351 Y10.7924
G01 X7.6262 Y10.7897
G01 X7.5942 Y10.7781
G01 X7.5592 Y10.7616
G01 X7.5260 Y10.7417
G01 X7.4986 Y10.7215
G01 X7.4914 Y10.7156
G01 X7.4663 Y10.6927
G01 X6.7663 Y9.9929
G01 X6.7628 Y9.9998
G01 X6.7552 Y10.0124
G01 X7.4442 Y10.7014
G01 X7.5865 Y10.7965
G01 X7.7542 Y10.8298
G01 X8.5740 Y10.8298
G01 X8.5855 Y10.8305
G01 X8.5924 Y10.8316
G01 X8.5991 Y10.8332
G01 X8.6100 Y10.8369
G01 X8.6163 Y10.8398
G01 X8.6223 Y10.8432
G01 X8.6281 Y10.8469
G01 X8.6337 Y10.8511
G01 X8.6405 Y10.8573
G01 X8.6467 Y10.8641
G01 X8.6522 Y10.8716
G01 X8.6563 Y10.8784
G01 X8.6681 Y10.8830
G01 X8.6782 Y10.8886
G01 X8.6875 Y10.8953
G01 X8.6959 Y10.9032
G01 X8.7020 Y10.9101
G01 X8.7073 Y10.9177
G01 X8.7118 Y10.9257
G01 X8.7164 Y10.9363
G01 X8.7191 Y10.9451
G01 X8.7205 Y10.9519
G01 X8.7214 Y10.9588
G01 X8.7219 Y10.9680
G01 X8.7219 Y11.6119
G01 X8.7209 Y11.6253
G01 X8.7153 Y11.6549
G01 X8.7152 Y12.3104
G01 X8.7146 Y12.3196
G01 X8.7124 Y12.3309
G01 X8.7090 Y12.3419
G01 X8.7042 Y12.3524
G01 X8.6981 Y12.3622
G01 X8.6924 Y12.3695
G01 X8.6844 Y12.3777
G01 X8.6759 Y12.3846
G01 X8.6758 Y13.5686
G01 X8.6749 Y13.5777
G01 X8.6737 Y13.5844
G01 X8.6720 Y13.5909
G01 X8.6690 Y13.5995
G01 X8.6652 Y13.6077
G01 X8.6618 Y13.6136
G01 X8.6526 Y13.6263
G01 X8.5917 Y13.7738
G01 X8.5700 Y13.9381
G01 X8.5700 Y15.1635
G01 X8.5693 Y15.1751
G01 X8.5677 Y15.1841
G01 X8.5645 Y15.1952
G01 X8.5599 Y15.2058
G01 X8.5566 Y15.2119
G01 X8.5515 Y15.2195
G01 X8.5472 Y15.2249
G01 X8.5424 Y15.2300
G01 X3.3817 Y20.3910
G01 X3.2807 Y20.5224
G01 X3.2437 Y20.6118
G01 X3.2406 Y20.6180
G01 X3.2372 Y20.6240
G01 X3.2304 Y20.6333
G01 X3.2226 Y20.6418
G01 X3.2156 Y20.6478
G01 X3.2081 Y20.6531
G01 X3.2001 Y20.6576
G01 X3.1917 Y20.6614
G01 X3.1807 Y20.6649
G01 X3.1694 Y20.6670
G01 X3.1602 Y20.6677
G01 X3.1510 Y20.6675
G01 X3.1419 Y20.6664
G01 X3.1329 Y20.6644
G01 X3.1241 Y20.6615
G01 X3.1157 Y20.6578
G01 X3.1077 Y20.6533
G01 X3.1001 Y20.6480
G01 X3.0931 Y20.6420
G01 X3.0502 Y20.5994
G01 X3.0456 Y20.5942
G01 X3.0401 Y20.5868
G01 X3.0364 Y20.5809
G01 X3.0332 Y20.5747
G01 X3.0305 Y20.5683
G01 X3.0282 Y20.5618
G01 X3.0264 Y20.5551
G01 X3.0251 Y20.5482
G01 X3.0241 Y20.5367
G01 X3.0241 Y17.2291
G01 X3.0246 Y17.2199
G01 X3.0264 Y17.2085
G01 X3.0296 Y17.1974
G01 X3.0341 Y17.1868
G01 X3.0399 Y17.1769
G01 X3.0454 Y17.1694
G01 X3.0533 Y17.1610
G01 X3.0620 Y17.1537
G00 Z2.0000
G00 X1.5667 Y20.8791
G01 F80.00
G01 Z-0.0350
G01 F80.00
G01 X1.5668 Y16.1267
G01 X1.5702 Y16.0585
G01 X1.5810 Y15.9864
G01 X1.5984 Y15.9180
G01 X1.6206 Y15.8559
G01 X1.6368 Y15.8210
G01 X1.6369 Y10.3416
G01 X1.6400 Y10.2780
G01 X1.6409 Y10.2688
G01 X1.6506 Y10.2036
G01 X1.6666 Y10.1395
G01 X1.6692 Y10.1307
G01 X1.6916 Y10.0686
G01 X1.7197 Y10.0090
G01 X1.7240 Y10.0008
G01 X1.7580 Y9.9443
G01 X1.7973 Y9.8912
G01 X1.8031 Y9.8841
G01 X1.8475 Y9.8353
G01 X5.0794 Y6.6034
G01 X5.1317 Y6.5560
G01 X5.1884 Y6.5139
G01 X5.2489 Y6.4777
G01 X5.3149 Y6.4466
G01 X5.3792 Y6.4237
G01 X5.4432 Y6.4076
G01 X5.4522 Y6.4058
G01 X5.5129 Y6.3968
G01 X5.5221 Y6.3958
G01 X5.5880 Y6.3927
G01 X5.9713 Y6.3928
G01 X6.0395 Y6.3962
G01 X6.1071 Y6.4061
G01 X6.1778 Y6.4237
G01 X6.2443 Y6.4475
G01 X6.3081 Y6.4777
G01 X6.3647 Y6.5115
G01 X6.3724 Y6.5166
G01 X6.4253 Y6.5560
G01 X6.4743 Y6.6002
G01 X6.4808 Y6.6067
G01 X6.5220 Y6.6522
G01 X6.5264 Y6.6575
G01 X6.5341 Y6.6678
G01 X6.5571 Y6.6678
G01 X6.5632 Y6.6578
G01 X6.5704 Y6.6488
G01 X6.5787 Y6.6408
G01 X6.5841 Y6.6365
G01 X6.5898 Y6.6325
G01 X6.5958 Y6.6291
G01 X6.6020 Y6.6260
G01 X6.6128 Y6.6220
G01 X6.6240 Y6.6193
G01 X6.6309 Y6.6184
G01 X6.6378 Y6.6180
G01 X8.0447 Y6.6181
G01 X8.0562 Y6.6193
G01 X8.0674 Y6.6220
G01 X8.0782 Y6.6260
G01 X8.0844 Y6.6291
G01 X8.0904 Y6.6325
G01 X8.0997 Y6.6393
G01 X8.1049 Y6.6439
G01 X8.1098 Y6.6488
G01 X8.1170 Y6.6578
G01 X8.1231 Y6.6678
G01 X8.7132 Y6.6678
G01 X8.7545 Y6.6700
G01 X8.7976 Y6.6764
G01 X8.8399 Y6.6869
G01 X8.8766 Y6.7000
G01 X8.8851 Y6.7035
G01 X8.9223 Y6.7214
G01 X8.9577 Y6.7427
G01 X8.9909 Y6.7672
G01 X9.0234 Y6.7963
G01 X9.0472 Y6.8201
G01 X9.7803 Y6.8202
G01 X9.7872 Y6.8206
G01 X9.7941 Y6.8215
G01 X9.8053 Y6.8242
G01 X9.8161 Y6.8282
G01 X9.8263 Y6.8335
G01 X9.8358 Y6.8400
G01 X9.8444 Y6.8477
G01 X9.8521 Y6.8563
G01 X9.8586 Y6.8658
G01 X9.8639 Y6.8760
G01 X9.8672 Y6.8847
G01 X9.8702 Y6.8958
G01 X9.8717 Y6.9072
G01 X9.8720 Y6.9141
G01 X9.8720 Y7.5164
G01 X9.8715 Y7.5233
G01 X9.8702 Y7.5324
G01 X9.8686 Y7.5392
G01 X9.8665 Y7.5457
G01 X9.8639 Y7.5522
G01 X9.8609 Y7.5584
G01 X9.8574 Y7.5644
G01 X9.8521 Y7.5719
G01 X9.8461 Y7.5789
G01 X9.8411 Y7.5837
G01 X9.8358 Y7.5882
G01 X9.8283 Y7.5935
G01 X9.8223 Y7.5970
G01 X9.8140 Y7.6009
G01 X9.8075 Y7.6033
G01 X9.8008 Y7.6053
G01 X9.7895 Y7.6074
G01 X9.7780 Y7.6081
G01 X8.8280 Y7.6081
G01 X8.8188 Y7.6076
G01 X8.8081 Y7.6059
G01 X8.7607 Y7.6082
G01 X8.7241 Y7.6065
G01 X8.7149 Y7.6056
G01 X8.6763 Y7.5997
G01 X8.6385 Y7.5904
G01 X8.6297 Y7.5877
G01 X8.5930 Y7.5744
G01 X8.5543 Y7.5562
G01 X8.1231 Y7.5562
G01 X8.1170 Y7.5662
G01 X8.1098 Y7.5752
G01 X8.1015 Y7.5832
G01 X8.0961 Y7.5875
G01 X8.0904 Y7.5915
G01 X8.0803 Y7.5970
G01 X8.0739 Y7.5997
G01 X8.0674 Y7.6020
G01 X8.0607 Y7.6038
G01 X8.0539 Y7.6050
G01 X8.0424 Y7.6060
G01 X6.6378 Y7.6060
G01 X6.6309 Y7.6056
G01 X6.6240 Y7.6047
G01 X6.6128 Y7.6020
G01 X6.6020 Y7.5980
G01 X6.5958 Y7.5949
G01 X6.5898 Y7.5915
G01 X6.5804 Y7.5847
G01 X6.5753 Y7.5801
G01 X6.5704 Y7.5752
G01 X6.5632 Y7.5662
G01 X6.5571 Y7.5562
G01 X6.5341 Y7.5562
G01 X6.5235 Y7.5701
G01 X6.4776 Y7.6206
G01 X6.4288 Y7.6650
G01 X6.4217 Y7.6708
G01 X6.3686 Y7.7101
G01 X6.3121 Y7.7441
G01 X6.3039 Y7.7484
G01 X6.2443 Y7.7765
G01 X6.1778 Y7.8003
G01 X6.1138 Y7.8164
G01 X6.1048 Y7.8182
G01 X6.0441 Y7.8272
G01 X6.0349 Y7.8282
G01 X5.9713 Y7.8312
G01 X5.8859 Y7.8313
G01 X3.0754 Y10.6418
G01 X3.0754 Y16.1290
G01 X3.0717 Y16.2018
G01 X3.0616 Y16.2693
G01 X3.0500 Y16.3157
G01 X3.0500 Y17.0290
G01 X3.0498 Y17.0360
G01 X3.0482 Y17.0474
G01 X3.0453 Y17.0585
G01 X3.0410 Y17.0692
G01 X3.0367 Y17.0774
G01 X3.0302 Y17.0869
G01 X3.0225 Y17.0955
G01 X3.0139 Y17.1031
G01 X3.0053 Y17.1091
G01 X3.0053 Y20.5811
G01 X3.2174 Y20.7932
G01 X3.2189 Y20.7675
G01 X3.2276 Y20.7098
G01 X3.2413 Y20.6555
G01 X3.2619 Y20.5985
G01 X3.2859 Y20.5479
G01 X3.3159 Y20.4979
G01 X3.3506 Y20.4510
G01 X3.3882 Y20.4095
G01 X8.5879 Y15.2098
G01 X8.5879 Y13.9319
G01 X8.5904 Y13.8783
G01 X8.5913 Y13.8691
G01 X8.5993 Y13.8160
G01 X8.6122 Y13.7638
G01 X8.6149 Y13.7550
G01 X8.6331 Y13.7045
G01 X8.6559 Y13.6559
G01 X8.6603 Y13.6478
G01 X8.6881 Y13.6017
G01 X8.6882 Y12.5034
G01 X8.6894 Y12.4919
G01 X8.6909 Y12.4851
G01 X8.6928 Y12.4785
G01 X8.6971 Y12.4678
G01 X8.7026 Y12.4577
G01 X8.7065 Y12.4520
G01 X8.7109 Y12.4466
G01 X8.7189 Y12.4383
G01 X8.7279 Y12.4311
G01 X8.7379 Y12.4250
G01 X8.7379 Y11.6459
G01 X8.7401 Y11.6024
G01 X8.7462 Y11.5604
G01 X8.7412 Y11.5500
G01 X8.7374 Y11.5391
G01 X8.7350 Y11.5279
G01 X8.7341 Y11.5164
G01 X8.7340 Y10.9141
G01 X8.7343 Y10.9072
G01 X8.7350 Y10.9003
G01 X8.7374 Y10.8891
G01 X8.7395 Y10.8825
G01 X8.7431 Y10.8739
G01 X8.7462 Y10.8678
G01 X8.7499 Y10.8619
G01 X8.7539 Y10.8563
G01 X8.7584 Y10.8510
G01 X8.7632 Y10.8460
G01 X8.7702 Y10.8400
G01 X8.7758 Y10.8360
G01 X8.7817 Y10.8323
G01 X8.7878 Y10.8292
G01 X8.7942 Y10.8264
G01 X8.8030 Y10.8235
G01 X8.8097 Y10.8219
G01 X8.8165 Y10.8208
G01 X8.8234 Y10.8202
G01 X9.7803 Y10.8202
G01 X9.7872 Y10.8206
G01 X9.7941 Y10.8215
G01 X9.8008 Y10.8229
G01 X9.8075 Y10.8249
G01 X9.8140 Y10.8273
G01 X9.8202 Y10.8302
G01 X9.8263 Y10.8335
G01 X9.8321 Y10.8373
G01 X9.8411 Y10.8445
G01 X9.8476 Y10.8510
G01 X9.8535 Y10.8581
G01 X9.8598 Y10.8678
G01 X9.8648 Y10.8782
G01 X9.8686 Y10.8891
G01 X9.8710 Y10.9003
G01 X9.8719 Y10.9095
G01 X9.8720 Y11.5141
G01 X9.8713 Y11.5256
G01 X9.8702 Y11.5324
G01 X9.8686 Y11.5391
G01 X9.8648 Y11.5500
G01 X9.8598 Y11.5604
G01 X9.8535 Y11.5701
G01 X9.8492 Y11.5755
G01 X9.8444 Y11.5805
G01 X9.8358 Y11.5882
G01 X9.8263 Y11.5947
G01 X9.8161 Y11.6000
G01 X9.8097 Y11.6026
G01 X9.8031 Y11.6047
G01 X9.7918 Y11.6071
G01 X9.7803 Y11.6080
G01 X9.6245 Y11.6081
G01 X9.6263 Y11.6459
G01 X9.6263 Y12.4250
G01 X9.6363 Y12.4311
G01 X9.6453 Y12.4383
G01 X9.6533 Y12.4466
G01 X9.6576 Y12.4520
G01 X9.6616 Y12.4577
G01 X9.6671 Y12.4678
G01 X9.6698 Y12.4741
G01 X9.6721 Y12.4807
G01 X9.6739 Y12.4874
G01 X9.6751 Y12.4942
G01 X9.6761 Y12.5057
G01 X9.6761 Y13.6017
G01 X9.7039 Y13.6478
G01 X9.7083 Y13.6559
G01 X9.7311 Y13.7045
G01 X9.7508 Y13.7594
G01 X9.7639 Y13.8115
G01 X9.7657 Y13.8205
G01 X9.7735 Y13.8737
G01 X9.7763 Y13.9296
G01 X9.7762 Y15.4605
G01 X9.7738 Y15.5095
G01 X9.7729 Y15.5187
G01 X9.7649 Y15.5718
G01 X9.7520 Y15.6240
G01 X9.7493 Y15.6328
G01 X9.7311 Y15.6833
G01 X9.7062 Y15.7360
G01 X9.6762 Y15.7860
G01 X9.6443 Y15.8292
G01 X9.6384 Y15.8364
G01 X9.6023 Y15.8761
G01 X4.2542 Y21.2242
G01 X4.2542 Y21.6072
G01 X4.3257 Y21.6412
G01 X4.4139 Y21.6939
G01 X4.4216 Y21.6990
G01 X4.5040 Y21.7603
G01 X4.5802 Y21.8292
G01 X4.5868 Y21.8358
G01 X4.6557 Y21.9120
G01 X4.7196 Y21.9982
G01 X4.7725 Y22.0863
G01 X4.7769 Y22.0944
G01 X4.8207 Y22.1873
G01 X4.8569 Y22.2884
G01 X4.8820 Y22.3881
G01 X4.8838 Y22.3971
G01 X4.8987 Y22.4988
G01 X4.9039 Y22.6014
G01 X4.9039 Y22.6106
G01 X4.8987 Y22.7132
G01 X4.8830 Y22.8194
G01 X4.8569 Y22.9236
G01 X4.8198 Y23.0268
G01 X4.7748 Y23.1217
G01 X4.7183 Y23.2157
G01 X4.6585 Y23.2964
G01 X4.6527 Y23.3035
G01 X4.5836 Y23.3796
G01 X4.5293 Y23.4289
G01 X4.5293 Y27.8308
G01 X4.8402 Y28.1417
G01 X6.3274 Y28.1418
G01 X6.3910 Y28.1449
G01 X6.4002 Y28.1458
G01 X6.4654 Y28.1555
G01 X6.5101 Y28.1666
G01 X11.4300 Y28.1666
G01 X11.5028 Y28.1703
G01 X11.5703 Y28.1804
G01 X11.6167 Y28.1920
G01 X12.3300 Y28.1920
G01 X12.3393 Y28.1924
G01 X12.3506 Y28.1942
G01 X12.3573 Y28.1960
G01 X12.3639 Y28.1982
G01 X12.3723 Y28.2020
G01 X12.3784 Y28.2053
G01 X12.3842 Y28.2091
G01 X12.3914 Y28.2148
G01 X12.3965 Y28.2195
G01 X12.4027 Y28.2263
G01 X12.4069 Y28.2318
G01 X12.4107 Y28.2376
G01 X12.4150 Y28.2458
G01 X12.4177 Y28.2521
G01 X12.4200 Y28.2587
G01 X12.4222 Y28.2676
G01 X12.4233 Y28.2744
G01 X12.4239 Y28.2813
G01 X12.4240 Y29.4881
G01 X12.4236 Y29.4951
G01 X12.4222 Y29.5042
G01 X12.4206 Y29.5109
G01 X12.4186 Y29.5175
G01 X12.4160 Y29.5239
G01 X12.4129 Y29.5302
G01 X12.4095 Y29.5361
G01 X12.4042 Y29.5437
G01 X12.3965 Y29.5523
G01 X12.3897 Y29.5585
G01 X12.3823 Y29.5640
G01 X12.3744 Y29.5687
G01 X12.3660 Y29.5727
G01 X12.3573 Y29.5758
G01 X12.3461 Y29.5785
G01 X12.3370 Y29.5796
G01 X12.3300 Y29.5798
G01 X11.6167 Y29.5798
G01 X11.5703 Y29.5914
G01 X11.5028 Y29.6015
G01 X11.4300 Y29.6052
G01 X6.3500 Y29.6052
G01 X6.2772 Y29.6015
G01 X6.2097 Y29.5914
G01 X6.1650 Y29.5803
G01 X4.5400 Y29.5803
G01 X4.4718 Y29.5768
G01 X4.4065 Y29.5672
G01 X4.3975 Y29.5654
G01 X4.3379 Y29.5505
G01 X4.3291 Y29.5479
G01 X4.2670 Y29.5255
G01 X4.2032 Y29.4953
G01 X4.1427 Y29.4591
G01 X4.0878 Y29.4185
G01 X4.0337 Y29.3696
G01 X3.3014 Y28.6373
G01 X3.2555 Y28.5868
G01 X3.2146 Y28.5321
G01 X3.2095 Y28.5244
G01 X3.1757 Y28.4678
G01 X3.1473 Y28.4082
G01 X3.1438 Y28.3997
G01 X3.1217 Y28.3375
G01 X3.1041 Y28.2668
G01 X3.0942 Y28.1992
G01 X3.0907 Y28.1287
G01 X3.0907 Y23.4289
G01 X3.0364 Y23.3796
G01 X2.9658 Y23.3018
G01 X2.9030 Y23.2176
G01 X2.8991 Y23.2119
G01 X2.8475 Y23.1257
G01 X2.8431 Y23.1176
G01 X2.7993 Y23.0247
G01 X2.7638 Y22.9258
G01 X2.7380 Y22.8239
G01 X2.7362 Y22.8149
G01 X2.7213 Y22.7132
G01 X2.7160 Y22.6083
G01 X2.7161 Y22.6014
G01 X2.7215 Y22.4965
G01 X2.7366 Y22.3948
G01 X2.7460 Y22.3563
G01 X1.7774 Y21.3877
G01 X1.7285 Y21.3336
G01 X1.6879 Y21.2787
G01 X1.6517 Y21.2181
G01 X1.6215 Y21.1543
G01 X1.5991 Y21.0922
G01 X1.5965 Y21.0834
G01 X1.5816 Y21.0239
G01 X1.5798 Y21.0148
G01 X1.5702 Y20.9496
G01 X1.5667 Y20.8791
G00 Z2.0000
G00 X5.4500 Y25.7922
G01 F80.00
G01 Z-0.0350
G01 F80.00
G01 X5.6307 Y25.7922
G01 X5.6307 Y23.4289
G01 X5.5764 Y23.3796
G01 X5.5043 Y23.3000
G01 X5.4404 Y23.2138
G01 X5.3863 Y23.1237
G01 X5.3393 Y23.0247
G01 X5.3046 Y22.9280
G01 X5.3019 Y22.9191
G01 X5.2766 Y22.8172
G01 X5.2613 Y22.7132
G01 X5.2560 Y22.6060
G01 X5.2613 Y22.4988
G01 X5.2762 Y22.3971
G01 X5.2780 Y22.3881
G01 X5.3019 Y22.2929
G01 X5.3046 Y22.2840
G01 X5.3393 Y22.1873
G01 X5.3863 Y22.0883
G01 X5.4404 Y21.9982
G01 X5.5015 Y21.9156
G01 X5.5073 Y21.9085
G01 X5.5732 Y21.8358
G01 X5.5798 Y21.8292
G01 X5.6560 Y21.7603
G01 X5.7422 Y21.6964
G01 X5.8343 Y21.6412
G01 X5.9271 Y21.5971
G01 X5.9357 Y21.5936
G01 X6.0280 Y21.5606
G01 X6.0369 Y21.5579
G01 X6.1366 Y21.5330
G01 X6.2428 Y21.5173
G01 X6.3500 Y21.5120
G01 X6.4526 Y21.5169
G01 X6.4618 Y21.5178
G01 X6.5589 Y21.5322
G01 X6.5657 Y21.5335
G01 X6.5788 Y21.5368
G01 X9.5586 Y18.5570
G01 X9.5586 Y16.7480
G01 X9.5618 Y16.6875
G01 X9.5693 Y16.6366
G01 X9.5711 Y16.6276
G01 X9.5842 Y16.5755
G01 X9.6022 Y16.5249
G01 X9.6057 Y16.5164
G01 X9.6288 Y16.4679
G01 X9.6588 Y16.4179
G01 X9.6935 Y16.3710
G01 X9.7295 Y16.3311
G01 X9.7360 Y16.3246
G01 X9.7724 Y16.2917
G01 X9.7795 Y16.2858
G01 X9.8227 Y16.2539
G01 X9.8588 Y16.2321
G01 X9.8588 Y13.6426
G01 X9.8610 Y13.6013
G01 X9.8666 Y13.5628
G01 X9.8684 Y13.5537
G01 X9.8767 Y13.5204
G01 X9.8794 Y13.5116
G01 X9.8926 Y13.4749
G01 X9.9089 Y13.4403
G01 X9.9089 Y11.2141
G01 X9.9090 Y10.7391
G01 X9.9097 Y10.7276
G01 X9.9113 Y10.7185
G01 X9.9131 Y10.7118
G01 X9.9153 Y10.7053
G01 X9.9181 Y10.6989
G01 X9.9212 Y10.6928
G01 X9.9262 Y10.6850
G01 X9.9319 Y10.6777
G01 X9.9366 Y10.6727
G01 X9.9416 Y10.6679
G01 X9.9489 Y10.6623
G01 X9.9547 Y10.6585
G01 X9.9628 Y10.6541
G01 X9.9692 Y10.6514
G01 X9.9780 Y10.6485
G01 X9.9870 Y10.6465
G01 X9.9938 Y10.6456
G01 X10.0030 Y10.6451
G01 X10.6030 Y10.6451
G01 X10.6099 Y10.6454
G01 X10.6168 Y10.6461
G01 X10.6236 Y10.6474
G01 X10.6325 Y10.6499
G01 X10.6389 Y10.6523
G01 X10.6452 Y10.6552
G01 X10.6513 Y10.6585
G01 X10.6571 Y10.6623
G01 X10.6626 Y10.6665
G01 X10.6694 Y10.6727
G01 X10.6742 Y10.6777
G01 X10.6785 Y10.6831
G01 X10.6824 Y10.6888
G01 X10.6859 Y10.6948
G01 X10.6889 Y10.7010
G01 X10.6915 Y10.7075
G01 X10.6936 Y10.7141
G01 X10.6952 Y10.7208
G01 X10.6963 Y10.7276
G01 X10.6969 Y10.7345
G01 X10.6971 Y13.4403
G01 X10.7134 Y13.4749
G01 X10.7266 Y13.5116
G01 X10.7293 Y13.5204
G01 X10.7376 Y13.5537
G01 X10.7394 Y13.5628
G01 X10.7450 Y13.6013
G01 X10.7472 Y13.6449
G01 X10.7472 Y16.5979
G01 X10.7452 Y16.6391
G01 X10.7412 Y16.6682
G01 X10.7445 Y16.6921
G01 X10.7471 Y16.7480
G01 X10.7471 Y18.8031
G01 X10.7443 Y18.8614
G01 X10.7365 Y18.9145
G01 X10.7347 Y18.9235
G01 X10.7208 Y18.9778
G01 X10.7036 Y19.0262
G01 X10.7000 Y19.0347
G01 X10.6770 Y19.0832
G01 X10.6495 Y19.1294
G01 X10.6443 Y19.1370
G01 X10.6122 Y19.1801
G01 X10.5747 Y19.2217
G01 X7.4192 Y22.3772
G01 X7.4225 Y22.3903
G01 X7.4238 Y22.3971
G01 X7.4387 Y22.4988
G01 X7.4439 Y22.6014
G01 X7.4439 Y22.6106
G01 X7.4387 Y22.7132
G01 X7.4238 Y22.8149
G01 X7.4220 Y22.8239
G01 X7.3962 Y22.9258
G01 X7.3607 Y23.0247
G01 X7.3169 Y23.1176
G01 X7.3125 Y23.1257
G01 X7.2609 Y23.2119
G01 X7.1985 Y23.2964
G01 X7.1942 Y23.3018
G01 X7.1236 Y23.3796
G01 X7.0693 Y23.4289
G01 X7.0693 Y25.7922
G01 X7.2524 Y25.7922
G01 X7.2638 Y25.7932
G01 X7.2751 Y25.7956
G01 X7.2817 Y25.7977
G01 X7.2881 Y25.8002
G01 X7.2984 Y25.8055
G01 X7.3042 Y25.8093
G01 X7.3097 Y25.8135
G01 X7.3181 Y25.8213
G01 X7.3227 Y25.8265
G01 X7.3269 Y25.8320
G01 X7.3307 Y25.8378
G01 X7.3340 Y25.8439
G01 X7.3369 Y25.8502
G01 X7.3393 Y25.8567
G01 X7.3422 Y25.8678
G01 X7.3436 Y25.8769
G01 X7.3440 Y25.8862
G01 X7.3440 Y27.0884
G01 X7.3436 Y27.0953
G01 X7.3422 Y27.1044
G01 X7.3406 Y27.1111
G01 X7.3386 Y27.1177
G01 X7.3350 Y27.1262
G01 X7.3318 Y27.1324
G01 X7.3282 Y27.1383
G01 X7.3242 Y27.1439
G01 X7.3165 Y27.1525
G01 X7.3097 Y27.1587
G01 X7.3023 Y27.1642
G01 X7.2944 Y27.1690
G01 X7.2860 Y27.1729
G01 X7.2773 Y27.1760
G01 X7.2661 Y27.1787
G01 X7.2570 Y27.1798
G01 X7.2500 Y27.1800
G01 X6.5367 Y27.1800
G01 X6.4903 Y27.1916
G01 X6.4228 Y27.2017
G01 X6.3500 Y27.2054
G01 X6.2772 Y27.2017
G01 X6.2097 Y27.1916
G01 X6.1633 Y27.1800
G01 X5.4476 Y27.1800
G01 X5.4407 Y27.1796
G01 X5.4339 Y27.1787
G01 X5.4271 Y27.1772
G01 X5.4205 Y27.1753
G01 X5.4140 Y27.1729
G01 X5.4077 Y27.1700
G01 X5.4016 Y27.1667
G01 X5.3958 Y27.1629
G01 X5.3868 Y27.1557
G01 X5.3788 Y27.1474
G01 X5.3718 Y27.1383
G01 X5.3671 Y27.1304
G01 X5.3623 Y27.1199
G01 X5.3588 Y27.1089
G01 X5.3570 Y27.0998
G01 X5.3560 Y27.0884
G01 X5.3561 Y25.8815
G01 X5.3570 Y25.8724
G01 X5.3588 Y25.8633
G01 X5.3614 Y25.8545
G01 X5.3650 Y25.8460
G01 X5.3693 Y25.8378
G01 X5.3745 Y25.8302
G01 X5.3788 Y25.8248
G01 X5.3851 Y25.8181
G01 X5.3921 Y25.8121
G01 X5.3997 Y25.8067
G01 X5.4077 Y25.8022
G01 X5.4161 Y25.7985
G01 X5.4249 Y25.7956
G01 X5.4316 Y25.7940
G01 X5.4407 Y25.7926
G01 X5.4500 Y25.7922
G00 Z2.0000
G00 X6.1591 Y27.1982
G01 F80.00
G01 Z-0.0350
G01 F80.00
G01 X6.1507 Y27.1954
G01 X6.1416 Y27.1934
G01 X6.1324 Y27.1922
G01 X6.1255 Y27.1920
G01 X5.3439 Y27.1920
G01 X5.3439 Y25.7800
G01 X5.5202 Y25.7800
G01 X5.5271 Y25.7795
G01 X5.5340 Y25.7786
G01 X5.5407 Y25.7772
G01 X5.5474 Y25.7753
G01 X5.5539 Y25.7728
G01 X5.5602 Y25.7700
G01 X5.5662 Y25.7666
G01 X5.5720 Y25.7629
G01 X5.5775 Y25.7587
G01 X5.5827 Y25.7541
G01 X5.5875 Y25.7491
G01 X5.5920 Y25.7438
G01 X5.5961 Y25.7382
G01 X5.5997 Y25.7323
G01 X5.6029 Y25.7262
G01 X5.6056 Y25.7198
G01 X5.6078 Y25.7133
G01 X5.6096 Y25.7066
G01 X5.6109 Y25.6998
G01 X5.6116 Y25.6929
G01 X5.6119 Y25.6860
G01 X5.6119 Y23.4709
G01 X5.6114 Y23.4616
G01 X5.6105 Y23.4548
G01 X5.6085 Y23.4458
G01 X5.6064 Y23.4392
G01 X5.6038 Y23.4327
G01 X5.6008 Y23.4265
G01 X5.5960 Y23.4186
G01 X5.5919 Y23.4130
G01 X5.5843 Y23.4043
G01 X5.4648 Y23.2851
G01 X5.3195 Y23.0330
G01 X5.2441 Y22.7516
G01 X5.2441 Y22.4604
G01 X5.3195 Y22.1790
G01 X5.4648 Y21.9269
G01 X5.6708 Y21.7211
G01 X5.9230 Y21.5755
G01 X6.2044 Y21.5001
G01 X6.4957 Y21.5001
G01 X6.5247 Y21.5076
G01 X6.5361 Y21.5090
G01 X6.5452 Y21.5092
G01 X6.5543 Y21.5085
G01 X6.5611 Y21.5073
G01 X6.5678 Y21.5057
G01 X6.5764 Y21.5028
G01 X6.5848 Y21.4991
G01 X6.5908 Y21.4958
G01 X6.5965 Y21.4920
G01 X6.6037 Y21.4864
G01 X9.5135 Y18.5770
G01 X9.5182 Y18.5719
G01 X9.5239 Y18.5646
G01 X9.5276 Y18.5588
G01 X9.5310 Y18.5528
G01 X9.5339 Y18.5465
G01 X9.5363 Y18.5400
G01 X9.5382 Y18.5333
G01 X9.5396 Y18.5266
G01 X9.5406 Y18.5197
G01 X9.5410 Y18.5105
G01 X9.5410 Y16.7542
G01 X9.5627 Y16.5899
G01 X9.6236 Y16.4423
G01 X9.7208 Y16.3159
G01 X9.8013 Y16.2538
G01 X9.8083 Y16.2477
G01 X9.8130 Y16.2426
G01 X9.8201 Y16.2334
G01 X9.8260 Y16.2234
G01 X9.8306 Y16.2127
G01 X9.8339 Y16.2016
G01 X9.8355 Y16.1924
G01 X9.8362 Y16.1808
G01 X9.8362 Y15.8758
G01 X9.8359 Y15.8688
G01 X9.8351 Y15.8619
G01 X9.8327 Y15.8506
G01 X9.8306 Y15.8440
G01 X9.8280 Y15.8376
G01 X9.8250 Y15.8313
G01 X9.8215 Y15.8253
G01 X9.8175 Y15.8196
G01 X9.8132 Y15.8142
G01 X9.8051 Y15.8059
G01 X9.7998 Y15.8015
G01 X9.7941 Y15.7974
G01 X9.7882 Y15.7938
G01 X9.7820 Y15.7906
G01 X9.7713 Y15.7864
G01 X9.7601 Y15.7835
G01 X9.7532 Y15.7824
G01 X9.7463 Y15.7819
G01 X9.7347 Y15.7821
G01 X9.7278 Y15.7829
G01 X9.7210 Y15.7842
G01 X9.7143 Y15.7860
G01 X9.7078 Y15.7883
G01 X9.6973 Y15.7932
G01 X9.6913 Y15.7967
G01 X9.6856 Y15.8007
G01 X9.6802 Y15.8051
G01 X9.6752 Y15.8098
G01 X9.6676 Y15.8186
G01 X9.6104 Y15.8932
G01 X4.3044 Y21.1992
G01 X4.2982 Y21.2060
G01 X4.2927 Y21.2134
G01 X4.2879 Y21.2213
G01 X4.2849 Y21.2276
G01 X4.2816 Y21.2362
G01 X4.2791 Y21.2450
G01 X4.2775 Y21.2541
G01 X4.2769 Y21.2633
G01 X4.2768 Y21.5440
G01 X4.2773 Y21.5532
G01 X4.2791 Y21.5644
G01 X4.2822 Y21.5754
G01 X4.2867 Y21.5859
G01 X4.2924 Y21.5958
G01 X4.2993 Y21.6050
G01 X4.3039 Y21.6100
G01 X4.3089 Y21.6147
G01 X4.3179 Y21.6217
G01 X4.4891 Y21.7211
G01 X4.6949 Y21.9269
G01 X4.8405 Y22.1790
G01 X4.9159 Y22.4604
G01 X4.9159 Y22.7516
G01 X4.8405 Y23.0330
G01 X4.6949 Y23.2851
G01 X4.5756 Y23.4044
G01 X4.5694 Y23.4112
G01 X4.5653 Y23.4167
G01 X4.5615 Y23.4225
G01 X4.5571 Y23.4307
G01 X4.5544 Y23.4370
G01 X4.5522 Y23.4436
G01 X4.5504 Y23.4503
G01 X4.5491 Y23.4571
G01 X4.5484 Y23.4640
G01 X4.5481 Y23.4709
G01 X4.5481 Y27.7840
G01 X4.5486 Y27.7933
G01 X4.5499 Y27.8024
G01 X4.5529 Y27.8135
G01 X4.5553 Y27.8200
G01 X4.5581 Y27.8263
G01 X4.5639 Y27.8363
G01 X4.5680 Y27.8419
G01 X4.5725 Y27.8472
G01 X4.8221 Y28.0970
G01 X4.8291 Y28.1030
G01 X4.8347 Y28.1071
G01 X4.8426 Y28.1118
G01 X4.8489 Y28.1148
G01 X4.8575 Y28.1182
G01 X4.8664 Y28.1206
G01 X4.8732 Y28.1219
G01 X4.8823 Y28.1228
G01 X6.3190 Y28.1229
G01 X6.5026 Y28.1470
G01 X6.5148 Y28.1478
G01 X11.4238 Y28.1478
G01 X11.6209 Y28.1738
G01 X11.6293 Y28.1766
G01 X11.6361 Y28.1782
G01 X11.6453 Y28.1796
G01 X11.6522 Y28.1800
G01 X12.4361 Y28.1800
G01 X12.4361 Y29.5920
G01 X11.6522 Y29.5920
G01 X11.6453 Y29.5925
G01 X11.6361 Y29.5938
G01 X11.6293 Y29.5954
G01 X11.6210 Y29.5982
G01 X11.4239 Y29.6240
G01 X6.3561 Y29.6240
G01 X6.1722 Y29.5999
G01 X6.1625 Y29.5991
G01 X4.5485 Y29.5991
G01 X4.3514 Y29.5731
G01 X4.1736 Y29.4995
G01 X4.0158 Y29.3787
G01 X3.2926 Y28.6551
G01 X3.1715 Y28.4974
G01 X3.0979 Y28.3196
G01 X3.0719 Y28.1225
G01 X3.0719 Y23.4709
G01 X3.0712 Y23.4594
G01 X3.0696 Y23.4503
G01 X3.0664 Y23.4392
G01 X3.0619 Y23.4286
G01 X3.0561 Y23.4186
G01 X3.0491 Y23.4095
G01 X2.9251 Y23.2851
G01 X2.7795 Y23.0330
G01 X2.7041 Y22.7516
G01 X2.7041 Y22.4602
G01 X2.7163 Y22.4137
G01 X2.7177 Y22.4047
G01 X2.7183 Y22.3933
G01 X2.7172 Y22.3797
G01 X2.7148 Y22.3686
G01 X2.7101 Y22.3557
G01 X2.7048 Y22.3456
G01 X2.6984 Y22.3362
G01 X2.6908 Y22.3277
G01 X1.7686 Y21.4055
G01 X1.6475 Y21.2477
G01 X1.5739 Y21.0699
G01 X1.5479 Y20.8729
G01 X1.5479 Y16.1352
G01 X1.5739 Y15.9381
G01 X1.6123 Y15.8445
G01 X1.6150 Y15.8357
G01 X1.6164 Y15.8290
G01 X1.6173 Y15.8222
G01 X1.6177 Y15.8130
G01 X1.6177 Y10.3501
G01 X1.6438 Y10.1530
G01 X1.7174 Y9.9753
G01 X1.8384 Y9.8178
G01 X5.0616 Y6.5946
G01 X5.2193 Y6.4735
G01 X5.3972 Y6.3999
G01 X5.5942 Y6.3739
G01 X5.9628 Y6.3739
G01 X6.1598 Y6.3999
G01 X6.3377 Y6.4735
G01 X6.4887 Y6.5893
G01 X6.5005 Y6.5963
G01 X6.5110 Y6.6007
G01 X6.5219 Y6.6038
G01 X6.5332 Y6.6056
G01 X6.5423 Y6.6060
G01 X8.1637 Y6.6060
G01 X8.1704 Y6.6143
G01 X8.1769 Y6.6208
G01 X8.1859 Y6.6280
G01 X8.1937 Y6.6330
G01 X8.2019 Y6.6371
G01 X8.2105 Y6.6404
G01 X8.2194 Y6.6429
G01 X8.2308 Y6.6447
G01 X8.2400 Y6.6452
G01 X8.7017 Y6.6452
G01 X8.8889 Y6.6824
G01 X9.0571 Y6.7946
G01 X9.0673 Y6.7999
G01 X9.0759 Y6.8032
G01 X9.0848 Y6.8057
G01 X9.0962 Y6.8075
G01 X9.1054 Y6.8080
G01 X9.7955 Y6.8080
G01 X9.8024 Y6.8075
G01 X9.8116 Y6.8062
G01 X9.8183 Y6.8046
G01 X9.8249 Y6.8025
G01 X9.8313 Y6.7999
G01 X9.8375 Y6.7969
G01 X9.8454 Y6.7921
G01 X9.8511 Y6.7881
G01 X9.8580 Y6.7821
G01 X9.8659 Y6.7736
G01 X9.8714 Y6.7662
G01 X9.8772 Y6.7562
G01 X9.8817 Y6.7456
G01 X9.8844 Y6.7368
G01 X9.8865 Y6.7255
G01 X9.8872 Y6.7163
G01 X9.8872 Y5.9012
G01 X9.8868 Y5.8943
G01 X9.8858 Y5.8874
G01 X9.8712 Y5.8137
G01 X9.8712 Y5.7264
G01 X9.8708 Y5.7194
G01 X9.8698 Y5.7125
G01 X9.8671 Y5.7012
G01 X9.8630 Y5.6903
G01 X9.8576 Y5.6800
G01 X9.8538 Y5.6742
G01 X9.8495 Y5.6686
G01 X9.8432 Y5.6618
G01 X9.8363 Y5.6556
G01 X9.7658 Y5.6015
G01 X9.6485 Y5.4487
G01 X9.5749 Y5.2708
G01 X9.5497 Y5.0800
G01 X9.5749 Y4.8892
G01 X9.6485 Y4.7114
G01 X9.7695 Y4.5539
G01 X13.3168 Y1.0063
G01 X13.4743 Y0.8855
G01 X13.6522 Y0.8119
G01 X13.8492 Y0.7859
G01 X17.5198 Y0.7859
G01 X17.7168 Y0.8119
G01 X17.8947 Y0.8855
G01 X18.0522 Y1.0063
G01 X20.0757 Y3.0296
G01 X20.1965 Y3.1873
G01 X20.2701 Y3.3652
G01 X20.2961 Y3.5622
G01 X20.2961 Y14.4718
G01 X20.2701 Y14.6688
G01 X20.1965 Y14.8467
G01 X20.0795 Y14.9992
G01 X19.9234 Y15.1189
G01 X19.9146 Y15.1250
G01 X19.9061 Y15.1326
G01 X13.2867 Y21.7523
G01 X13.2778 Y21.7589
G01 X13.2725 Y21.7633
G01 X13.1964 Y21.8324
G01 X13.1273 Y21.9085
G01 X13.1229 Y21.9138
G01 X13.1162 Y21.9227
G01 X12.5634 Y22.4755
G01 X12.5572 Y22.4824
G01 X12.5505 Y22.4917
G01 X12.5449 Y22.5018
G01 X12.5422 Y22.5082
G01 X12.5399 Y22.5147
G01 X12.5373 Y22.5259
G01 X12.5360 Y22.5374
G01 X12.5359 Y22.7516
G01 X12.4605 Y23.0330
G01 X12.3152 Y23.2851
G01 X12.1957 Y23.4043
G01 X12.1881 Y23.4130
G01 X12.1840 Y23.4186
G01 X12.1792 Y23.4265
G01 X12.1762 Y23.4327
G01 X12.1736 Y23.4392
G01 X12.1715 Y23.4458
G01 X12.1695 Y23.4548
G01 X12.1686 Y23.4616
G01 X12.1681 Y23.4686
G01 X12.1681 Y25.6860
G01 X12.1684 Y25.6929
G01 X12.1691 Y25.6998
G01 X12.1704 Y25.7066
G01 X12.1722 Y25.7133
G01 X12.1744 Y25.7198
G01 X12.1771 Y25.7262
G01 X12.1803 Y25.7323
G01 X12.1839 Y25.7382
G01 X12.1880 Y25.7438
G01 X12.1925 Y25.7491
G01 X12.1973 Y25.7541
G01 X12.2025 Y25.7587
G01 X12.2080 Y25.7629
G01 X12.2138 Y25.7666
G01 X12.2198 Y25.7700
G01 X12.2261 Y25.7728
G01 X12.2326 Y25.7753
G01 X12.2393 Y25.7772
G01 X12.2460 Y25.7786
G01 X12.2529 Y25.7795
G01 X12.2598 Y25.7800
G01 X12.4361 Y25.7800
G01 X12.4361 Y27.1920
G01 X11.6522 Y27.1920
G01 X11.6430 Y27.1927
G01 X11.6361 Y27.1938
G01 X11.6293 Y27.1954
G01 X11.6209 Y27.1982
G01 X11.4300 Y27.2234
G01 X11.2391 Y27.1982
G01 X11.2307 Y27.1954
G01 X11.2239 Y27.1938
G01 X11.2170 Y27.1927
G01 X11.2078 Y27.1920
G01 X10.4239 Y27.1920
G01 X10.4239 Y25.7800
G01 X10.6002 Y25.7800
G01 X10.6071 Y25.7795
G01 X10.6140 Y25.7786
G01 X10.6207 Y25.7772
G01 X10.6274 Y25.7753
G01 X10.6339 Y25.7728
G01 X10.6402 Y25.7700
G01 X10.6462 Y25.7666
G01 X10.6520 Y25.7629
G01 X10.6575 Y25.7587
G01 X10.6627 Y25.7541
G01 X10.6675 Y25.7491
G01 X10.6720 Y25.7438
G01 X10.6761 Y25.7382
G01 X10.6797 Y25.7323
G01 X10.6829 Y25.7262
G01 X10.6856 Y25.7198
G01 X10.6878 Y25.7133
G01 X10.6896 Y25.7066
G01 X10.6909 Y25.6998
G01 X10.6916 Y25.6929
G01 X10.6919 Y25.6860
G01 X10.6919 Y23.4709
G01 X10.6916 Y23.4639
G01 X10.6909 Y23.4571
G01 X10.6891 Y23.4480
G01 X10.6871 Y23.4413
G01 X10.6838 Y23.4327
G01 X10.6808 Y23.4265
G01 X10.6773 Y23.4205
G01 X10.6719 Y23.4130
G01 X10.6643 Y23.4043
G01 X10.5448 Y23.2851
G01 X10.3995 Y23.0330
G01 X10.3241 Y22.7516
G01 X10.3241 Y22.4604
G01 X10.3995 Y22.1790
G01 X10.4932 Y22.0165
G01 X10.4973 Y22.0082
G01 X10.5004 Y21.9995
G01 X10.5027 Y21.9905
G01 X10.5042 Y21.9814
G01 X10.5047 Y21.9721
G01 X10.5040 Y21.9606
G01 X10.5025 Y21.9515
G01 X10.5001 Y21.9425
G01 X10.4968 Y21.9339
G01 X10.4927 Y21.9256
G01 X10.4878 Y21.9178
G01 X10.4806 Y21.9087
G01 X10.4741 Y21.9021
G01 X10.4670 Y21.8962
G01 X10.4573 Y21.8899
G01 X10.4491 Y21.8857
G01 X10.4404 Y21.8824
G01 X10.4293 Y21.8794
G01 X10.4201 Y21.8780
G01 X10.4109 Y21.8775
G01 X10.4040 Y21.8778
G01 X10.3948 Y21.8789
G01 X10.3857 Y21.8809
G01 X10.3770 Y21.8838
G01 X10.3685 Y21.8875
G01 X10.3604 Y21.8921
G01 X10.3529 Y21.8974
G01 X10.3476 Y21.9019
G01 X9.9907 Y22.2586
G01 X9.9860 Y22.2636
G01 X9.9817 Y22.2690
G01 X9.9755 Y22.2785
G01 X9.9723 Y22.2846
G01 X9.9696 Y22.2909
G01 X9.9661 Y22.3018
G01 X9.9646 Y22.3085
G01 X9.9636 Y22.3153
G01 X9.9632 Y22.3221
G01 X9.9632 Y22.3290
G01 X9.9640 Y22.3381
G01 X9.9657 Y22.3471
G01 X9.9959 Y22.4603
G01 X9.9959 Y22.7516
G01 X9.9205 Y23.0330
G01 X9.7751 Y23.2852
G01 X9.5692 Y23.4911
G01 X9.4967 Y23.5328
G01 X9.4873 Y23.5393
G01 X9.4788 Y23.5470
G01 X9.4741 Y23.5520
G01 X9.4685 Y23.5593
G01 X9.4636 Y23.5670
G01 X9.4605 Y23.5731
G01 X9.4578 Y23.5795
G01 X9.4549 Y23.5882
G01 X9.4534 Y23.5949
G01 X9.4520 Y23.6040
G01 X9.4516 Y23.6131
G01 X9.4516 Y25.6860
G01 X9.4523 Y25.6975
G01 X9.4534 Y25.7043
G01 X9.4556 Y25.7133
G01 X9.4579 Y25.7198
G01 X9.4606 Y25.7262
G01 X9.4638 Y25.7323
G01 X9.4674 Y25.7382
G01 X9.4729 Y25.7456
G01 X9.4775 Y25.7508
G01 X9.4825 Y25.7557
G01 X9.4896 Y25.7615
G01 X9.4953 Y25.7654
G01 X9.5013 Y25.7689
G01 X9.5096 Y25.7728
G01 X9.5161 Y25.7753
G01 X9.5227 Y25.7772
G01 X9.5295 Y25.7786
G01 X9.5364 Y25.7795
G01 X9.5456 Y25.7800
G01 X9.8961 Y25.7800
G01 X9.8961 Y27.1920
G01 X7.8839 Y27.1920
G01 X7.8839 Y25.7800
G01 X8.2344 Y25.7800
G01 X8.2436 Y25.7795
G01 X8.2505 Y25.7786
G01 X8.2573 Y25.7772
G01 X8.2639 Y25.7753
G01 X8.2725 Y25.7719
G01 X8.2787 Y25.7689
G01 X8.2866 Y25.7642
G01 X8.2923 Y25.7601
G01 X8.2976 Y25.7557
G01 X8.3025 Y25.7508
G01 X8.3085 Y25.7438
G01 X8.3126 Y25.7382
G01 X8.3162 Y25.7323
G01 X8.3194 Y25.7262
G01 X8.3221 Y25.7198
G01 X8.3244 Y25.7133
G01 X8.3261 Y25.7066
G01 X8.3277 Y25.6975
G01 X8.3284 Y25.6860
G01 X8.3284 Y23.6108
G01 X8.3277 Y23.6017
G01 X8.3262 Y23.5926
G01 X8.3237 Y23.5838
G01 X8.3214 Y23.5773
G01 X8.3175 Y23.5690
G01 X8.3128 Y23.5612
G01 X8.3073 Y23.5538
G01 X8.3012 Y23.5470
G01 X8.2927 Y23.5393
G01 X8.2833 Y23.5328
G01 X8.2108 Y23.4911
G01 X8.0051 Y23.2852
G01 X7.8595 Y23.0330
G01 X7.7841 Y22.7516
G01 X7.7841 Y22.4604
G01 X7.8485 Y22.2194
G01 X7.8499 Y22.2126
G01 X7.8510 Y22.2035
G01 X7.8511 Y22.1943
G01 X7.8506 Y22.1874
G01 X7.8492 Y22.1783
G01 X7.8469 Y22.1694
G01 X7.8438 Y22.1608
G01 X7.8409 Y22.1545
G01 X7.8363 Y22.1466
G01 X7.8323 Y22.1409
G01 X7.8265 Y22.1338
G01 X7.8199 Y22.1274
G01 X7.8128 Y22.1216
G01 X7.8051 Y22.1165
G01 X7.7970 Y22.1122
G01 X7.7907 Y22.1095
G01 X7.7841 Y22.1073
G01 X7.7752 Y22.1051
G01 X7.7661 Y22.1037
G01 X7.7569 Y22.1033
G01 X7.7477 Y22.1038
G01 X7.7386 Y22.1052
G01 X7.7297 Y22.1074
G01 X7.7232 Y22.1097
G01 X7.7169 Y22.1124
G01 X7.7088 Y22.1167
G01 X7.7011 Y22.1218
G01 X7.6940 Y22.1277
G01 X7.4727 Y22.3489
G01 X7.4667 Y22.3558
G01 X7.4627 Y22.3614
G01 X7.4591 Y22.3672
G01 X7.4559 Y22.3733
G01 X7.4524 Y22.3817
G01 X7.4491 Y22.3927
G01 X7.4475 Y22.4017
G01 X7.4468 Y22.4131
G01 X7.4471 Y22.4222
G01 X7.4484 Y22.4313
G01 X7.4559 Y22.4603
G01 X7.4559 Y22.7517
G01 X7.3808 Y23.0330
G01 X7.2349 Y23.2851
G01 X7.1156 Y23.4044
G01 X7.1094 Y23.4112
G01 X7.1053 Y23.4167
G01 X7.1015 Y23.4225
G01 X7.0981 Y23.4286
G01 X7.0953 Y23.4349
G01 X7.0929 Y23.4414
G01 X7.0909 Y23.4480
G01 X7.0895 Y23.4548
G01 X7.0884 Y23.4640
G01 X7.0881 Y23.4709
G01 X7.0881 Y25.6860
G01 X7.0884 Y25.6929
G01 X7.0891 Y25.6998
G01 X7.0904 Y25.7066
G01 X7.0922 Y25.7133
G01 X7.0944 Y25.7198
G01 X7.0971 Y25.7262
G01 X7.1003 Y25.7323
G01 X7.1039 Y25.7382
G01 X7.1080 Y25.7438
G01 X7.1125 Y25.7491
G01 X7.1173 Y25.7541
G01 X7.1225 Y25.7587
G01 X7.1280 Y25.7629
G01 X7.1338 Y25.7666
G01 X7.1398 Y25.7700
G01 X7.1461 Y25.7728
G01 X7.1526 Y25.7753
G01 X7.1593 Y25.7772
G01 X7.1660 Y25.7786
G01 X7.1729 Y25.7795
G01 X7.1798 Y25.7800
G01 X7.3561 Y25.7800
G01 X7.3561 Y27.1920
G01 X6.5722 Y27.1920
G01 X6.5630 Y27.1927
G01 X6.5561 Y27.1938
G01 X6.5493 Y27.1954
G01 X6.5409 Y27.1982
G01 X6.3499 Y27.2234
G01 X6.1591 Y27.1982
G00 Z2.0000
G00 X7.9900 Y25.7922
G01 F80.00
G01 Z-0.0350
G01 F80.00
G01 X8.3458 Y25.7922
G01 X8.3458 Y23.5539
G01 X8.2822 Y23.5156
G01 X8.1942 Y23.4502
G01 X8.1164 Y23.3796
G01 X8.0429 Y23.2982
G01 X7.9804 Y23.2138
G01 X7.9252 Y23.1217
G01 X7.8793 Y23.0247
G01 X7.8438 Y22.9258
G01 X7.8170 Y22.8194
G01 X7.8013 Y22.7132
G01 X7.7960 Y22.6060
G01 X7.8009 Y22.5034
G01 X7.8018 Y22.4942
G01 X7.8170 Y22.3926
G01 X7.8419 Y22.2929
G01 X7.8446 Y22.2840
G01 X7.8776 Y22.1917
G01 X7.8811 Y22.1831
G01 X7.9252 Y22.0903
G01 X7.9804 Y21.9982
G01 X8.0443 Y21.9120
G01 X8.1132 Y21.8358
G01 X8.1198 Y21.8292
G01 X8.1925 Y21.7633
G01 X8.1996 Y21.7575
G01 X8.2822 Y21.6964
G01 X8.3763 Y21.6401
G01 X8.4713 Y21.5953
G01 X8.5724 Y21.5591
G01 X8.6766 Y21.5330
G01 X8.7805 Y21.5175
G01 X8.8900 Y21.5120
G01 X8.9949 Y21.5171
G01 X9.1012 Y21.5326
G01 X9.1428 Y21.5428
G01 X10.7588 Y19.9267
G01 X10.7588 Y11.5777
G01 X10.7539 Y11.5719
G01 X10.7486 Y11.5644
G01 X10.7441 Y11.5563
G01 X10.7412 Y11.5500
G01 X10.7388 Y11.5436
G01 X10.7363 Y11.5347
G01 X10.7347 Y11.5256
G01 X10.7341 Y11.5164
G01 X10.7340 Y10.9141
G01 X10.7347 Y10.9026
G01 X10.7363 Y10.8935
G01 X10.7381 Y10.8868
G01 X10.7412 Y10.8782
G01 X10.7441 Y10.8719
G01 X10.7474 Y10.8658
G01 X10.7525 Y10.8581
G01 X10.7584 Y10.8510
G01 X10.7632 Y10.8460
G01 X10.7702 Y10.8400
G01 X10.7758 Y10.8360
G01 X10.7837 Y10.8312
G01 X10.7899 Y10.8282
G01 X10.7985 Y10.8249
G01 X10.8052 Y10.8229
G01 X10.8120 Y10.8215
G01 X10.8211 Y10.8204
G01 X10.8280 Y10.8201
G01 X11.2935 Y10.8201
G01 X11.3030 Y10.8198
G01 X11.3125 Y10.8201
G01 X11.7780 Y10.8201
G01 X11.7895 Y10.8208
G01 X11.8008 Y10.8229
G01 X11.8075 Y10.8249
G01 X11.8161 Y10.8282
G01 X11.8223 Y10.8312
G01 X11.8302 Y10.8360
G01 X11.8358 Y10.8400
G01 X11.8428 Y10.8460
G01 X11.8476 Y10.8510
G01 X11.8521 Y10.8563
G01 X11.8561 Y10.8619
G01 X11.8609 Y10.8698
G01 X11.8648 Y10.8782
G01 X11.8672 Y10.8846
G01 X11.8692 Y10.8913
G01 X11.8706 Y10.8981
G01 X11.8715 Y10.9049
G01 X11.8720 Y10.9141
G01 X11.8719 Y11.5187
G01 X11.8713 Y11.5256
G01 X11.8697 Y11.5347
G01 X11.8672 Y11.5436
G01 X11.8648 Y11.5500
G01 X11.8609 Y11.5584
G01 X11.8574 Y11.5644
G01 X11.8521 Y11.5719
G01 X11.8472 Y11.5777
G01 X11.8472 Y20.1521
G01 X11.8449 Y20.2008
G01 X11.8440 Y20.2100
G01 X11.8367 Y20.2583
G01 X11.8250 Y20.3056
G01 X11.8223 Y20.3145
G01 X11.8058 Y20.3604
G01 X11.7850 Y20.4045
G01 X11.7807 Y20.4126
G01 X11.7555 Y20.4544
G01 X11.7265 Y20.4937
G01 X11.7206 Y20.5008
G01 X11.6894 Y20.5353
G01 X9.9367 Y22.2880
G01 X9.9630 Y22.3926
G01 X9.9782 Y22.4942
G01 X9.9791 Y22.5034
G01 X9.9839 Y22.6014
G01 X9.9839 Y22.6106
G01 X9.9787 Y22.7132
G01 X9.9630 Y22.8194
G01 X9.9369 Y22.9236
G01 X9.9016 Y23.0225
G01 X9.8569 Y23.1176
G01 X9.8525 Y23.1257
G01 X9.7996 Y23.2138
G01 X9.7342 Y23.3018
G01 X9.6636 Y23.3796
G01 X9.5840 Y23.4517
G01 X9.4978 Y23.5156
G01 X9.4342 Y23.5539
G01 X9.4342 Y25.7922
G01 X9.7900 Y25.7922
G01 X9.7970 Y25.7924
G01 X9.8038 Y25.7932
G01 X9.8151 Y25.7956
G01 X9.8217 Y25.7977
G01 X9.8281 Y25.8002
G01 X9.8344 Y25.8033
G01 X9.8403 Y25.8067
G01 X9.8460 Y25.8107
G01 X9.8514 Y25.8150
G01 X9.8597 Y25.8230
G01 X9.8642 Y25.8283
G01 X9.8682 Y25.8339
G01 X9.8718 Y25.8398
G01 X9.8750 Y25.8460
G01 X9.8793 Y25.8567
G01 X9.8812 Y25.8633
G01 X9.8827 Y25.8701
G01 X9.8836 Y25.8769
G01 X9.8840 Y25.8862
G01 X9.8840 Y27.0860
G01 X9.8838 Y27.0930
G01 X9.8830 Y27.0998
G01 X9.8818 Y27.1066
G01 X9.8800 Y27.1133
G01 X9.8777 Y27.1199
G01 X9.8740 Y27.1283
G01 X9.8707 Y27.1344
G01 X9.8669 Y27.1402
G01 X9.8597 Y27.1492
G01 X9.8514 Y27.1572
G01 X9.8423 Y27.1642
G01 X9.8344 Y27.1690
G01 X9.8239 Y27.1738
G01 X9.8129 Y27.1772
G01 X9.8016 Y27.1793
G01 X9.7900 Y27.1800
G01 X7.9900 Y27.1800
G01 X7.9830 Y27.1798
G01 X7.9762 Y27.1790
G01 X7.9694 Y27.1778
G01 X7.9605 Y27.1753
G01 X7.9540 Y27.1729
G01 X7.9477 Y27.1700
G01 X7.9416 Y27.1667
G01 X7.9358 Y27.1629
G01 X7.9268 Y27.1557
G01 X7.9203 Y27.1492
G01 X7.9131 Y27.1402
G01 X7.9071 Y27.1304
G01 X7.9031 Y27.1220
G01 X7.8994 Y27.1111
G01 X7.8970 Y27.0998
G01 X7.8960 Y27.0884
G01 X7.8961 Y25.8815
G01 X7.8970 Y25.8724
G01 X7.8988 Y25.8633
G01 X7.9014 Y25.8545
G01 X7.9050 Y25.8460
G01 X7.9082 Y25.8398
G01 X7.9131 Y25.8320
G01 X7.9188 Y25.8248
G01 X7.9251 Y25.8181
G01 X7.9321 Y25.8121
G01 X7.9397 Y25.8067
G01 X7.9456 Y25.8033
G01 X7.9540 Y25.7993
G01 X7.9627 Y25.7962
G01 X7.9716 Y25.7940
G01 X7.9807 Y25.7926
G01 X7.9900 Y25.7922
G00 Z2.0000
G00 X8.7444 Y21.5001
G01 F80.00
G01 Z-0.0350
G01 F80.00
G01 X8.5034 Y21.5645
G01 X8.4966 Y21.5659
G01 X8.4875 Y21.5670
G01 X8.4783 Y21.5671
G01 X8.4714 Y21.5666
G01 X8.4623 Y21.5652
G01 X8.4534 Y21.5629
G01 X8.4448 Y21.5598
G01 X8.4365 Y21.5558
G01 X8.4286 Y21.5510
G01 X8.4213 Y21.5455
G01 X8.4145 Y21.5393
G01 X8.4084 Y21.5324
G01 X8.4029 Y21.5250
G01 X8.3982 Y21.5171
G01 X8.3943 Y21.5088
G01 X8.3913 Y21.5001
G01 X8.3891 Y21.4912
G01 X8.3877 Y21.4821
G01 X8.3873 Y21.4729
G01 X8.3878 Y21.4637
G01 X8.3887 Y21.4569
G01 X8.3908 Y21.4479
G01 X8.3929 Y21.4414
G01 X8.3964 Y21.4329
G01 X8.3996 Y21.4268
G01 X8.4045 Y21.4190
G01 X8.4102 Y21.4117
G01 X8.4149 Y21.4067
G01 X10.5826 Y19.2390
G01 X10.5896 Y19.2329
G01 X10.5952 Y19.2289
G01 X10.6031 Y19.2242
G01 X10.6115 Y19.2202
G01 X10.6201 Y19.2171
G01 X10.6268 Y19.2153
G01 X10.6359 Y19.2138
G01 X10.6451 Y19.2131
G01 X10.6520 Y19.2132
G01 X10.6612 Y19.2141
G01 X10.6703 Y19.2159
G01 X10.6791 Y19.2185
G01 X10.6876 Y19.2221
G01 X10.6957 Y19.2264
G01 X10.7034 Y19.2316
G01 X10.7088 Y19.2359
G01 X10.7155 Y19.2422
G01 X10.7229 Y19.2511
G01 X10.7280 Y19.2587
G01 X10.7324 Y19.2669
G01 X10.7359 Y19.2754
G01 X10.7386 Y19.2842
G01 X10.7407 Y19.2955
G01 X10.7414 Y19.3047
G01 X10.7414 Y19.8829
G01 X10.7410 Y19.8898
G01 X10.7396 Y19.8989
G01 X10.7374 Y19.9079
G01 X10.7351 Y19.9144
G01 X10.7324 Y19.9208
G01 X10.7280 Y19.9289
G01 X10.7243 Y19.9347
G01 X10.7186 Y19.9420
G01 X10.7139 Y19.9471
G01 X9.1726 Y21.4881
G01 X9.1641 Y21.4956
G01 X9.1566 Y21.5009
G01 X9.1507 Y21.5044
G01 X9.1445 Y21.5074
G01 X9.1382 Y21.5100
G01 X9.1316 Y21.5121
G01 X9.1227 Y21.5141
G01 X9.1137 Y21.5153
G01 X9.1068 Y21.5156
G01 X9.0977 Y21.5152
G01 X9.0864 Y21.5135
G01 X9.0357 Y21.5001
G01 X8.7444 Y21.5001
G00 Z2.0000
G00 X11.0030 Y21.5755
G01 F80.00
G01 Z-0.0350
G01 F80.00
G01 X10.8384 Y21.6703
G01 X10.8300 Y21.6741
G01 X10.8190 Y21.6777
G01 X10.8100 Y21.6796
G01 X10.8008 Y21.6805
G01 X10.7915 Y21.6806
G01 X10.7823 Y21.6798
G01 X10.7732 Y21.6780
G01 X10.7644 Y21.6754
G01 X10.7558 Y21.6719
G01 X10.7476 Y21.6676
G01 X10.7399 Y21.6625
G01 X10.7327 Y21.6566
G01 X10.7261 Y21.6501
G01 X10.7202 Y21.6430
G01 X10.7151 Y21.6353
G01 X10.7107 Y21.6272
G01 X10.7071 Y21.6186
G01 X10.7044 Y21.6098
G01 X10.7026 Y21.6007
G01 X10.7016 Y21.5915
G01 X10.7016 Y21.5823
G01 X10.7025 Y21.5731
G01 X10.7043 Y21.5640
G01 X10.7078 Y21.5530
G01 X10.7115 Y21.5445
G01 X10.7161 Y21.5364
G01 X10.7214 Y21.5289
G01 X10.7274 Y21.5219
G01 X11.6957 Y20.5536
G01 X11.7886 Y20.4324
G01 X11.8446 Y20.2972
G01 X11.8646 Y20.1459
G01 X11.8646 Y11.7140
G01 X11.8650 Y11.7048
G01 X11.8660 Y11.6979
G01 X11.8674 Y11.6911
G01 X11.8693 Y11.6845
G01 X11.8717 Y11.6780
G01 X11.8757 Y11.6697
G01 X11.8792 Y11.6637
G01 X11.8839 Y11.6569
G01 X11.8839 Y10.9238
G01 X11.8843 Y10.9146
G01 X11.8857 Y10.9054
G01 X11.8879 Y10.8965
G01 X11.8902 Y10.8900
G01 X11.8929 Y10.8836
G01 X11.8961 Y10.8774
G01 X11.8997 Y10.8716
G01 X11.9038 Y10.8659
G01 X11.9082 Y10.8607
G01 X11.9131 Y10.8557
G01 X11.9182 Y10.8511
G01 X11.9238 Y10.8469
G01 X11.9296 Y10.8432
G01 X11.9356 Y10.8398
G01 X11.9419 Y10.8369
G01 X11.9484 Y10.8345
G01 X11.9550 Y10.8326
G01 X11.9618 Y10.8312
G01 X11.9733 Y10.8299
G01 X12.9969 Y10.8298
G01 X13.0038 Y10.8300
G01 X13.0130 Y10.8312
G01 X13.0198 Y10.8326
G01 X13.0286 Y10.8353
G01 X13.0392 Y10.8398
G01 X13.0452 Y10.8432
G01 X13.0510 Y10.8469
G01 X13.0600 Y10.8541
G01 X13.0650 Y10.8590
G01 X13.0696 Y10.8641
G01 X13.0738 Y10.8697
G01 X13.0775 Y10.8755
G01 X13.0809 Y10.8815
G01 X13.0838 Y10.8878
G01 X13.0862 Y10.8943
G01 X13.0881 Y10.9009
G01 X13.0902 Y10.9123
G01 X13.0909 Y10.9238
G01 X13.0909 Y11.3170
G01 X15.1031 Y11.3170
G01 X15.1031 Y9.9050
G01 X13.0909 Y9.9050
G01 X13.0905 Y9.9134
G01 X13.0891 Y9.9226
G01 X13.0869 Y9.9315
G01 X13.0838 Y9.9402
G01 X13.0798 Y9.9485
G01 X13.0751 Y9.9564
G01 X13.0696 Y9.9639
G01 X13.0634 Y9.9707
G01 X13.0566 Y9.9769
G01 X13.0491 Y9.9824
G01 X13.0412 Y9.9871
G01 X13.0329 Y9.9911
G01 X13.0242 Y9.9942
G01 X13.0153 Y9.9964
G01 X13.0084 Y9.9975
G01 X12.9992 Y9.9982
G01 X11.9756 Y9.9982
G01 X11.9664 Y9.9975
G01 X11.9595 Y9.9964
G01 X11.9506 Y9.9942
G01 X11.9419 Y9.9911
G01 X11.9356 Y9.9882
G01 X11.9276 Y9.9836
G01 X11.9219 Y9.9797
G01 X11.9148 Y9.9739
G01 X11.9082 Y9.9673
G01 X11.9024 Y9.9602
G01 X11.8973 Y9.9525
G01 X11.8929 Y9.9444
G01 X11.8894 Y9.9359
G01 X11.8867 Y9.9271
G01 X11.8846 Y9.9157
G01 X11.8839 Y9.9065
G01 X11.8839 Y8.5237
G01 X11.8846 Y8.5122
G01 X11.8857 Y8.5054
G01 X11.8873 Y8.4987
G01 X11.8910 Y8.4878
G01 X11.8961 Y8.4774
G01 X11.8997 Y8.4715
G01 X11.9038 Y8.4659
G01 X11.9114 Y8.4573
G01 X11.9200 Y8.4496
G01 X11.9296 Y8.4431
G01 X11.9398 Y8.4378
G01 X11.9506 Y8.4338
G01 X11.9573 Y8.4320
G01 X11.9641 Y8.4308
G01 X11.9756 Y8.4298
G01 X15.0929 Y8.4297
G01 X15.2605 Y8.3966
G01 X15.4028 Y8.3014
G01 X15.8965 Y7.8077
G01 X15.9017 Y7.8031
G01 X15.9091 Y7.7976
G01 X15.9170 Y7.7929
G01 X15.9254 Y7.7889
G01 X15.9341 Y7.7858
G01 X15.9430 Y7.7836
G01 X15.9521 Y7.7822
G01 X15.9614 Y7.7818
G01 X16.5616 Y7.7818
G01 X16.5684 Y7.7820
G01 X16.5775 Y7.7831
G01 X16.5864 Y7.7851
G01 X16.5951 Y7.7880
G01 X16.6035 Y7.7917
G01 X16.6096 Y7.7950
G01 X16.6153 Y7.7987
G01 X16.6208 Y7.8028
G01 X16.6260 Y7.8073
G01 X16.6308 Y7.8122
G01 X16.6353 Y7.8174
G01 X16.6393 Y7.8230
G01 X16.7678 Y8.0451
G01 X16.9738 Y8.2511
G01 X17.2260 Y8.3965
G01 X17.5074 Y8.4719
G01 X17.7986 Y8.4719
G01 X18.0800 Y8.3965
G01 X18.3322 Y8.2511
G01 X18.5381 Y8.0452
G01 X18.6456 Y7.8588
G01 X18.6522 Y7.8494
G01 X18.6599 Y7.8409
G01 X18.6667 Y7.8347
G01 X18.6723 Y7.8306
G01 X18.6781 Y7.8269
G01 X18.6862 Y7.8226
G01 X18.6926 Y7.8199
G01 X18.7013 Y7.8171
G01 X18.7080 Y7.8155
G01 X18.7149 Y7.8144
G01 X18.7217 Y7.8139
G01 X18.7286 Y7.8138
G01 X18.7355 Y7.8143
G01 X18.7446 Y7.8157
G01 X18.7535 Y7.8179
G01 X18.7600 Y7.8202
G01 X18.7664 Y7.8230
G01 X18.7725 Y7.8261
G01 X18.7783 Y7.8298
G01 X18.7839 Y7.8338
G01 X18.7925 Y7.8415
G01 X18.8001 Y7.8501
G01 X18.8066 Y7.8596
G01 X18.8119 Y7.8698
G01 X18.8144 Y7.8762
G01 X18.8165 Y7.8828
G01 X18.8181 Y7.8895
G01 X18.8192 Y7.8963
G01 X18.8199 Y7.9078
G01 X18.8199 Y14.0924
G01 X18.8196 Y14.0993
G01 X18.8189 Y14.1062
G01 X18.8165 Y14.1175
G01 X18.8127 Y14.1284
G01 X18.8077 Y14.1388
G01 X18.8014 Y14.1484
G01 X18.7971 Y14.1538
G01 X18.7924 Y14.1589
G01 X11.4770 Y21.4742
G01 X11.4719 Y21.4788
G01 X11.4663 Y21.4830
G01 X11.4605 Y21.4867
G01 X11.4524 Y21.4911
G01 X11.4460 Y21.4938
G01 X11.4395 Y21.4961
G01 X11.4328 Y21.4978
G01 X11.4237 Y21.4994
G01 X11.4122 Y21.5001
G01 X11.2844 Y21.5001
G01 X11.0030 Y21.5755
G00 Z2.0000
G00 X8.1420 Y14.0680
G01 F80.00
G01 Z-0.0350
G01 F80.00
G01 X7.8029 Y14.0680
G01 X7.8029 Y14.0020
G01 X7.9819 Y14.0020
G01 X7.9935 Y14.0013
G01 X8.0025 Y13.9997
G01 X8.0136 Y13.9965
G01 X8.0242 Y13.9920
G01 X8.0342 Y13.9862
G01 X8.0433 Y13.9792
G01 X8.0516 Y13.9711
G01 X8.0588 Y13.9621
G01 X8.0637 Y13.9544
G01 X8.0688 Y13.9440
G01 X8.0719 Y13.9353
G01 X8.0737 Y13.9286
G01 X8.0752 Y13.9195
G01 X8.0759 Y13.9103
G01 X8.0759 Y13.4290
G01 X8.1420 Y13.4290
G01 X8.1420 Y14.0680
G00 Z2.0000
G00 X7.3609 Y14.0680
G01 F80.00
G01 Z-0.0350
G01 F80.00
G01 X7.0221 Y14.0680
G01 X7.0221 Y13.4290
G01 X7.0879 Y13.4290
G01 X7.0879 Y13.9103
G01 X7.0889 Y13.9218
G01 X7.0913 Y13.9331
G01 X7.0950 Y13.9440
G01 X7.0990 Y13.9523
G01 X7.1050 Y13.9621
G01 X7.1107 Y13.9694
G01 X7.1187 Y13.9777
G01 X7.1259 Y13.9835
G01 X7.1355 Y13.9898
G01 X7.1438 Y13.9940
G01 X7.1524 Y13.9973
G01 X7.1635 Y14.0002
G01 X7.1726 Y14.0016
G01 X7.1819 Y14.0020
G01 X7.3609 Y14.0020
G01 X7.3609 Y14.0680
G00 Z2.0000
G00 X7.0879 Y12.9870
G01 F80.00
G01 Z-0.0350
G01 F80.00
G01 X7.0221 Y12.9870
G01 X7.0221 Y12.3480
G01 X7.3609 Y12.3480
G01 X7.3609 Y12.4140
G01 X7.1819 Y12.4140
G01 X7.1726 Y12.4144
G01 X7.1613 Y12.4163
G01 X7.1502 Y12.4195
G01 X7.1417 Y12.4230
G01 X7.1316 Y12.4286
G01 X7.1222 Y12.4353
G01 X7.1138 Y12.4432
G01 X7.1064 Y12.4520
G01 X7.1001 Y12.4616
G01 X7.0950 Y12.4720
G01 X7.0926 Y12.4785
G01 X7.0901 Y12.4874
G01 X7.0886 Y12.4965
G01 X7.0879 Y12.5057
G01 X7.0879 Y12.9870
G00 Z2.0000
G00 X8.1420 Y12.9870
G01 F80.00
G01 Z-0.0350
G01 F80.00
G01 X8.0759 Y12.9870
G01 X8.0759 Y12.5057
G01 X8.0752 Y12.4965
G01 X8.0731 Y12.4851
G01 X8.0696 Y12.4741
G01 X8.0648 Y12.4637
G01 X8.0601 Y12.4558
G01 X8.0531 Y12.4466
G01 X8.0451 Y12.4383
G01 X8.0379 Y12.4325
G01 X8.0283 Y12.4262
G01 X8.0200 Y12.4220
G01 X8.0114 Y12.4187
G01 X8.0003 Y12.4158
G01 X7.9912 Y12.4144
G01 X7.9819 Y12.4140
G01 X7.8029 Y12.4140
G01 X7.8029 Y12.3480
G01 X8.1420 Y12.3480
G01 X8.1420 Y12.9870
G00 Z2.0000
G00 X9.6880 Y12.3846
G01 F80.00
G01 Z-0.0350
G01 F80.00
G01 X9.6796 Y12.3777
G01 X9.6715 Y12.3695
G01 X9.6645 Y12.3603
G01 X9.6598 Y12.3524
G01 X9.6558 Y12.3440
G01 X9.6521 Y12.3331
G01 X9.6501 Y12.3241
G01 X9.6488 Y12.3127
G01 X9.6487 Y11.7140
G01 X9.6489 Y11.7071
G01 X9.6497 Y11.7002
G01 X9.6521 Y11.6889
G01 X9.6558 Y11.6780
G01 X9.6609 Y11.6676
G01 X9.6672 Y11.6580
G01 X9.6746 Y11.6492
G01 X9.6813 Y11.6428
G01 X9.6905 Y11.6358
G01 X9.7004 Y11.6300
G01 X9.7089 Y11.6263
G01 X9.7176 Y11.6234
G01 X9.7266 Y11.6214
G01 X9.7358 Y11.6202
G01 X9.7932 Y11.6200
G01 X9.8001 Y11.6202
G01 X9.8070 Y11.6210
G01 X9.8161 Y11.6228
G01 X9.8227 Y11.6247
G01 X9.8292 Y11.6271
G01 X9.8375 Y11.6311
G01 X9.8454 Y11.6358
G01 X9.8511 Y11.6399
G01 X9.8563 Y11.6443
G01 X9.8629 Y11.6508
G01 X9.8687 Y11.6580
G01 X9.8726 Y11.6637
G01 X9.8761 Y11.6697
G01 X9.8801 Y11.6780
G01 X9.8825 Y11.6845
G01 X9.8849 Y11.6934
G01 X9.8865 Y11.7025
G01 X9.8871 Y11.7094
G01 X9.8872 Y13.4181
G01 X9.8870 Y13.4250
G01 X9.8858 Y13.4342
G01 X9.8844 Y13.4410
G01 X9.8817 Y13.4499
G01 X9.8781 Y13.4585
G01 X9.8734 Y13.4671
G01 X9.8707 Y13.4761
G01 X9.8662 Y13.4868
G01 X9.8605 Y13.4968
G01 X9.8550 Y13.5042
G01 X9.8488 Y13.5111
G01 X9.8420 Y13.5174
G01 X9.8346 Y13.5229
G01 X9.8267 Y13.5277
G01 X9.8162 Y13.5325
G01 X9.8074 Y13.5355
G01 X9.7984 Y13.5375
G01 X9.7893 Y13.5387
G01 X9.7800 Y13.5389
G01 X9.7708 Y13.5383
G01 X9.7617 Y13.5367
G01 X9.7528 Y13.5343
G01 X9.7442 Y13.5310
G01 X9.7359 Y13.5268
G01 X9.7281 Y13.5219
G01 X9.7208 Y13.5162
G01 X9.7141 Y13.5099
G01 X9.7080 Y13.5029
G01 X9.7027 Y13.4953
G01 X9.6981 Y13.4873
G01 X9.6944 Y13.4788
G01 X9.6915 Y13.4701
G01 X9.6894 Y13.4611
G01 X9.6885 Y13.4542
G01 X9.6881 Y13.4450
G01 X9.6880 Y12.3846
G00 Z2.0000
G00 X13.1030 Y12.7899
G01 F80.00
G01 Z-0.0350
G01 F80.00
G01 X13.0371 Y12.7899
G01 X13.0371 Y12.2509
G01 X13.8760 Y12.2509
G01 X13.8760 Y12.3169
G01 X13.1946 Y12.3170
G01 X13.1877 Y12.3174
G01 X13.1809 Y12.3183
G01 X13.1741 Y12.3198
G01 X13.1675 Y12.3217
G01 X13.1610 Y12.3241
G01 X13.1547 Y12.3270
G01 X13.1486 Y12.3303
G01 X13.1428 Y12.3341
G01 X13.1338 Y12.3413
G01 X13.1273 Y12.3478
G01 X13.1201 Y12.3568
G01 X13.1152 Y12.3646
G01 X13.1110 Y12.3729
G01 X13.1077 Y12.3815
G01 X13.1052 Y12.3904
G01 X13.1034 Y12.4017
G01 X13.1030 Y12.4110
G01 X13.1030 Y12.7899
G00 Z2.0000
G00 X13.8760 Y13.7711
G01 F80.00
G01 Z-0.0350
G01 F80.00
G01 X13.0371 Y13.7711
G01 X13.0371 Y13.2319
G01 X13.1030 Y13.2319
G01 X13.1030 Y13.6108
G01 X13.1034 Y13.6201
G01 X13.1048 Y13.6292
G01 X13.1077 Y13.6403
G01 X13.1120 Y13.6510
G01 X13.1175 Y13.6611
G01 X13.1228 Y13.6687
G01 X13.1305 Y13.6773
G01 X13.1391 Y13.6849
G01 X13.1467 Y13.6903
G01 X13.1526 Y13.6937
G01 X13.1589 Y13.6968
G01 X13.1697 Y13.7008
G01 X13.1764 Y13.7026
G01 X13.1832 Y13.7038
G01 X13.1946 Y13.7048
G01 X13.8760 Y13.7048
G01 X13.8760 Y13.7711
G00 Z2.0000
G00 X15.1569 Y13.7711
G01 F80.00
G01 Z-0.0350
G01 F80.00
G01 X14.3180 Y13.7711
G01 X14.3180 Y13.7048
G01 X14.9994 Y13.7048
G01 X15.0108 Y13.7038
G01 X15.0221 Y13.7014
G01 X15.0330 Y13.6977
G01 X15.0434 Y13.6926
G01 X15.0530 Y13.6863
G01 X15.0619 Y13.6789
G01 X15.0697 Y13.6705
G01 X15.0765 Y13.6611
G01 X15.0820 Y13.6510
G01 X15.0863 Y13.6403
G01 X15.0888 Y13.6314
G01 X15.0906 Y13.6201
G01 X15.0910 Y13.6108
G01 X15.0910 Y13.2319
G01 X15.1569 Y13.2319
G01 X15.1569 Y13.7711
G00 Z2.0000
G00 X15.1569 Y12.7899
G01 F80.00
G01 Z-0.0350
G01 F80.00
G01 X15.0910 Y12.7899
G01 X15.0910 Y12.4110
G01 X15.0906 Y12.4017
G01 X15.0892 Y12.3926
G01 X15.0863 Y12.3815
G01 X15.0820 Y12.3708
G01 X15.0777 Y12.3626
G01 X15.0712 Y12.3531
G01 X15.0651 Y12.3461
G01 X15.0567 Y12.3383
G01 X15.0473 Y12.3315
G01 X15.0372 Y12.3260
G01 X15.0309 Y12.3232
G01 X15.0243 Y12.3210
G01 X15.0176 Y12.3192
G01 X15.0108 Y12.3180
G01 X14.9994 Y12.3170
G01 X14.3180 Y12.3170
G01 X14.3180 Y12.2509
G01 X15.1569 Y12.2509
G01 X15.1569 Y12.7899
G00 Z2.0000
G00 X15.4495 Y7.0786
G01 F80.00
G01 Z-0.0350
G01 F80.00
G01 X14.9558 Y7.5723
G01 X14.9488 Y7.5783
G01 X14.9393 Y7.5848
G01 X14.9312 Y7.5891
G01 X14.9205 Y7.5934
G01 X14.9116 Y7.5959
G01 X14.9048 Y7.5972
G01 X14.8979 Y7.5979
G01 X14.8910 Y7.5982
G01 X14.1717 Y7.5982
G01 X14.1648 Y7.5979
G01 X14.1579 Y7.5972
G01 X14.1511 Y7.5959
G01 X14.1444 Y7.5941
G01 X14.1379 Y7.5919
G01 X14.1315 Y7.5891
G01 X14.1253 Y7.5860
G01 X14.1195 Y7.5823
G01 X14.1139 Y7.5783
G01 X14.1086 Y7.5738
G01 X14.1036 Y7.5690
G01 X14.0990 Y7.5638
G01 X14.0948 Y7.5583
G01 X14.0911 Y7.5525
G01 X14.0877 Y7.5464
G01 X14.0848 Y7.5401
G01 X14.0824 Y7.5337
G01 X14.0795 Y7.5225
G01 X14.0784 Y7.5157
G01 X14.0778 Y7.5088
G01 X14.0777 Y7.5019
G01 X14.0781 Y7.4950
G01 X14.0800 Y7.4836
G01 X14.0832 Y7.4725
G01 X14.0857 Y7.4661
G01 X14.0888 Y7.4599
G01 X14.0948 Y7.4500
G01 X14.0990 Y7.4445
G01 X14.1036 Y7.4394
G01 X16.2736 Y5.2693
G01 X16.2787 Y5.2646
G01 X16.2859 Y5.2589
G01 X16.2937 Y5.2540
G01 X16.2999 Y5.2508
G01 X16.3106 Y5.2465
G01 X16.3195 Y5.2441
G01 X16.3286 Y5.2425
G01 X16.3378 Y5.2418
G01 X16.5616 Y5.2418
G01 X16.5730 Y5.2425
G01 X16.5842 Y5.2446
G01 X16.5908 Y5.2465
G01 X16.5973 Y5.2488
G01 X16.6076 Y5.2538
G01 X16.6172 Y5.2600
G01 X16.6260 Y5.2673
G01 X16.6338 Y5.2757
G01 X16.6406 Y5.2849
G01 X16.7678 Y5.5051
G01 X16.9738 Y5.7111
G01 X17.2260 Y5.8565
G01 X17.5074 Y5.9319
G01 X17.7986 Y5.9319
G01 X18.0800 Y5.8565
G01 X18.3322 Y5.7111
G01 X18.5381 Y5.5052
G01 X18.6456 Y5.3188
G01 X18.6508 Y5.3112
G01 X18.6567 Y5.3042
G01 X18.6632 Y5.2977
G01 X18.6704 Y5.2919
G01 X18.6781 Y5.2869
G01 X18.6883 Y5.2816
G01 X18.6969 Y5.2784
G01 X18.7058 Y5.2760
G01 X18.7171 Y5.2742
G01 X18.7263 Y5.2738
G01 X18.7355 Y5.2743
G01 X18.7469 Y5.2762
G01 X18.7557 Y5.2786
G01 X18.7664 Y5.2830
G01 X18.7745 Y5.2873
G01 X18.7839 Y5.2938
G01 X18.7925 Y5.3015
G01 X18.7987 Y5.3083
G01 X18.8041 Y5.3157
G01 X18.8089 Y5.3236
G01 X18.8136 Y5.3341
G01 X18.8171 Y5.3450
G01 X18.8192 Y5.3563
G01 X18.8199 Y5.3678
G01 X18.8199 Y6.8265
G01 X18.8189 Y6.8380
G01 X18.8176 Y6.8447
G01 X18.8159 Y6.8514
G01 X18.8119 Y6.8622
G01 X18.8089 Y6.8684
G01 X18.8054 Y6.8744
G01 X18.8015 Y6.8801
G01 X18.7972 Y6.8855
G01 X18.7892 Y6.8937
G01 X18.7839 Y6.8982
G01 X18.7783 Y6.9022
G01 X18.7684 Y6.9080
G01 X18.7622 Y6.9109
G01 X18.7557 Y6.9134
G01 X18.7491 Y6.9153
G01 X18.7423 Y6.9168
G01 X18.7355 Y6.9177
G01 X18.7286 Y6.9182
G01 X18.7217 Y6.9181
G01 X18.7149 Y6.9176
G01 X18.7080 Y6.9165
G01 X18.7013 Y6.9149
G01 X18.6947 Y6.9129
G01 X18.6883 Y6.9104
G01 X18.6821 Y6.9074
G01 X18.6761 Y6.9039
G01 X18.6704 Y6.9001
G01 X18.6650 Y6.8958
G01 X18.6599 Y6.8911
G01 X18.6552 Y6.8861
G01 X18.6494 Y6.8789
G01 X18.6456 Y6.8732
G01 X18.5382 Y6.6869
G01 X18.3322 Y6.4811
G01 X18.0800 Y6.3355
G01 X17.7986 Y6.2601
G01 X17.5074 Y6.2601
G01 X17.2260 Y6.3355
G01 X16.9738 Y6.4811
G01 X16.7678 Y6.6869
G01 X16.6393 Y6.9090
G01 X16.6353 Y6.9146
G01 X16.6308 Y6.9198
G01 X16.6260 Y6.9247
G01 X16.6208 Y6.9292
G01 X16.6153 Y6.9333
G01 X16.6096 Y6.9370
G01 X16.6035 Y6.9403
G01 X16.5973 Y6.9432
G01 X16.5886 Y6.9462
G01 X16.5798 Y6.9484
G01 X16.5707 Y6.9498
G01 X16.5616 Y6.9502
G01 X15.7595 Y6.9502
G01 X15.5918 Y6.9835
G01 X15.4495 Y7.0786
G00 Z2.0000
G00 X21.5295 Y28.6415
G01 F80.00
G01 Z-0.0350
G01 F80.00
G01 X20.0055 Y30.1655
G01 X19.9986 Y30.1717
G01 X19.9912 Y30.1772
G01 X19.9833 Y30.1819
G01 X19.9771 Y30.1849
G01 X19.9685 Y30.1883
G01 X19.9596 Y30.1907
G01 X19.9505 Y30.1923
G01 X19.9413 Y30.1930
G01 X1.0114 Y30.1929
G01 X1.0022 Y30.1920
G01 X0.9954 Y30.1907
G01 X0.9865 Y30.1883
G01 X0.9779 Y30.1849
G01 X0.9717 Y30.1819
G01 X0.9638 Y30.1772
G01 X0.9582 Y30.1731
G01 X0.9512 Y30.1671
G01 X0.0605 Y29.2765
G01 X0.0558 Y29.2714
G01 X0.0501 Y29.2641
G01 X0.0464 Y29.2583
G01 X0.0430 Y29.2523
G01 X0.0402 Y29.2460
G01 X0.0377 Y29.2395
G01 X0.0358 Y29.2328
G01 X0.0340 Y29.2238
G01 X0.0333 Y29.2169
G01 X0.0330 Y29.2100
G01 X0.0331 Y1.5194
G01 X0.0340 Y1.5102
G01 X0.0358 Y1.5012
G01 X0.0385 Y1.4923
G01 X0.0411 Y1.4859
G01 X0.0452 Y1.4777
G01 X0.0501 Y1.4699
G01 X0.0558 Y1.4626
G01 X0.0605 Y1.4575
G01 X1.5845 Y-0.0665
G01 X1.5914 Y-0.0727
G01 X1.5969 Y-0.0769
G01 X1.6027 Y-0.0806
G01 X1.6108 Y-0.0850
G01 X1.6172 Y-0.0877
G01 X1.6237 Y-0.0899
G01 X1.6304 Y-0.0917
G01 X1.6372 Y-0.0930
G01 X1.6441 Y-0.0937
G01 X1.6510 Y-0.0940
G01 X19.8120 Y-0.0940
G01 X19.8189 Y-0.0937
G01 X19.8258 Y-0.0930
G01 X19.8348 Y-0.0912
G01 X19.8415 Y-0.0893
G01 X19.8501 Y-0.0859
G01 X19.8583 Y-0.0818
G01 X19.8642 Y-0.0782
G01 X19.8716 Y-0.0727
G01 X19.8785 Y-0.0665
G01 X21.5295 Y1.5845
G01 X21.5357 Y1.5914
G01 X21.5399 Y1.5969
G01 X21.5436 Y1.6027
G01 X21.5480 Y1.6108
G01 X21.5507 Y1.6172
G01 X21.5529 Y1.6237
G01 X21.5547 Y1.6304
G01 X21.5560 Y1.6372
G01 X21.5567 Y1.6441
G01 X21.5570 Y1.6510
G01 X21.5570 Y28.5750
G01 X21.5565 Y28.5842
G01 X21.5552 Y28.5933
G01 X21.5529 Y28.6023
G01 X21.5498 Y28.6110
G01 X21.5459 Y28.6193
G01 X21.5412 Y28.6272
G01 X21.5357 Y28.6346
G01 X21.5295 Y28.6415
G00 Z2.0000
M05
G00 Z2.0000
G00 Z15.00


