(G-CODE GENERATED BY FLATCAM v8.994 - www.flatcam.org - Version Date: 2020/11/7)

(Name: PCB3.GTL_iso_combined_cnc)
(Type: G-code from Geometry)
(Units: MM)

(Created on Thursday, 09 February 2023 at 18:27)

(This preprocessor is the default preprocessor used by FlatCAM.)
(It is made to work with MACH3 compatible motion controllers.)

(TOOL DIAMETER: 0.1 mm)
(Feedrate_XY: 80.0 mm/min)
(Feedrate_Z: 80.0 mm/min)
(Feedrate rapids 1500.0 mm/min)

(Z_Cut: -0.045 mm)
(Z_Move: 1.5 mm)
(Z Start: None mm)
(Z End: 15.0 mm)
(X,Y End: None mm)
(Steps per circle: 64)
(Preprocessor Geometry: default)

(X range:   -0.0500 ...   24.0530  mm)
(Y range:   -0.0500 ...   24.1800  mm)

(Spindle Speed: 10000.0 RPM)
G21
G90
G94

G01 F80.00

M5
G00 Z15.0000
G00 X0.0000 Y0.0000
T1
M6    
(MSG, Change to Tool Dia = 0.1000)
M0
G00 Z15.0000

M03 S10000.0
G01 F80.00
G00 X1.3548 Y2.7915
G01 F80.00
G01 Z-0.0450
G01 F80.00
G01 X1.3574 Y2.7401
G01 X1.3653 Y2.6867
G01 X1.3784 Y2.6343
G01 X1.3966 Y2.5834
G01 X1.4197 Y2.5346
G01 X1.4475 Y2.4883
G01 X1.4797 Y2.4449
G01 X1.5151 Y2.4058
G01 X2.7877 Y1.1332
G01 X2.8259 Y1.0987
G01 X2.8673 Y1.0679
G01 X2.9156 Y1.0387
G01 X2.9644 Y1.0156
G01 X3.0129 Y0.9982
G01 X3.0701 Y0.9839
G01 X3.1211 Y0.9764
G01 X3.1750 Y0.9738
G01 X7.0553 Y0.9738
G01 X7.0587 Y0.9674
G01 X7.0631 Y0.9615
G01 X7.0674 Y0.9571
G01 X7.0732 Y0.9526
G01 X7.0796 Y0.9490
G01 X7.0864 Y0.9463
G01 X7.0936 Y0.9447
G01 X7.0997 Y0.9442
G01 X8.9010 Y0.9442
G01 X8.9072 Y0.9445
G01 X8.9144 Y0.9460
G01 X8.9213 Y0.9484
G01 X8.9278 Y0.9519
G01 X8.9337 Y0.9563
G01 X8.9389 Y0.9615
G01 X8.9433 Y0.9674
G01 X8.9467 Y0.9738
G01 X12.6223 Y0.9738
G01 X12.6762 Y0.9764
G01 X12.7320 Y0.9849
G01 X12.7820 Y0.9974
G01 X12.8306 Y1.0148
G01 X12.8817 Y1.0387
G01 X12.9300 Y1.0679
G01 X12.9713 Y1.0987
G01 X13.0105 Y1.1341
G01 X13.5971 Y1.7206
G01 X13.6317 Y1.7588
G01 X13.6655 Y1.8040
G01 X13.6933 Y1.8503
G01 X13.7164 Y1.8992
G01 X13.7342 Y1.9488
G01 X13.7481 Y2.0048
G01 X13.7556 Y2.0558
G01 X13.7582 Y2.1097
G01 X13.7582 Y4.0901
G01 X15.7569 Y6.0888
G01 X15.7923 Y6.1279
G01 X15.8231 Y6.1693
G01 X15.8523 Y6.2176
G01 X15.8762 Y6.2687
G01 X15.8936 Y6.3173
G01 X15.9064 Y6.3685
G01 X15.9146 Y6.4231
G01 X15.9172 Y6.4795
G01 X15.9146 Y6.5309
G01 X15.9071 Y6.5819
G01 X15.8939 Y6.6355
G01 X15.8754 Y6.6876
G01 X15.8517 Y6.7375
G01 X15.8231 Y6.7847
G01 X15.7923 Y6.8261
G01 X15.7672 Y6.8539
G01 X15.7672 Y8.7072
G01 X15.8432 Y8.7072
G01 X15.8505 Y8.7079
G01 X15.8577 Y8.7097
G01 X15.8645 Y8.7125
G01 X15.8698 Y8.7156
G01 X15.8756 Y8.7201
G01 X15.8798 Y8.7245
G01 X15.8842 Y8.7304
G01 X15.8872 Y8.7358
G01 X15.8895 Y8.7415
G01 X15.8912 Y8.7486
G01 X15.8920 Y8.7572
G01 X15.8920 Y9.3571
G01 X15.8914 Y9.3644
G01 X15.8895 Y9.3728
G01 X15.8866 Y9.3796
G01 X15.8836 Y9.3849
G01 X15.8798 Y9.3898
G01 X15.8746 Y9.3950
G01 X15.8698 Y9.3987
G01 X15.8634 Y9.4023
G01 X15.8577 Y9.4046
G01 X15.8505 Y9.4064
G01 X15.8420 Y9.4071
G01 X15.5607 Y9.4071
G01 X15.5535 Y9.4112
G01 X15.5201 Y9.4269
G01 X15.4808 Y9.4407
G01 X15.4451 Y9.4496
G01 X15.4087 Y9.4551
G01 X15.3682 Y9.4573
G01 X15.3253 Y9.4551
G01 X15.2889 Y9.4496
G01 X15.2532 Y9.4407
G01 X15.2139 Y9.4269
G01 X15.1805 Y9.4112
G01 X15.1733 Y9.4071
G01 X14.8920 Y9.4071
G01 X14.8835 Y9.4064
G01 X14.8763 Y9.4046
G01 X14.8695 Y9.4018
G01 X14.8632 Y9.3980
G01 X14.8575 Y9.3933
G01 X14.8526 Y9.3879
G01 X14.8479 Y9.3807
G01 X14.8449 Y9.3739
G01 X14.8430 Y9.3669
G01 X14.8421 Y9.3596
G01 X14.8420 Y8.7572
G01 X14.8424 Y8.7510
G01 X14.8438 Y8.7438
G01 X14.8463 Y8.7369
G01 X14.8498 Y8.7304
G01 X14.8534 Y8.7254
G01 X14.8584 Y8.7201
G01 X14.8632 Y8.7163
G01 X14.8695 Y8.7125
G01 X14.8752 Y8.7101
G01 X14.8835 Y8.7079
G01 X14.8908 Y8.7072
G01 X14.9668 Y8.7072
G01 X14.9668 Y6.8550
G01 X12.8189 Y4.7071
G01 X12.7811 Y4.6651
G01 X12.7505 Y4.6237
G01 X12.7227 Y4.5774
G01 X12.6996 Y4.5286
G01 X12.6808 Y4.4754
G01 X12.6683 Y4.4253
G01 X12.6607 Y4.3744
G01 X12.6578 Y4.3192
G01 X12.6578 Y2.3376
G01 X12.3944 Y2.0742
G01 X11.4910 Y2.0742
G01 X11.4910 Y2.3210
G01 X11.4903 Y2.3296
G01 X11.4881 Y2.3379
G01 X11.4846 Y2.3457
G01 X11.4789 Y2.3537
G01 X11.4728 Y2.3597
G01 X11.4657 Y2.3646
G01 X11.4579 Y2.3681
G01 X11.4496 Y2.3703
G01 X11.4410 Y2.3710
G01 X9.6410 Y2.3710
G01 X9.6336 Y2.3705
G01 X9.6253 Y2.3685
G01 X9.6185 Y2.3657
G01 X9.6112 Y2.3612
G01 X9.6056 Y2.3564
G01 X9.6001 Y2.3498
G01 X9.5963 Y2.3435
G01 X9.5935 Y2.3367
G01 X9.5915 Y2.3284
G01 X9.5910 Y2.3210
G01 X9.5910 Y2.0742
G01 X8.9510 Y2.0742
G01 X8.9510 Y2.1953
G01 X8.9503 Y2.2026
G01 X8.9489 Y2.2086
G01 X8.9457 Y2.2165
G01 X8.9419 Y2.2228
G01 X8.9364 Y2.2294
G01 X8.9308 Y2.2342
G01 X8.9235 Y2.2387
G01 X8.9167 Y2.2415
G01 X8.9084 Y2.2435
G01 X8.9010 Y2.2440
G01 X7.0961 Y2.2438
G01 X7.0888 Y2.2426
G01 X7.0818 Y2.2402
G01 X7.0742 Y2.2363
G01 X7.0683 Y2.2319
G01 X7.0631 Y2.2267
G01 X7.0587 Y2.2208
G01 X7.0552 Y2.2143
G01 X7.0528 Y2.2074
G01 X7.0515 Y2.2014
G01 X7.0510 Y2.1953
G01 X7.0510 Y2.0742
G01 X3.4029 Y2.0742
G01 X2.4552 Y3.0219
G01 X2.4552 Y16.2821
G01 X5.1861 Y19.0129
G01 X5.2082 Y19.0120
G01 X5.2842 Y19.0157
G01 X5.3619 Y19.0271
G01 X5.4392 Y19.0464
G01 X5.5143 Y19.0733
G01 X5.5841 Y19.1064
G01 X5.6535 Y19.1482
G01 X5.7164 Y19.1951
G01 X5.7727 Y19.2463
G01 X5.8186 Y19.2968
G01 X8.2199 Y19.2968
G01 X8.2739 Y19.2995
G01 X8.3261 Y19.3072
G01 X8.3785 Y19.3202
G01 X8.4116 Y19.3319
G01 X10.1178 Y19.3319
G01 X10.1178 Y17.1438
G01 X10.1204 Y17.0911
G01 X10.1283 Y17.0377
G01 X10.1414 Y16.9853
G01 X10.1596 Y16.9344
G01 X10.1827 Y16.8856
G01 X10.2105 Y16.8393
G01 X10.2427 Y16.7959
G01 X10.2789 Y16.7559
G01 X11.6759 Y15.3589
G01 X11.7179 Y15.3211
G01 X11.7593 Y15.2905
G01 X11.8056 Y15.2627
G01 X11.8567 Y15.2388
G01 X11.9053 Y15.2214
G01 X11.9553 Y15.2089
G01 X12.0111 Y15.2004
G01 X12.0650 Y15.1978
G01 X17.7378 Y15.1978
G01 X17.7378 Y14.0709
G01 X17.0099 Y13.3431
G01 X16.9737 Y13.3031
G01 X16.9429 Y13.2617
G01 X16.9399 Y13.2572
G01 X15.3670 Y13.2572
G01 X15.3253 Y13.2552
G01 X15.2768 Y13.2480
G01 X15.2363 Y13.2378
G01 X15.1947 Y13.2229
G01 X15.1526 Y13.2028
G01 X15.1169 Y13.1813
G01 X15.0839 Y13.1569
G01 X14.8883 Y13.1568
G01 X14.8787 Y13.1551
G01 X14.8695 Y13.1516
G01 X14.8613 Y13.1463
G01 X14.8542 Y13.1396
G01 X14.8491 Y13.1326
G01 X14.8454 Y13.1249
G01 X14.8430 Y13.1167
G01 X14.8420 Y13.1069
G01 X14.8420 Y12.5070
G01 X14.8424 Y12.5008
G01 X14.8435 Y12.4948
G01 X14.8454 Y12.4890
G01 X14.8479 Y12.4834
G01 X14.8511 Y12.4782
G01 X14.8550 Y12.4734
G01 X14.8594 Y12.4691
G01 X14.8632 Y12.4661
G01 X14.8685 Y12.4629
G01 X14.8740 Y12.4603
G01 X14.8799 Y12.4585
G01 X14.8859 Y12.4573
G01 X14.8920 Y12.4570
G01 X15.0839 Y12.4570
G01 X15.1169 Y12.4326
G01 X15.1526 Y12.4111
G01 X15.1925 Y12.3920
G01 X15.2363 Y12.3761
G01 X15.2792 Y12.3653
G01 X15.3229 Y12.3589
G01 X15.3670 Y12.3567
G01 X17.2532 Y12.3567
G01 X17.2961 Y12.3589
G01 X17.3410 Y12.3656
G01 X17.3850 Y12.3768
G01 X17.4242 Y12.3910
G01 X17.4587 Y12.4072
G01 X17.5063 Y12.4143
G01 X17.5599 Y12.4278
G01 X17.6096 Y12.4456
G01 X17.6605 Y12.4699
G01 X17.7047 Y12.4965
G01 X17.7461 Y12.5271
G01 X17.7863 Y12.5632
G01 X18.6771 Y13.4539
G01 X18.7133 Y13.4939
G01 X18.7441 Y13.5353
G01 X18.7744 Y13.5858
G01 X18.7964 Y13.6324
G01 X18.8146 Y13.6833
G01 X18.8277 Y13.7357
G01 X18.8356 Y13.7891
G01 X18.8382 Y13.8430
G01 X18.8382 Y15.2980
G01 X18.9880 Y15.2980
G01 X18.9941 Y15.2983
G01 X18.9990 Y15.2992
G01 X19.0072 Y15.3018
G01 X19.0137 Y15.3051
G01 X19.0197 Y15.3093
G01 X19.0251 Y15.3144
G01 X19.0296 Y15.3202
G01 X19.0332 Y15.3266
G01 X19.0362 Y15.3346
G01 X19.0376 Y15.3418
G01 X19.0380 Y15.3480
G01 X19.0380 Y16.1480
G01 X19.0373 Y16.1566
G01 X19.0355 Y16.1637
G01 X19.0327 Y16.1705
G01 X19.0282 Y16.1778
G01 X19.0242 Y16.1825
G01 X19.0207 Y16.1859
G01 X19.0158 Y16.1896
G01 X19.0116 Y16.1921
G01 X19.0072 Y16.1942
G01 X19.0014 Y16.1962
G01 X18.9954 Y16.1975
G01 X18.9905 Y16.1980
G01 X18.6039 Y16.1980
G01 X18.5927 Y16.2062
G01 X18.5463 Y16.2338
G01 X18.4986 Y16.2564
G01 X18.4489 Y16.2742
G01 X18.3929 Y16.2881
G01 X18.3419 Y16.2956
G01 X18.2892 Y16.2982
G01 X12.2929 Y16.2982
G01 X11.2182 Y17.3729
G01 X11.2182 Y19.3319
G01 X12.1310 Y19.3319
G01 X12.1311 Y19.2785
G01 X12.1328 Y19.2688
G01 X12.1363 Y19.2597
G01 X12.1394 Y19.2544
G01 X12.1439 Y19.2486
G01 X12.1492 Y19.2435
G01 X12.1542 Y19.2399
G01 X12.1607 Y19.2364
G01 X12.1664 Y19.2343
G01 X12.1736 Y19.2327
G01 X12.1797 Y19.2322
G01 X13.9810 Y19.2322
G01 X13.9859 Y19.2324
G01 X13.9920 Y19.2334
G01 X14.0013 Y19.2364
G01 X14.0078 Y19.2399
G01 X14.0128 Y19.2435
G01 X14.0181 Y19.2486
G01 X14.0226 Y19.2544
G01 X14.0262 Y19.2608
G01 X14.0289 Y19.2676
G01 X14.0303 Y19.2736
G01 X14.0310 Y19.2809
G01 X14.0310 Y20.4820
G01 X14.0303 Y20.4906
G01 X14.0285 Y20.4977
G01 X14.0251 Y20.5056
G01 X14.0212 Y20.5118
G01 X14.0155 Y20.5183
G01 X14.0098 Y20.5229
G01 X14.0024 Y20.5272
G01 X13.9956 Y20.5299
G01 X13.9884 Y20.5315
G01 X13.9810 Y20.5320
G01 X12.1785 Y20.5320
G01 X12.1724 Y20.5313
G01 X12.1653 Y20.5295
G01 X12.1596 Y20.5272
G01 X12.1532 Y20.5236
G01 X12.1483 Y20.5199
G01 X12.1431 Y20.5147
G01 X12.1394 Y20.5098
G01 X12.1358 Y20.5034
G01 X12.1325 Y20.4942
G01 X12.1311 Y20.4857
G01 X12.1310 Y20.4324
G01 X8.2550 Y20.4324
G01 X8.2011 Y20.4297
G01 X8.1489 Y20.4220
G01 X8.0965 Y20.4090
G01 X8.0633 Y20.3973
G01 X5.7512 Y20.3973
G01 X5.7136 Y20.4312
G01 X5.6505 Y20.4779
G01 X5.5841 Y20.5176
G01 X5.5120 Y20.5516
G01 X5.4392 Y20.5776
G01 X5.3631 Y20.5967
G01 X5.2854 Y20.6082
G01 X5.2070 Y20.6121
G01 X5.1286 Y20.6082
G01 X5.0533 Y20.5971
G01 X4.9724 Y20.5768
G01 X4.9008 Y20.5512
G01 X4.8299 Y20.5176
G01 X4.7625 Y20.4772
G01 X4.7014 Y20.4320
G01 X4.6413 Y20.3777
G01 X4.5870 Y20.3176
G01 X4.5418 Y20.2565
G01 X4.5026 Y20.1913
G01 X4.4683 Y20.1193
G01 X4.4414 Y20.0442
G01 X4.4221 Y19.9669
G01 X4.4107 Y19.8892
G01 X4.4070 Y19.8132
G01 X4.4079 Y19.7911
G01 X1.5151 Y16.8982
G01 X1.4797 Y16.8591
G01 X1.4489 Y16.8177
G01 X1.4197 Y16.7694
G01 X1.3966 Y16.7206
G01 X1.3792 Y16.6721
G01 X1.3653 Y16.6173
G01 X1.3574 Y16.5639
G01 X1.3548 Y16.5100
G01 X1.3548 Y2.7915
G00 Z1.5000
G00 X4.4569 Y6.3119
G01 F80.00
G01 Z-0.0450
G01 F80.00
G01 X5.9571 Y6.3119
G01 X5.9644 Y6.3125
G01 X5.9716 Y6.3141
G01 X5.9795 Y6.3173
G01 X5.9858 Y6.3211
G01 X5.9924 Y6.3266
G01 X5.9979 Y6.3331
G01 X6.0017 Y6.3395
G01 X6.0045 Y6.3463
G01 X6.0063 Y6.3534
G01 X6.0071 Y6.3619
G01 X6.0071 Y6.5618
G01 X6.7310 Y6.5618
G01 X6.7849 Y6.5644
G01 X6.8383 Y6.5723
G01 X6.8884 Y6.5848
G01 X6.9416 Y6.6036
G01 X6.9925 Y6.6279
G01 X7.0367 Y6.6545
G01 X7.0703 Y6.6793
G01 X7.5758 Y6.1739
G01 X7.5758 Y4.6438
G01 X7.0985 Y4.6438
G01 X7.0924 Y4.6431
G01 X7.0853 Y4.6413
G01 X7.0785 Y4.6385
G01 X7.0722 Y4.6347
G01 X7.0674 Y4.6309
G01 X7.0623 Y4.6256
G01 X7.0581 Y4.6195
G01 X7.0548 Y4.6130
G01 X7.0519 Y4.6036
G01 X7.0510 Y4.5938
G01 X7.0510 Y3.3940
G01 X7.0513 Y3.3878
G01 X7.0525 Y3.3818
G01 X7.0543 Y3.3760
G01 X7.0574 Y3.3693
G01 X7.0608 Y3.3642
G01 X7.0647 Y3.3595
G01 X7.0702 Y3.3545
G01 X7.0752 Y3.3511
G01 X7.0807 Y3.3482
G01 X7.0864 Y3.3461
G01 X7.0936 Y3.3445
G01 X7.0997 Y3.3440
G01 X8.9010 Y3.3440
G01 X8.9096 Y3.3447
G01 X8.9167 Y3.3465
G01 X8.9235 Y3.3493
G01 X8.9308 Y3.3538
G01 X8.9364 Y3.3586
G01 X8.9412 Y3.3642
G01 X8.9451 Y3.3704
G01 X8.9481 Y3.3771
G01 X8.9501 Y3.3842
G01 X8.9510 Y3.3927
G01 X8.9510 Y4.5938
G01 X8.9501 Y4.6036
G01 X8.9477 Y4.6118
G01 X8.9446 Y4.6185
G01 X8.9405 Y4.6246
G01 X8.9355 Y4.6301
G01 X8.9298 Y4.6347
G01 X8.9235 Y4.6385
G01 X8.9179 Y4.6409
G01 X8.9108 Y4.6429
G01 X8.9035 Y4.6438
G01 X8.4262 Y4.6438
G01 X8.4262 Y6.3500
G01 X8.4242 Y6.3917
G01 X8.4185 Y6.4305
G01 X8.4075 Y6.4746
G01 X8.3938 Y6.5127
G01 X8.3748 Y6.5526
G01 X8.3546 Y6.5862
G01 X8.3312 Y6.6178
G01 X8.3034 Y6.6489
G01 X7.5478 Y7.4046
G01 X8.7501 Y8.6069
G01 X13.3670 Y8.6069
G01 X13.4111 Y8.6091
G01 X13.4524 Y8.6151
G01 X13.4977 Y8.6263
G01 X13.5415 Y8.6422
G01 X13.5814 Y8.6613
G01 X13.6171 Y8.6828
G01 X13.6501 Y8.7072
G01 X13.8469 Y8.7074
G01 X13.8529 Y8.7084
G01 X13.8588 Y8.7101
G01 X13.8645 Y8.7125
G01 X13.8698 Y8.7156
G01 X13.8746 Y8.7193
G01 X13.8782 Y8.7227
G01 X13.8821 Y8.7274
G01 X13.8855 Y8.7325
G01 X13.8882 Y8.7380
G01 X13.8902 Y8.7438
G01 X13.8916 Y8.7510
G01 X13.8920 Y8.7572
G01 X13.8920 Y9.3571
G01 X13.8912 Y9.3657
G01 X13.8895 Y9.3728
G01 X13.8866 Y9.3796
G01 X13.8829 Y9.3859
G01 X13.8790 Y9.3907
G01 X13.8737 Y9.3958
G01 X13.8677 Y9.4000
G01 X13.8622 Y9.4028
G01 X13.8565 Y9.4050
G01 X13.8493 Y9.4066
G01 X13.8420 Y9.4071
G01 X13.6501 Y9.4071
G01 X13.6171 Y9.4315
G01 X13.5792 Y9.4542
G01 X13.5393 Y9.4731
G01 X13.5000 Y9.4872
G01 X13.4524 Y9.4991
G01 X13.4111 Y9.5052
G01 X13.3695 Y9.5073
G01 X8.7377 Y9.5074
G01 X8.7268 Y9.5153
G01 X8.6826 Y9.5418
G01 X8.6327 Y9.5655
G01 X8.5819 Y9.5837
G01 X8.5271 Y9.5972
G01 X8.4761 Y9.6047
G01 X8.4246 Y9.6073
G01 X8.3706 Y9.6049
G01 X8.3148 Y9.5968
G01 X8.2612 Y9.5833
G01 X8.2093 Y9.5645
G01 X8.1627 Y9.5424
G01 X8.1185 Y9.5160
G01 X8.0731 Y9.4825
G01 X8.0339 Y9.4471
G01 X6.2491 Y7.6622
G01 X6.0071 Y7.6622
G01 X6.0071 Y7.8621
G01 X6.0063 Y7.8706
G01 X6.0045 Y7.8777
G01 X6.0012 Y7.8856
G01 X5.9972 Y7.8918
G01 X5.9915 Y7.8983
G01 X5.9858 Y7.9029
G01 X5.9784 Y7.9073
G01 X5.9716 Y7.9099
G01 X5.9632 Y7.9117
G01 X5.9571 Y7.9121
G01 X4.4569 Y7.9121
G01 X4.4484 Y7.9113
G01 X4.4401 Y7.9091
G01 X4.4312 Y7.9049
G01 X4.4243 Y7.8999
G01 X4.4207 Y7.8965
G01 X4.4168 Y7.8918
G01 X4.4117 Y7.8834
G01 X4.4095 Y7.8777
G01 X4.4082 Y7.8730
G01 X4.4073 Y7.8682
G01 X4.4069 Y7.8621
G01 X4.4070 Y6.3607
G01 X4.4082 Y6.3510
G01 X4.4112 Y6.3417
G01 X4.4161 Y6.3332
G01 X4.4225 Y6.3257
G01 X4.4302 Y6.3197
G01 X4.4378 Y6.3157
G01 X4.4472 Y6.3129
G01 X4.4569 Y6.3119
G00 Z1.5000
G00 X5.8649 Y9.1975
G01 F80.00
G01 Z-0.0450
G01 F80.00
G01 X7.3393 Y9.1975
G01 X7.3933 Y9.2002
G01 X7.4491 Y9.2086
G01 X7.4991 Y9.2212
G01 X7.5476 Y9.2385
G01 X7.5965 Y9.2614
G01 X7.6450 Y9.2902
G01 X7.6884 Y9.3224
G01 X7.7284 Y9.3587
G01 X8.1306 Y9.7609
G01 X9.7180 Y9.7609
G01 X9.7180 Y9.6170
G01 X9.7183 Y9.6108
G01 X9.7195 Y9.6048
G01 X9.7218 Y9.5978
G01 X9.7257 Y9.5902
G01 X9.7301 Y9.5843
G01 X9.7362 Y9.5783
G01 X9.7433 Y9.5734
G01 X9.7500 Y9.5703
G01 X9.7570 Y9.5682
G01 X9.7655 Y9.5670
G01 X11.5693 Y9.5670
G01 X11.5778 Y9.5679
G01 X11.5860 Y9.5703
G01 X11.5938 Y9.5741
G01 X11.6007 Y9.5791
G01 X11.6067 Y9.5852
G01 X11.6116 Y9.5923
G01 X11.6151 Y9.6001
G01 X11.6173 Y9.6084
G01 X11.6180 Y9.6170
G01 X11.6180 Y9.8568
G01 X13.3670 Y9.8568
G01 X13.4111 Y9.8590
G01 X13.4536 Y9.8652
G01 X13.4977 Y9.8762
G01 X13.5415 Y9.8921
G01 X13.5814 Y9.9112
G01 X13.6171 Y9.9327
G01 X13.6501 Y9.9571
G01 X13.8469 Y9.9573
G01 X13.8529 Y9.9583
G01 X13.8577 Y9.9596
G01 X13.8634 Y9.9619
G01 X13.8687 Y9.9649
G01 X13.8737 Y9.9684
G01 X13.8782 Y9.9726
G01 X13.8821 Y9.9773
G01 X13.8849 Y9.9814
G01 X13.8882 Y9.9880
G01 X13.8902 Y9.9938
G01 X13.8916 Y10.0010
G01 X13.8920 Y10.0071
G01 X13.8920 Y10.6070
G01 X13.8912 Y10.6156
G01 X13.8895 Y10.6227
G01 X13.8872 Y10.6284
G01 X13.8836 Y10.6348
G01 X13.8798 Y10.6397
G01 X13.8746 Y10.6449
G01 X13.8687 Y10.6493
G01 X13.8622 Y10.6527
G01 X13.8565 Y10.6549
G01 X13.8493 Y10.6565
G01 X13.8420 Y10.6570
G01 X13.6501 Y10.6570
G01 X13.6171 Y10.6814
G01 X13.5814 Y10.7029
G01 X13.5393 Y10.7230
G01 X13.4977 Y10.7379
G01 X13.4572 Y10.7481
G01 X13.4099 Y10.7553
G01 X13.3670 Y10.7573
G01 X11.6180 Y10.7573
G01 X11.6180 Y10.8193
G01 X11.6168 Y10.8278
G01 X11.6138 Y10.8371
G01 X11.6103 Y10.8436
G01 X11.6059 Y10.8495
G01 X11.6007 Y10.8547
G01 X11.5958 Y10.8584
G01 X11.5894 Y10.8620
G01 X11.5837 Y10.8643
G01 X11.5778 Y10.8659
G01 X11.5705 Y10.8668
G01 X9.7680 Y10.8668
G01 X9.7618 Y10.8665
G01 X9.7558 Y10.8653
G01 X9.7500 Y10.8635
G01 X9.7452 Y10.8614
G01 X7.9027 Y10.8614
G01 X7.8512 Y10.8589
G01 X7.7930 Y10.8503
G01 X7.7430 Y10.8377
G01 X7.6921 Y10.8195
G01 X7.6412 Y10.7952
G01 X7.5970 Y10.7686
G01 X7.5556 Y10.7380
G01 X7.5136 Y10.7002
G01 X7.1114 Y10.2980
G01 X5.6775 Y10.2980
G01 X5.6505 Y10.3179
G01 X5.5831 Y10.3582
G01 X5.5132 Y10.3912
G01 X5.4381 Y10.4180
G01 X5.3631 Y10.4367
G01 X5.2854 Y10.4482
G01 X5.2070 Y10.4521
G01 X5.1298 Y10.4483
G01 X5.0509 Y10.4367
G01 X4.9748 Y10.4176
G01 X4.9008 Y10.3912
G01 X4.8277 Y10.3564
G01 X4.7625 Y10.3172
G01 X4.7014 Y10.2720
G01 X4.6430 Y10.2194
G01 X4.5885 Y10.1596
G01 X4.5418 Y10.0965
G01 X4.5014 Y10.0291
G01 X4.4678 Y9.9582
G01 X4.4414 Y9.8842
G01 X4.4223 Y9.8081
G01 X4.4108 Y9.7304
G01 X4.4069 Y9.6520
G01 X4.4108 Y9.5736
G01 X4.4223 Y9.4959
G01 X4.4414 Y9.4198
G01 X4.4678 Y9.3458
G01 X4.5014 Y9.2749
G01 X4.5418 Y9.2075
G01 X4.5885 Y9.1444
G01 X4.6413 Y9.0863
G01 X4.6994 Y9.0335
G01 X4.7625 Y8.9868
G01 X4.8299 Y8.9464
G01 X4.9008 Y8.9128
G01 X4.9748 Y8.8864
G01 X5.0509 Y8.8673
G01 X5.1286 Y8.8558
G01 X5.2070 Y8.8519
G01 X5.2854 Y8.8558
G01 X5.3631 Y8.8673
G01 X5.4392 Y8.8864
G01 X5.5132 Y8.9128
G01 X5.5841 Y8.9464
G01 X5.6515 Y8.9868
G01 X5.7146 Y9.0335
G01 X5.7727 Y9.0863
G01 X5.8255 Y9.1444
G01 X5.8649 Y9.1975
G00 Z1.5000
G00 X5.7868 Y11.6418
G01 F80.00
G01 Z-0.0450
G01 F80.00
G01 X6.3761 Y11.6418
G01 X6.8508 Y11.1671
G01 X6.8899 Y11.1317
G01 X6.9313 Y11.1009
G01 X6.9818 Y11.0706
G01 X7.0284 Y11.0486
G01 X7.0793 Y11.0304
G01 X7.1341 Y11.0169
G01 X7.1851 Y11.0094
G01 X7.2365 Y11.0068
G01 X7.2954 Y11.0097
G01 X7.3463 Y11.0173
G01 X7.3987 Y11.0304
G01 X7.4496 Y11.0486
G01 X7.4973 Y11.0712
G01 X7.5437 Y11.0988
G01 X7.5546 Y11.1068
G01 X13.3695 Y11.1068
G01 X13.4111 Y11.1089
G01 X13.4524 Y11.1150
G01 X13.5000 Y11.1269
G01 X13.5393 Y11.1410
G01 X13.5792 Y11.1599
G01 X13.6171 Y11.1826
G01 X13.6501 Y11.2070
G01 X13.8420 Y11.2070
G01 X13.8493 Y11.2076
G01 X13.8553 Y11.2088
G01 X13.8634 Y11.2118
G01 X13.8698 Y11.2155
G01 X13.8756 Y11.2200
G01 X13.8806 Y11.2253
G01 X13.8855 Y11.2324
G01 X13.8886 Y11.2390
G01 X13.8908 Y11.2461
G01 X13.8919 Y11.2546
G01 X13.8920 Y11.8570
G01 X13.8914 Y11.8643
G01 X13.8902 Y11.8703
G01 X13.8882 Y11.8761
G01 X13.8849 Y11.8827
G01 X13.8814 Y11.8877
G01 X13.8773 Y11.8923
G01 X13.8737 Y11.8956
G01 X13.8687 Y11.8992
G01 X13.8634 Y11.9022
G01 X13.8577 Y11.9044
G01 X13.8529 Y11.9058
G01 X13.8469 Y11.9067
G01 X13.6501 Y11.9070
G01 X13.6171 Y11.9314
G01 X13.5814 Y11.9529
G01 X13.5415 Y11.9720
G01 X13.4977 Y11.9879
G01 X13.4536 Y11.9988
G01 X13.4111 Y12.0051
G01 X13.3670 Y12.0072
G01 X7.5669 Y12.0072
G01 X6.9931 Y12.5811
G01 X6.9540 Y12.6166
G01 X6.9097 Y12.6495
G01 X6.8634 Y12.6773
G01 X6.8146 Y12.7004
G01 X6.7614 Y12.7192
G01 X6.7113 Y12.7317
G01 X6.6604 Y12.7393
G01 X6.6052 Y12.7422
G01 X5.7868 Y12.7422
G01 X5.7718 Y12.7586
G01 X5.7155 Y12.8097
G01 X5.6525 Y12.8565
G01 X5.5841 Y12.8976
G01 X5.5143 Y12.9307
G01 X5.4392 Y12.9576
G01 X5.3631 Y12.9767
G01 X5.2854 Y12.9882
G01 X5.2082 Y12.9920
G01 X5.1286 Y12.9882
G01 X5.0509 Y12.9767
G01 X4.9748 Y12.9576
G01 X4.9008 Y12.9312
G01 X4.8299 Y12.8976
G01 X4.7625 Y12.8572
G01 X4.6994 Y12.8105
G01 X4.6404 Y12.7568
G01 X4.5885 Y12.6996
G01 X4.5418 Y12.6365
G01 X4.5014 Y12.5691
G01 X4.4678 Y12.4982
G01 X4.4414 Y12.4242
G01 X4.4223 Y12.3481
G01 X4.4108 Y12.2704
G01 X4.4069 Y12.1920
G01 X4.4108 Y12.1136
G01 X4.4223 Y12.0359
G01 X4.4414 Y11.9598
G01 X4.4678 Y11.8858
G01 X4.5014 Y11.8149
G01 X4.5418 Y11.7475
G01 X4.5885 Y11.6844
G01 X4.6422 Y11.6254
G01 X4.6994 Y11.5735
G01 X4.7625 Y11.5268
G01 X4.8299 Y11.4864
G01 X4.9008 Y11.4528
G01 X4.9748 Y11.4264
G01 X5.0509 Y11.4073
G01 X5.1286 Y11.3958
G01 X5.2082 Y11.3920
G01 X5.2854 Y11.3958
G01 X5.3631 Y11.4073
G01 X5.4392 Y11.4264
G01 X5.5143 Y11.4533
G01 X5.5841 Y11.4864
G01 X5.6525 Y11.5275
G01 X5.7155 Y11.5743
G01 X5.7718 Y11.6254
G01 X5.7868 Y11.6418
G00 Z1.5000
G00 X5.7868 Y14.1818
G01 F80.00
G01 Z-0.0450
G01 F80.00
G01 X7.7731 Y14.1818
G01 X9.5379 Y12.4170
G01 X9.5770 Y12.3816
G01 X9.6184 Y12.3508
G01 X9.6667 Y12.3217
G01 X9.7155 Y12.2986
G01 X9.7640 Y12.2812
G01 X9.8187 Y12.2673
G01 X9.8721 Y12.2593
G01 X9.9261 Y12.2567
G01 X9.9800 Y12.2593
G01 X10.0334 Y12.2673
G01 X10.0858 Y12.2804
G01 X10.1378 Y12.2991
G01 X10.1865 Y12.3223
G01 X10.2307 Y12.3488
G01 X10.2417 Y12.3567
G01 X13.3670 Y12.3567
G01 X13.4087 Y12.3587
G01 X13.4572 Y12.3659
G01 X13.4977 Y12.3761
G01 X13.5393 Y12.3910
G01 X13.5814 Y12.4111
G01 X13.6171 Y12.4326
G01 X13.6501 Y12.4570
G01 X13.8420 Y12.4570
G01 X13.8505 Y12.4577
G01 X13.8577 Y12.4595
G01 X13.8645 Y12.4623
G01 X13.8718 Y12.4668
G01 X13.8773 Y12.4716
G01 X13.8821 Y12.4772
G01 X13.8861 Y12.4834
G01 X13.8891 Y12.4901
G01 X13.8910 Y12.4972
G01 X13.8920 Y12.5070
G01 X13.8920 Y13.1069
G01 X13.8916 Y13.1130
G01 X13.8902 Y13.1202
G01 X13.8882 Y13.1260
G01 X13.8855 Y13.1316
G01 X13.8821 Y13.1367
G01 X13.8782 Y13.1414
G01 X13.8737 Y13.1456
G01 X13.8687 Y13.1491
G01 X13.8634 Y13.1521
G01 X13.8577 Y13.1544
G01 X13.8529 Y13.1557
G01 X13.8469 Y13.1567
G01 X13.6501 Y13.1569
G01 X13.6171 Y13.1813
G01 X13.5814 Y13.2028
G01 X13.5415 Y13.2219
G01 X13.4977 Y13.2378
G01 X13.4548 Y13.2485
G01 X13.4111 Y13.2550
G01 X13.3670 Y13.2572
G01 X10.2540 Y13.2572
G01 X8.3892 Y15.1219
G01 X8.3481 Y15.1589
G01 X8.3067 Y15.1895
G01 X8.2625 Y15.2161
G01 X8.2116 Y15.2404
G01 X8.1607 Y15.2586
G01 X8.1083 Y15.2717
G01 X8.0574 Y15.2793
G01 X8.0010 Y15.2822
G01 X5.7868 Y15.2822
G01 X5.7718 Y15.2986
G01 X5.7155 Y15.3497
G01 X5.6525 Y15.3965
G01 X5.5841 Y15.4376
G01 X5.5143 Y15.4707
G01 X5.4392 Y15.4976
G01 X5.3631 Y15.5167
G01 X5.2854 Y15.5282
G01 X5.2070 Y15.5321
G01 X5.1286 Y15.5282
G01 X5.0509 Y15.5167
G01 X4.9748 Y15.4976
G01 X4.9008 Y15.4712
G01 X4.8299 Y15.4376
G01 X4.7625 Y15.3972
G01 X4.6994 Y15.3505
G01 X4.6404 Y15.2968
G01 X4.5885 Y15.2396
G01 X4.5418 Y15.1765
G01 X4.5014 Y15.1091
G01 X4.4678 Y15.0382
G01 X4.4414 Y14.9642
G01 X4.4223 Y14.8881
G01 X4.4108 Y14.8104
G01 X4.4069 Y14.7320
G01 X4.4108 Y14.6536
G01 X4.4223 Y14.5759
G01 X4.4414 Y14.4998
G01 X4.4678 Y14.4258
G01 X4.5014 Y14.3549
G01 X4.5418 Y14.2875
G01 X4.5885 Y14.2244
G01 X4.6422 Y14.1654
G01 X4.6994 Y14.1135
G01 X4.7625 Y14.0668
G01 X4.8299 Y14.0264
G01 X4.9008 Y13.9928
G01 X4.9748 Y13.9664
G01 X5.0509 Y13.9473
G01 X5.1286 Y13.9358
G01 X5.2082 Y13.9320
G01 X5.2854 Y13.9358
G01 X5.3631 Y13.9473
G01 X5.4392 Y13.9664
G01 X5.5143 Y13.9933
G01 X5.5841 Y14.0264
G01 X5.6525 Y14.0675
G01 X5.7155 Y14.1143
G01 X5.7718 Y14.1654
G01 X5.7868 Y14.1818
G00 Z1.5000
G00 X5.3840 Y16.3318
G01 F80.00
G01 Z-0.0450
G01 F80.00
G01 X5.5753 Y16.3831
G01 X5.7928 Y16.5086
G01 X5.9704 Y16.6862
G01 X6.0959 Y16.9037
G01 X6.1472 Y17.0950
G01 X5.9865 Y17.0950
G01 X5.9726 Y17.0398
G01 X5.9470 Y16.9681
G01 X5.9126 Y16.8949
G01 X5.8722 Y16.8275
G01 X5.8270 Y16.7664
G01 X5.7727 Y16.7063
G01 X5.7126 Y16.6520
G01 X5.6515 Y16.6068
G01 X5.5841 Y16.5664
G01 X5.5109 Y16.5320
G01 X5.4392 Y16.5064
G01 X5.3840 Y16.4925
G01 X5.3840 Y16.3318
G00 Z1.5000
G00 X4.2668 Y17.0950
G01 F80.00
G01 Z-0.0450
G01 F80.00
G01 X4.3181 Y16.9037
G01 X4.4436 Y16.6862
G01 X4.6212 Y16.5086
G01 X4.8387 Y16.3831
G01 X5.0300 Y16.3318
G01 X5.0300 Y16.4925
G01 X4.9748 Y16.5064
G01 X4.9031 Y16.5320
G01 X4.8299 Y16.5664
G01 X4.7625 Y16.6068
G01 X4.7014 Y16.6520
G01 X4.6413 Y16.7063
G01 X4.5870 Y16.7664
G01 X4.5418 Y16.8275
G01 X4.5014 Y16.8949
G01 X4.4670 Y16.9681
G01 X4.4414 Y17.0398
G01 X4.4275 Y17.0950
G01 X4.2668 Y17.0950
G00 Z1.5000
G00 X4.2668 Y17.4490
G01 F80.00
G01 Z-0.0450
G01 F80.00
G01 X4.4275 Y17.4490
G01 X4.4414 Y17.5042
G01 X4.4670 Y17.5759
G01 X4.5014 Y17.6491
G01 X4.5418 Y17.7165
G01 X4.5870 Y17.7776
G01 X4.6413 Y17.8377
G01 X4.7014 Y17.8920
G01 X4.7625 Y17.9372
G01 X4.8299 Y17.9776
G01 X4.9031 Y18.0120
G01 X4.9748 Y18.0376
G01 X5.0300 Y18.0515
G01 X5.0300 Y18.2122
G01 X4.8387 Y18.1609
G01 X4.6212 Y18.0354
G01 X4.4436 Y17.8578
G01 X4.3181 Y17.6403
G01 X4.2668 Y17.4490
G00 Z1.5000
G00 X5.3840 Y18.2122
G01 F80.00
G01 Z-0.0450
G01 F80.00
G01 X5.3840 Y18.0515
G01 X5.4392 Y18.0376
G01 X5.5109 Y18.0120
G01 X5.5841 Y17.9776
G01 X5.6515 Y17.9372
G01 X5.7126 Y17.8920
G01 X5.7727 Y17.8377
G01 X5.8270 Y17.7776
G01 X5.8722 Y17.7165
G01 X5.9126 Y17.6491
G01 X5.9470 Y17.5759
G01 X5.9726 Y17.5042
G01 X5.9865 Y17.4490
G01 X6.1472 Y17.4490
G01 X6.0959 Y17.6403
G01 X5.9704 Y17.8578
G01 X5.7928 Y18.0354
G01 X5.5753 Y18.1609
G01 X5.3840 Y18.2122
G00 Z1.5000
G00 X7.3400 Y17.0950
G01 F80.00
G01 Z-0.0450
G01 F80.00
G01 X7.1797 Y17.0950
G01 X7.2190 Y16.9482
G01 X7.3295 Y16.7569
G01 X7.4858 Y16.6006
G01 X7.6771 Y16.4903
G01 X7.8240 Y16.4510
G01 X7.8240 Y16.6110
G01 X7.8010 Y16.6169
G01 X7.7400 Y16.6387
G01 X7.6770 Y16.6685
G01 X7.6204 Y16.7024
G01 X7.5684 Y16.7410
G01 X7.5166 Y16.7876
G01 X7.4700 Y16.8394
G01 X7.4314 Y16.8914
G01 X7.3975 Y16.9480
G01 X7.3677 Y17.0110
G01 X7.3459 Y17.0720
G01 X7.3400 Y17.0950
G00 Z1.5000
G00 X7.8240 Y18.0933
G01 F80.00
G01 Z-0.0450
G01 F80.00
G01 X7.6772 Y18.0540
G01 X7.4859 Y17.9435
G01 X7.3295 Y17.7871
G01 X7.2190 Y17.5959
G01 X7.1797 Y17.4490
G01 X7.3400 Y17.4490
G01 X7.3459 Y17.4720
G01 X7.3677 Y17.5330
G01 X7.3975 Y17.5960
G01 X7.4314 Y17.6526
G01 X7.4700 Y17.7046
G01 X7.5166 Y17.7564
G01 X7.5684 Y17.8030
G01 X7.6204 Y17.8416
G01 X7.6770 Y17.8755
G01 X7.7400 Y17.9053
G01 X7.8010 Y17.9271
G01 X7.8240 Y17.9330
G01 X7.8240 Y18.0933
G00 Z1.5000
G00 X8.1780 Y18.0933
G01 F80.00
G01 Z-0.0450
G01 F80.00
G01 X8.1780 Y17.9330
G01 X8.2010 Y17.9271
G01 X8.2620 Y17.9053
G01 X8.3250 Y17.8755
G01 X8.3816 Y17.8416
G01 X8.4336 Y17.8030
G01 X8.4854 Y17.7564
G01 X8.5320 Y17.7046
G01 X8.5706 Y17.6526
G01 X8.6045 Y17.5960
G01 X8.6343 Y17.5330
G01 X8.6561 Y17.4720
G01 X8.6620 Y17.4490
G01 X8.8223 Y17.4490
G01 X8.7830 Y17.5958
G01 X8.6725 Y17.7871
G01 X8.5161 Y17.9435
G01 X8.3249 Y18.0540
G01 X8.1780 Y18.0933
G00 Z1.5000
G00 X8.8223 Y17.0950
G01 F80.00
G01 Z-0.0450
G01 F80.00
G01 X8.6620 Y17.0950
G01 X8.6561 Y17.0720
G01 X8.6343 Y17.0110
G01 X8.6045 Y16.9480
G01 X8.5706 Y16.8914
G01 X8.5320 Y16.8394
G01 X8.4854 Y16.7876
G01 X8.4336 Y16.7410
G01 X8.3816 Y16.7024
G01 X8.3250 Y16.6685
G01 X8.2620 Y16.6387
G01 X8.2010 Y16.6169
G01 X8.1780 Y16.6110
G01 X8.1780 Y16.4510
G01 X8.3249 Y16.4903
G01 X8.5162 Y16.6006
G01 X8.6725 Y16.7569
G01 X8.7830 Y16.9481
G01 X8.8223 Y17.0950
G00 Z1.5000
G00 X9.9575 Y17.1483
G01 F80.00
G01 Z-0.0450
G01 F80.00
G01 X9.9575 Y19.1229
G01 X9.9568 Y19.1302
G01 X9.9554 Y19.1361
G01 X9.9527 Y19.1430
G01 X9.9498 Y19.1484
G01 X9.9454 Y19.1543
G01 X9.9411 Y19.1587
G01 X9.9353 Y19.1632
G01 X9.9300 Y19.1663
G01 X9.9244 Y19.1687
G01 X9.9185 Y19.1704
G01 X9.9124 Y19.1714
G01 X9.9075 Y19.1716
G01 X8.4377 Y19.1716
G01 X8.4304 Y19.1709
G01 X8.4244 Y19.1695
G01 X8.4038 Y19.1612
G01 X8.2167 Y19.1366
G01 X5.9014 Y19.1366
G01 X5.8953 Y19.1362
G01 X5.8881 Y19.1348
G01 X5.8812 Y19.1323
G01 X5.8747 Y19.1288
G01 X5.8688 Y19.1244
G01 X5.7928 Y19.0486
G01 X5.5753 Y18.9231
G01 X5.3325 Y18.8579
G01 X5.2786 Y18.8579
G01 X5.2713 Y18.8574
G01 X5.2641 Y18.8558
G01 X5.2573 Y18.8531
G01 X5.2509 Y18.8495
G01 X5.2451 Y18.8450
G01 X2.6301 Y16.2304
G01 X2.6239 Y16.2228
G01 X2.6198 Y16.2153
G01 X2.6167 Y16.2060
G01 X2.6157 Y16.1999
G01 X2.6155 Y16.1950
G01 X2.6155 Y3.1065
G01 X2.6167 Y3.0980
G01 X2.6198 Y3.0887
G01 X2.6239 Y3.0812
G01 X2.6301 Y3.0736
G01 X3.4546 Y2.2491
G01 X3.4612 Y2.2436
G01 X3.4697 Y2.2388
G01 X3.4790 Y2.2357
G01 X3.4838 Y2.2349
G01 X3.4900 Y2.2345
G01 X6.8483 Y2.2345
G01 X6.8556 Y2.2352
G01 X6.8639 Y2.2374
G01 X6.8717 Y2.2410
G01 X6.8778 Y2.2451
G01 X6.8841 Y2.2509
G01 X6.8886 Y2.2567
G01 X6.8923 Y2.2631
G01 X6.8949 Y2.2700
G01 X6.8963 Y2.2759
G01 X6.8971 Y2.2833
G01 X6.8971 Y2.3981
G01 X9.1049 Y2.3981
G01 X9.1049 Y2.2845
G01 X9.1057 Y2.2759
G01 X9.1067 Y2.2711
G01 X9.1087 Y2.2653
G01 X9.1108 Y2.2609
G01 X9.1140 Y2.2557
G01 X9.1171 Y2.2518
G01 X9.1213 Y2.2474
G01 X9.1251 Y2.2443
G01 X9.1303 Y2.2410
G01 X9.1358 Y2.2383
G01 X9.1416 Y2.2363
G01 X9.1476 Y2.2350
G01 X9.1537 Y2.2345
G01 X9.3883 Y2.2345
G01 X9.3968 Y2.2354
G01 X9.4051 Y2.2378
G01 X9.4128 Y2.2416
G01 X9.4197 Y2.2466
G01 X9.4257 Y2.2528
G01 X9.4306 Y2.2598
G01 X9.4342 Y2.2676
G01 X9.4363 Y2.2759
G01 X9.4371 Y2.2845
G01 X9.4371 Y2.5251
G01 X11.6449 Y2.5251
G01 X11.6452 Y2.2796
G01 X11.6461 Y2.2735
G01 X11.6483 Y2.2665
G01 X11.6508 Y2.2609
G01 X11.6548 Y2.2547
G01 X11.6596 Y2.2491
G01 X11.6642 Y2.2451
G01 X11.6692 Y2.2416
G01 X11.6758 Y2.2383
G01 X11.6852 Y2.2354
G01 X11.6949 Y2.2345
G01 X12.3073 Y2.2345
G01 X12.3171 Y2.2354
G01 X12.3264 Y2.2383
G01 X12.3341 Y2.2422
G01 X12.3418 Y2.2483
G01 X12.4837 Y2.3902
G01 X12.4891 Y2.3969
G01 X12.4932 Y2.4044
G01 X12.4960 Y2.4125
G01 X12.4973 Y2.4198
G01 X12.4975 Y4.3147
G01 X12.5221 Y4.5017
G01 X12.5931 Y4.6730
G01 X12.7079 Y4.8227
G01 X14.7864 Y6.9014
G01 X14.7926 Y6.9090
G01 X14.7968 Y6.9165
G01 X14.7989 Y6.9222
G01 X14.8001 Y6.9270
G01 X14.8010 Y6.9367
G01 X14.8010 Y8.5041
G01 X14.8003 Y8.5114
G01 X14.7989 Y8.5174
G01 X14.7962 Y8.5243
G01 X14.7933 Y8.5297
G01 X14.7897 Y8.5346
G01 X14.7846 Y8.5399
G01 X14.7798 Y8.5438
G01 X14.7735 Y8.5476
G01 X14.7679 Y8.5500
G01 X14.7632 Y8.5514
G01 X14.7572 Y8.5525
G01 X14.7523 Y8.5529
G01 X14.7225 Y8.5528
G01 X14.7152 Y8.5517
G01 X14.7082 Y8.5496
G01 X14.7015 Y8.5464
G01 X14.6964 Y8.5431
G01 X14.6917 Y8.5391
G01 X14.6875 Y8.5346
G01 X14.6833 Y8.5286
G01 X14.6805 Y8.5232
G01 X14.6783 Y8.5174
G01 X14.6769 Y8.5114
G01 X14.6762 Y8.5029
G01 X14.6762 Y7.9937
G01 X14.1305 Y8.5391
G01 X14.1248 Y8.5438
G01 X14.1185 Y8.5476
G01 X14.1117 Y8.5504
G01 X14.1033 Y8.5524
G01 X14.0960 Y8.5529
G01 X13.7193 Y8.5529
G01 X13.7120 Y8.5524
G01 X13.7037 Y8.5504
G01 X13.6948 Y8.5465
G01 X13.6897 Y8.5432
G01 X13.6717 Y8.5293
G01 X13.5247 Y8.4686
G01 X13.3637 Y8.4475
G01 X11.8219 Y8.4475
G01 X11.8170 Y8.4473
G01 X11.8110 Y8.4463
G01 X11.8062 Y8.4450
G01 X11.8005 Y8.4427
G01 X11.7921 Y8.4377
G01 X11.7883 Y8.4345
G01 X11.7841 Y8.4302
G01 X11.7790 Y8.4232
G01 X11.7753 Y8.4155
G01 X11.7729 Y8.4072
G01 X11.7719 Y8.3975
G01 X11.7719 Y7.0129
G01 X11.4285 Y7.0129
G01 X11.4224 Y7.0125
G01 X11.4140 Y7.0107
G01 X11.4049 Y7.0070
G01 X11.3977 Y7.0023
G01 X11.3914 Y6.9965
G01 X11.3862 Y6.9896
G01 X11.3823 Y6.9820
G01 X11.3797 Y6.9739
G01 X11.3785 Y6.9641
G01 X11.3786 Y4.9714
G01 X11.3800 Y4.9630
G01 X11.3823 Y4.9560
G01 X11.3862 Y4.9484
G01 X11.3914 Y4.9415
G01 X11.3977 Y4.9357
G01 X11.4038 Y4.9316
G01 X11.4116 Y4.9280
G01 X11.4199 Y4.9258
G01 X11.4285 Y4.9251
G01 X11.6449 Y4.9251
G01 X11.6449 Y3.3169
G01 X9.4371 Y3.3169
G01 X9.4371 Y4.9251
G01 X9.9124 Y4.9253
G01 X9.9220 Y4.9273
G01 X9.9300 Y4.9304
G01 X9.9383 Y4.9357
G01 X9.9446 Y4.9415
G01 X9.9498 Y4.9484
G01 X9.9537 Y4.9560
G01 X9.9563 Y4.9641
G01 X9.9575 Y4.9739
G01 X9.9575 Y6.9629
G01 X9.9571 Y6.9690
G01 X9.9554 Y6.9774
G01 X9.9527 Y6.9843
G01 X9.9484 Y6.9917
G01 X9.9429 Y6.9983
G01 X9.9363 Y7.0038
G01 X9.9289 Y7.0081
G01 X9.9220 Y7.0107
G01 X9.9136 Y7.0125
G01 X9.9075 Y7.0129
G01 X9.5641 Y7.0129
G01 X9.5641 Y8.3987
G01 X9.5633 Y8.4060
G01 X9.5616 Y8.4132
G01 X9.5587 Y8.4200
G01 X9.5550 Y8.4263
G01 X9.5503 Y8.4320
G01 X9.5448 Y8.4369
G01 X9.5387 Y8.4410
G01 X9.5321 Y8.4441
G01 X9.5226 Y8.4468
G01 X9.5141 Y8.4475
G01 X8.8379 Y8.4475
G01 X8.8318 Y8.4471
G01 X8.8246 Y8.4457
G01 X8.8177 Y8.4432
G01 X8.8122 Y8.4404
G01 X8.8072 Y8.4369
G01 X8.8026 Y8.4328
G01 X7.8138 Y7.4440
G01 X7.8082 Y7.4375
G01 X7.8034 Y7.4289
G01 X7.8006 Y7.4208
G01 X7.7992 Y7.4124
G01 X7.7995 Y7.4026
G01 X7.8003 Y7.3977
G01 X7.8020 Y7.3918
G01 X7.8039 Y7.3873
G01 X7.8069 Y7.3819
G01 X7.8129 Y7.3742
G01 X8.4156 Y6.7715
G01 X8.5465 Y6.5758
G01 X8.5924 Y6.3451
G01 X8.5924 Y4.8481
G01 X8.5927 Y4.8420
G01 X8.5936 Y4.8371
G01 X8.5953 Y4.8313
G01 X8.5977 Y4.8256
G01 X8.6008 Y4.8203
G01 X8.6045 Y4.8154
G01 X8.6097 Y4.8102
G01 X8.6146 Y4.8065
G01 X8.6210 Y4.8029
G01 X8.6267 Y4.8006
G01 X8.6326 Y4.7991
G01 X8.6399 Y4.7982
G01 X9.1049 Y4.7981
G01 X9.1049 Y3.1899
G01 X6.8971 Y3.1899
G01 X6.8971 Y4.7981
G01 X7.3645 Y4.7983
G01 X7.3730 Y4.7999
G01 X7.3810 Y4.8029
G01 X7.3894 Y4.8079
G01 X7.3959 Y4.8136
G01 X7.4012 Y4.8203
G01 X7.4054 Y4.8278
G01 X7.4084 Y4.8371
G01 X7.4096 Y4.8456
G01 X7.4096 Y6.0843
G01 X7.4093 Y6.0904
G01 X7.4084 Y6.0953
G01 X7.4063 Y6.1023
G01 X7.4032 Y6.1090
G01 X7.3991 Y6.1151
G01 X7.3950 Y6.1197
G01 X7.0612 Y6.4534
G01 X7.0567 Y6.4575
G01 X7.0516 Y6.4610
G01 X7.0439 Y6.4647
G01 X7.0344 Y6.4673
G01 X7.0259 Y6.4681
G01 X7.0173 Y6.4673
G01 X7.0125 Y6.4663
G01 X7.0067 Y6.4643
G01 X6.9148 Y6.4261
G01 X6.7277 Y6.4015
G01 X6.2111 Y6.4015
G01 X6.2025 Y6.4008
G01 X6.1954 Y6.3990
G01 X6.1897 Y6.3967
G01 X6.1833 Y6.3931
G01 X6.1775 Y6.3886
G01 X6.1732 Y6.3842
G01 X6.1695 Y6.3793
G01 X6.1659 Y6.3729
G01 X6.1632 Y6.3660
G01 X6.1616 Y6.3589
G01 X6.1611 Y6.3515
G01 X6.1611 Y6.1579
G01 X4.2529 Y6.1579
G01 X4.2529 Y8.0661
G01 X5.8724 Y8.0661
G01 X5.8822 Y8.0673
G01 X5.8903 Y8.0699
G01 X5.8990 Y8.0745
G01 X5.9066 Y8.0807
G01 X5.9128 Y8.0883
G01 X5.9169 Y8.0958
G01 X5.9200 Y8.1051
G01 X5.9211 Y8.1136
G01 X5.9207 Y8.1234
G01 X5.9183 Y8.1329
G01 X5.9164 Y8.1374
G01 X5.9134 Y8.1428
G01 X5.9074 Y8.1505
G01 X5.7874 Y8.2705
G01 X5.7816 Y8.2750
G01 X5.7741 Y8.2791
G01 X5.7660 Y8.2819
G01 X5.7575 Y8.2833
G01 X5.7501 Y8.2833
G01 X5.7416 Y8.2819
G01 X5.7335 Y8.2791
G01 X5.7260 Y8.2749
G01 X5.7193 Y8.2695
G01 X5.6846 Y8.2346
G01 X4.2925 Y8.2346
G01 X4.1140 Y8.4131
G01 X4.1140 Y10.7607
G01 X4.3198 Y10.7788
G01 X4.3260 Y10.7799
G01 X4.3319 Y10.7818
G01 X4.3387 Y10.7849
G01 X4.3439 Y10.7883
G01 X4.3495 Y10.7932
G01 X4.8066 Y11.2502
G01 X4.8119 Y11.2569
G01 X4.8165 Y11.2655
G01 X4.8191 Y11.2736
G01 X4.8203 Y11.2821
G01 X4.8203 Y11.2870
G01 X4.8197 Y11.2930
G01 X4.8186 Y11.2978
G01 X4.8167 Y11.3036
G01 X4.8140 Y11.3091
G01 X4.8107 Y11.3142
G01 X4.8068 Y11.3189
G01 X4.8033 Y11.3223
G01 X4.7954 Y11.3280
G01 X4.6212 Y11.4286
G01 X4.4436 Y11.6062
G01 X4.3181 Y11.8237
G01 X4.2529 Y12.0665
G01 X4.2529 Y12.3175
G01 X4.3181 Y12.5603
G01 X4.4436 Y12.7778
G01 X4.6212 Y12.9554
G01 X4.8387 Y13.0809
G01 X5.0815 Y13.1461
G01 X5.3255 Y13.1461
G01 X5.3340 Y13.1473
G01 X5.3422 Y13.1499
G01 X5.3509 Y13.1545
G01 X5.3575 Y13.1599
G01 X5.3632 Y13.1663
G01 X5.3677 Y13.1736
G01 X5.3713 Y13.1827
G01 X5.3728 Y13.1912
G01 X5.3729 Y13.1997
G01 X5.3713 Y13.2094
G01 X5.3683 Y13.2174
G01 X5.3640 Y13.2249
G01 X5.3584 Y13.2314
G01 X5.1956 Y13.3942
G01 X5.2435 Y13.3942
G01 X5.2509 Y13.3950
G01 X5.2580 Y13.3967
G01 X5.2637 Y13.3990
G01 X5.2701 Y13.4026
G01 X5.2759 Y13.4072
G01 X5.6308 Y13.7620
G01 X5.6362 Y13.7687
G01 X5.6403 Y13.7762
G01 X5.6431 Y13.7843
G01 X5.6445 Y13.7927
G01 X5.6442 Y13.8025
G01 X5.6421 Y13.8120
G01 X5.6382 Y13.8210
G01 X5.6326 Y13.8290
G01 X5.6256 Y13.8358
G01 X5.6173 Y13.8410
G01 X5.6117 Y13.8435
G01 X5.6070 Y13.8449
G01 X5.5974 Y13.8464
G01 X5.5901 Y13.8463
G01 X5.5816 Y13.8448
G01 X5.3325 Y13.7779
G01 X5.0815 Y13.7779
G01 X4.8387 Y13.8431
G01 X4.6212 Y13.9686
G01 X4.4436 Y14.1462
G01 X4.3181 Y14.3637
G01 X4.2529 Y14.6065
G01 X4.2529 Y14.8575
G01 X4.3181 Y15.1003
G01 X4.4436 Y15.3178
G01 X4.6212 Y15.4954
G01 X4.8387 Y15.6209
G01 X5.0815 Y15.6861
G01 X5.3325 Y15.6861
G01 X5.5753 Y15.6209
G01 X5.7928 Y15.4954
G01 X5.8310 Y15.4571
G01 X5.8356 Y15.4531
G01 X5.8417 Y15.4490
G01 X5.8484 Y15.4458
G01 X5.8554 Y15.4437
G01 X5.8615 Y15.4427
G01 X7.9977 Y15.4425
G01 X8.1847 Y15.4179
G01 X8.3560 Y15.3469
G01 X8.5057 Y15.2321
G01 X10.3065 Y13.4312
G01 X10.3131 Y13.4257
G01 X10.3205 Y13.4214
G01 X10.3285 Y13.4184
G01 X10.3370 Y13.4168
G01 X13.3637 Y13.4166
G01 X13.5246 Y13.3955
G01 X13.6716 Y13.3345
G01 X13.6897 Y13.3206
G01 X13.6959 Y13.3167
G01 X13.7003 Y13.3147
G01 X13.7061 Y13.3127
G01 X13.7157 Y13.3110
G01 X15.0147 Y13.3109
G01 X15.0195 Y13.3111
G01 X15.0255 Y13.3121
G01 X15.0347 Y13.3151
G01 X15.0431 Y13.3198
G01 X15.0625 Y13.3345
G01 X15.2094 Y13.3955
G01 X15.3703 Y13.4166
G01 X16.8469 Y13.4168
G01 X16.8554 Y13.4184
G01 X16.8635 Y13.4215
G01 X16.8710 Y13.4259
G01 X16.8776 Y13.4315
G01 X16.8816 Y13.4361
G01 X16.8989 Y13.4587
G01 X17.5629 Y14.1226
G01 X17.5691 Y14.1302
G01 X17.5716 Y14.1344
G01 X17.5742 Y14.1400
G01 X17.5768 Y14.1494
G01 X17.5775 Y14.1580
G01 X17.5775 Y14.9900
G01 X17.5763 Y14.9985
G01 X17.5737 Y15.0067
G01 X17.5704 Y15.0132
G01 X17.5654 Y15.0202
G01 X17.5592 Y15.0262
G01 X17.5522 Y15.0310
G01 X17.5444 Y15.0346
G01 X17.5361 Y15.0368
G01 X17.5275 Y15.0375
G01 X12.0683 Y15.0375
G01 X11.8812 Y15.0621
G01 X11.7100 Y15.1331
G01 X11.5603 Y15.2479
G01 X10.1679 Y16.6403
G01 X10.0530 Y16.7900
G01 X10.0017 Y16.9137
G01 X9.9821 Y16.9612
G01 X9.9575 Y17.1483
G00 Z1.5000
G00 X15.1250 Y17.1709
G01 F80.00
G01 Z-0.0450
G01 F80.00
G01 X14.9710 Y17.1709
G01 X14.9710 Y16.7439
G01 X15.6980 Y16.7439
G01 X15.6980 Y16.8979
G01 X15.1738 Y16.8979
G01 X15.1652 Y16.8989
G01 X15.1581 Y16.9008
G01 X15.1514 Y16.9038
G01 X15.1452 Y16.9077
G01 X15.1414 Y16.9109
G01 X15.1371 Y16.9152
G01 X15.1341 Y16.9191
G01 X15.1309 Y16.9243
G01 X15.1288 Y16.9288
G01 X15.1268 Y16.9346
G01 X15.1251 Y16.9442
G01 X15.1250 Y17.1709
G00 Z1.5000
G00 X15.6980 Y17.9520
G01 F80.00
G01 Z-0.0450
G01 F80.00
G01 X14.9710 Y17.9520
G01 X14.9710 Y17.5249
G01 X15.1250 Y17.5249
G01 X15.1252 Y17.7529
G01 X15.1259 Y17.7577
G01 X15.1275 Y17.7637
G01 X15.1298 Y17.7694
G01 X15.1327 Y17.7747
G01 X15.1356 Y17.7788
G01 X15.1396 Y17.7833
G01 X15.1442 Y17.7874
G01 X15.1493 Y17.7909
G01 X15.1558 Y17.7942
G01 X15.1616 Y17.7962
G01 X15.1676 Y17.7975
G01 X15.1738 Y17.7980
G01 X15.6980 Y17.7980
G01 X15.6980 Y17.9520
G00 Z1.5000
G00 X16.7790 Y17.9520
G01 F80.00
G01 Z-0.0450
G01 F80.00
G01 X16.0520 Y17.9520
G01 X16.0520 Y17.7980
G01 X16.5750 Y17.7980
G01 X16.5836 Y17.7973
G01 X16.5930 Y17.7946
G01 X16.5997 Y17.7915
G01 X16.6048 Y17.7882
G01 X16.6104 Y17.7833
G01 X16.6144 Y17.7788
G01 X16.6185 Y17.7726
G01 X16.6212 Y17.7671
G01 X16.6235 Y17.7601
G01 X16.6246 Y17.7541
G01 X16.6250 Y17.7480
G01 X16.6250 Y17.5249
G01 X16.7790 Y17.5249
G01 X16.7790 Y17.9520
G00 Z1.5000
G00 X16.7790 Y17.1709
G01 F80.00
G01 Z-0.0450
G01 F80.00
G01 X16.6250 Y17.1709
G01 X16.6248 Y16.9430
G01 X16.6238 Y16.9369
G01 X16.6221 Y16.9311
G01 X16.6202 Y16.9265
G01 X16.6173 Y16.9211
G01 X16.6137 Y16.9162
G01 X16.6095 Y16.9117
G01 X16.6058 Y16.9085
G01 X16.6007 Y16.9050
G01 X16.5953 Y16.9022
G01 X16.5895 Y16.9001
G01 X16.5824 Y16.8984
G01 X16.5762 Y16.8979
G01 X16.0520 Y16.8979
G01 X16.0520 Y16.7439
G01 X16.7790 Y16.7439
G01 X16.7790 Y17.1709
G00 Z1.5000
G00 X17.5380 Y17.1709
G01 F80.00
G01 Z-0.0450
G01 F80.00
G01 X17.3840 Y17.1709
G01 X17.3840 Y16.7439
G01 X18.1110 Y16.7439
G01 X18.1110 Y16.8979
G01 X17.5868 Y16.8979
G01 X17.5782 Y16.8989
G01 X17.5711 Y16.9008
G01 X17.5644 Y16.9038
G01 X17.5582 Y16.9077
G01 X17.5544 Y16.9109
G01 X17.5501 Y16.9152
G01 X17.5471 Y16.9191
G01 X17.5439 Y16.9243
G01 X17.5413 Y16.9299
G01 X17.5398 Y16.9346
G01 X17.5381 Y16.9442
G01 X17.5380 Y17.1709
G00 Z1.5000
G00 X18.1110 Y17.9520
G01 F80.00
G01 Z-0.0450
G01 F80.00
G01 X17.3840 Y17.9520
G01 X17.3840 Y17.5249
G01 X17.5380 Y17.5249
G01 X17.5382 Y17.7529
G01 X17.5392 Y17.7589
G01 X17.5409 Y17.7648
G01 X17.5428 Y17.7694
G01 X17.5457 Y17.7747
G01 X17.5493 Y17.7797
G01 X17.5535 Y17.7842
G01 X17.5582 Y17.7882
G01 X17.5623 Y17.7909
G01 X17.5688 Y17.7942
G01 X17.5746 Y17.7962
G01 X17.5806 Y17.7975
G01 X17.5868 Y17.7980
G01 X18.1110 Y17.7980
G01 X18.1110 Y17.9520
G00 Z1.5000
G00 X19.1920 Y17.9520
G01 F80.00
G01 Z-0.0450
G01 F80.00
G01 X18.4650 Y17.9520
G01 X18.4650 Y17.7980
G01 X18.9880 Y17.7980
G01 X18.9966 Y17.7973
G01 X19.0060 Y17.7946
G01 X19.0127 Y17.7915
G01 X19.0178 Y17.7882
G01 X19.0234 Y17.7833
G01 X19.0274 Y17.7788
G01 X19.0315 Y17.7726
G01 X19.0342 Y17.7671
G01 X19.0365 Y17.7601
G01 X19.0376 Y17.7541
G01 X19.0380 Y17.7480
G01 X19.0380 Y17.5249
G01 X19.1920 Y17.5249
G01 X19.1920 Y17.9520
G00 Z1.5000
G00 X19.1920 Y17.1709
G01 F80.00
G01 Z-0.0450
G01 F80.00
G01 X19.0380 Y17.1709
G01 X19.0378 Y16.9430
G01 X19.0368 Y16.9369
G01 X19.0351 Y16.9311
G01 X19.0332 Y16.9265
G01 X19.0303 Y16.9211
G01 X19.0267 Y16.9162
G01 X19.0225 Y16.9117
G01 X19.0178 Y16.9077
G01 X19.0137 Y16.9050
G01 X19.0072 Y16.9017
G01 X19.0014 Y16.8997
G01 X18.9954 Y16.8984
G01 X18.9892 Y16.8979
G01 X18.4650 Y16.8979
G01 X18.4650 Y16.7439
G01 X19.1920 Y16.7439
G01 X19.1920 Y17.1709
G00 Z1.5000
G00 X19.9510 Y17.1709
G01 F80.00
G01 Z-0.0450
G01 F80.00
G01 X19.7970 Y17.1709
G01 X19.7970 Y16.7439
G01 X20.5240 Y16.7439
G01 X20.5240 Y16.8979
G01 X19.9998 Y16.8979
G01 X19.9912 Y16.8989
G01 X19.9841 Y16.9008
G01 X19.9774 Y16.9038
G01 X19.9712 Y16.9077
G01 X19.9674 Y16.9109
G01 X19.9631 Y16.9152
G01 X19.9601 Y16.9191
G01 X19.9569 Y16.9243
G01 X19.9543 Y16.9299
G01 X19.9528 Y16.9346
G01 X19.9511 Y16.9442
G01 X19.9510 Y17.1709
G00 Z1.5000
G00 X20.5240 Y17.9520
G01 F80.00
G01 Z-0.0450
G01 F80.00
G01 X19.7970 Y17.9520
G01 X19.7970 Y17.5249
G01 X19.9510 Y17.5249
G01 X19.9512 Y17.7529
G01 X19.9522 Y17.7589
G01 X19.9539 Y17.7648
G01 X19.9558 Y17.7694
G01 X19.9587 Y17.7747
G01 X19.9623 Y17.7797
G01 X19.9665 Y17.7842
G01 X19.9712 Y17.7882
G01 X19.9753 Y17.7909
G01 X19.9818 Y17.7942
G01 X19.9876 Y17.7962
G01 X19.9936 Y17.7975
G01 X19.9998 Y17.7980
G01 X20.5240 Y17.7980
G01 X20.5240 Y17.9520
G00 Z1.5000
G00 X21.6050 Y17.9520
G01 F80.00
G01 Z-0.0450
G01 F80.00
G01 X20.8780 Y17.9520
G01 X20.8780 Y17.7980
G01 X21.4010 Y17.7980
G01 X21.4096 Y17.7973
G01 X21.4190 Y17.7946
G01 X21.4257 Y17.7915
G01 X21.4308 Y17.7882
G01 X21.4364 Y17.7833
G01 X21.4404 Y17.7788
G01 X21.4445 Y17.7726
G01 X21.4472 Y17.7671
G01 X21.4495 Y17.7601
G01 X21.4506 Y17.7541
G01 X21.4510 Y17.7480
G01 X21.4510 Y17.5249
G01 X21.6050 Y17.5249
G01 X21.6050 Y17.9520
G00 Z1.5000
G00 X21.6050 Y17.1709
G01 F80.00
G01 Z-0.0450
G01 F80.00
G01 X21.4510 Y17.1709
G01 X21.4508 Y16.9430
G01 X21.4498 Y16.9369
G01 X21.4481 Y16.9311
G01 X21.4462 Y16.9265
G01 X21.4433 Y16.9211
G01 X21.4397 Y16.9162
G01 X21.4355 Y16.9117
G01 X21.4308 Y16.9077
G01 X21.4267 Y16.9050
G01 X21.4202 Y16.9017
G01 X21.4144 Y16.8997
G01 X21.4084 Y16.8984
G01 X21.4022 Y16.8979
G01 X20.8780 Y16.8979
G01 X20.8780 Y16.7439
G01 X21.6050 Y16.7439
G01 X21.6050 Y17.1709
G00 Z1.5000
G00 X16.6751 Y19.7051
G01 F80.00
G01 Z-0.0450
G01 F80.00
G01 X16.5210 Y19.7051
G01 X16.5209 Y19.3296
G01 X16.5205 Y19.3247
G01 X16.5192 Y19.3187
G01 X16.5172 Y19.3129
G01 X16.5145 Y19.3074
G01 X16.5119 Y19.3033
G01 X16.5081 Y19.2985
G01 X16.5037 Y19.2942
G01 X16.4988 Y19.2905
G01 X16.4924 Y19.2869
G01 X16.4855 Y19.2842
G01 X16.4783 Y19.2826
G01 X16.4710 Y19.2821
G01 X15.7980 Y19.2821
G01 X15.7980 Y19.1279
G01 X16.6751 Y19.1279
G01 X16.6751 Y19.7051
G00 Z1.5000
G00 X16.6751 Y20.6360
G01 F80.00
G01 Z-0.0450
G01 F80.00
G01 X15.7980 Y20.6360
G01 X15.7980 Y20.4821
G01 X16.4710 Y20.4821
G01 X16.4771 Y20.4818
G01 X16.4820 Y20.4809
G01 X16.4879 Y20.4792
G01 X16.4924 Y20.4773
G01 X16.4978 Y20.4744
G01 X16.5037 Y20.4700
G01 X16.5089 Y20.4648
G01 X16.5126 Y20.4599
G01 X16.5157 Y20.4546
G01 X16.5181 Y20.4490
G01 X16.5200 Y20.4419
G01 X16.5209 Y20.4358
G01 X16.5210 Y20.0591
G01 X16.6751 Y20.0591
G01 X16.6751 Y20.6360
G00 Z1.5000
G00 X15.4440 Y20.6360
G01 F80.00
G01 Z-0.0450
G01 F80.00
G01 X14.5669 Y20.6360
G01 X14.5669 Y20.0591
G01 X14.7210 Y20.0591
G01 X14.7211 Y20.4346
G01 X14.7217 Y20.4407
G01 X14.7231 Y20.4467
G01 X14.7253 Y20.4524
G01 X14.7275 Y20.4568
G01 X14.7301 Y20.4609
G01 X14.7339 Y20.4657
G01 X14.7383 Y20.4700
G01 X14.7432 Y20.4737
G01 X14.7496 Y20.4773
G01 X14.7565 Y20.4800
G01 X14.7637 Y20.4816
G01 X14.7710 Y20.4821
G01 X15.4440 Y20.4821
G01 X15.4440 Y20.6360
G00 Z1.5000
G00 X14.7210 Y19.7051
G01 F80.00
G01 Z-0.0450
G01 F80.00
G01 X14.5669 Y19.7051
G01 X14.5669 Y19.1279
G01 X15.4440 Y19.1279
G01 X15.4440 Y19.2821
G01 X14.7698 Y19.2821
G01 X14.7624 Y19.2828
G01 X14.7541 Y19.2850
G01 X14.7463 Y19.2886
G01 X14.7402 Y19.2927
G01 X14.7356 Y19.2967
G01 X14.7323 Y19.3003
G01 X14.7294 Y19.3043
G01 X14.7263 Y19.3096
G01 X14.7239 Y19.3152
G01 X14.7225 Y19.3199
G01 X14.7211 Y19.3296
G01 X14.7210 Y19.7051
G00 Z1.5000
G00 X12.1310 Y22.8818
G01 F80.00
G01 Z-0.0450
G01 F80.00
G01 X12.1310 Y21.6807
G01 X12.1317 Y21.6734
G01 X12.1339 Y21.6651
G01 X12.1369 Y21.6584
G01 X12.1415 Y21.6512
G01 X12.1474 Y21.6449
G01 X12.1532 Y21.6404
G01 X12.1596 Y21.6368
G01 X12.1676 Y21.6338
G01 X12.1736 Y21.6325
G01 X12.1810 Y21.6320
G01 X13.9835 Y21.6320
G01 X13.9896 Y21.6327
G01 X13.9967 Y21.6345
G01 X14.0024 Y21.6368
G01 X14.0088 Y21.6404
G01 X14.0146 Y21.6449
G01 X14.0189 Y21.6493
G01 X14.0226 Y21.6542
G01 X14.0262 Y21.6606
G01 X14.0295 Y21.6698
G01 X14.0309 Y21.6783
G01 X14.0310 Y21.7316
G01 X14.7210 Y21.7316
G01 X14.7220 Y21.7221
G01 X14.7248 Y21.7127
G01 X14.7294 Y21.7041
G01 X14.7356 Y21.6965
G01 X14.7432 Y21.6903
G01 X14.7519 Y21.6857
G01 X14.7612 Y21.6828
G01 X14.7710 Y21.6819
G01 X16.4722 Y21.6819
G01 X16.4808 Y21.6828
G01 X16.4879 Y21.6848
G01 X16.4957 Y21.6884
G01 X16.5018 Y21.6924
G01 X16.5081 Y21.6983
G01 X16.5126 Y21.7041
G01 X16.5162 Y21.7105
G01 X16.5192 Y21.7185
G01 X16.5206 Y21.7257
G01 X16.5210 Y21.7319
G01 X16.5210 Y22.8332
G01 X16.5200 Y22.8417
G01 X16.5181 Y22.8488
G01 X16.5151 Y22.8555
G01 X16.5104 Y22.8627
G01 X16.5046 Y22.8690
G01 X16.4988 Y22.8735
G01 X16.4924 Y22.8771
G01 X16.4843 Y22.8801
G01 X16.4771 Y22.8816
G01 X16.4710 Y22.8819
G01 X14.7698 Y22.8819
G01 X14.7612 Y22.8810
G01 X14.7519 Y22.8781
G01 X14.7432 Y22.8735
G01 X14.7356 Y22.8673
G01 X14.7294 Y22.8597
G01 X14.7248 Y22.8511
G01 X14.7220 Y22.8417
G01 X14.7210 Y22.8321
G01 X14.0310 Y22.8321
G01 X14.0309 Y22.8855
G01 X14.0292 Y22.8952
G01 X14.0257 Y22.9043
G01 X14.0219 Y22.9106
G01 X14.0181 Y22.9154
G01 X14.0128 Y22.9205
G01 X14.0068 Y22.9247
G01 X14.0002 Y22.9280
G01 X13.9944 Y22.9300
G01 X13.9872 Y22.9315
G01 X13.9810 Y22.9318
G01 X12.1797 Y22.9318
G01 X12.1700 Y22.9306
G01 X12.1607 Y22.9276
G01 X12.1522 Y22.9227
G01 X12.1456 Y22.9172
G01 X12.1394 Y22.9096
G01 X12.1348 Y22.9010
G01 X12.1319 Y22.8916
G01 X12.1310 Y22.8818
G00 Z1.5000
G00 X8.9490 Y22.3020
G01 F80.00
G01 Z-0.0450
G01 F80.00
G01 X8.7890 Y22.3020
G01 X8.7831 Y22.2790
G01 X8.7613 Y22.2180
G01 X8.7315 Y22.1550
G01 X8.6976 Y22.0984
G01 X8.6590 Y22.0464
G01 X8.6124 Y21.9946
G01 X8.5606 Y21.9480
G01 X8.5086 Y21.9094
G01 X8.4520 Y21.8755
G01 X8.3890 Y21.8457
G01 X8.3280 Y21.8239
G01 X8.3050 Y21.8180
G01 X8.3050 Y21.6577
G01 X8.4518 Y21.6970
G01 X8.6431 Y21.8075
G01 X8.7994 Y21.9638
G01 X8.9097 Y22.1551
G01 X8.9490 Y22.3020
G00 Z1.5000
G00 X8.3050 Y23.3000
G01 F80.00
G01 Z-0.0450
G01 F80.00
G01 X8.3050 Y23.1400
G01 X8.3280 Y23.1341
G01 X8.3890 Y23.1123
G01 X8.4520 Y23.0825
G01 X8.5086 Y23.0486
G01 X8.5606 Y23.0100
G01 X8.6124 Y22.9634
G01 X8.6590 Y22.9116
G01 X8.6976 Y22.8596
G01 X8.7315 Y22.8030
G01 X8.7613 Y22.7400
G01 X8.7831 Y22.6790
G01 X8.7890 Y22.6560
G01 X8.9490 Y22.6560
G01 X8.9097 Y22.8029
G01 X8.7994 Y22.9942
G01 X8.6432 Y23.1504
G01 X8.4519 Y23.2607
G01 X8.3050 Y23.3000
G00 Z1.5000
G00 X7.9510 Y23.3000
G01 F80.00
G01 Z-0.0450
G01 F80.00
G01 X7.8041 Y23.2607
G01 X7.6128 Y23.1504
G01 X7.4565 Y22.9941
G01 X7.3460 Y22.8029
G01 X7.3067 Y22.6560
G01 X7.4670 Y22.6560
G01 X7.4729 Y22.6790
G01 X7.4947 Y22.7400
G01 X7.5245 Y22.8030
G01 X7.5584 Y22.8596
G01 X7.5970 Y22.9116
G01 X7.6436 Y22.9634
G01 X7.6954 Y23.0100
G01 X7.7474 Y23.0486
G01 X7.8040 Y23.0825
G01 X7.8670 Y23.1123
G01 X7.9280 Y23.1341
G01 X7.9510 Y23.1400
G01 X7.9510 Y23.3000
G00 Z1.5000
G00 X7.4670 Y22.3020
G01 F80.00
G01 Z-0.0450
G01 F80.00
G01 X7.3067 Y22.3020
G01 X7.3460 Y22.1552
G01 X7.4565 Y21.9639
G01 X7.6129 Y21.8075
G01 X7.8041 Y21.6970
G01 X7.9510 Y21.6577
G01 X7.9510 Y21.8180
G01 X7.9280 Y21.8239
G01 X7.8670 Y21.8457
G01 X7.8040 Y21.8755
G01 X7.7474 Y21.9094
G01 X7.6954 Y21.9480
G01 X7.6436 Y21.9946
G01 X7.5970 Y22.0464
G01 X7.5584 Y22.0984
G01 X7.5245 Y22.1550
G01 X7.4947 Y22.2180
G01 X7.4729 Y22.2790
G01 X7.4670 Y22.3020
G00 Z1.5000
G00 X14.8420 Y10.6070
G01 F80.00
G01 Z-0.0450
G01 F80.00
G01 X14.8420 Y10.0071
G01 X14.8426 Y9.9998
G01 X14.8438 Y9.9938
G01 X14.8458 Y9.9880
G01 X14.8491 Y9.9814
G01 X14.8526 Y9.9763
G01 X14.8567 Y9.9717
G01 X14.8603 Y9.9684
G01 X14.8653 Y9.9649
G01 X14.8706 Y9.9619
G01 X14.8763 Y9.9596
G01 X14.8811 Y9.9583
G01 X14.8871 Y9.9573
G01 X15.0839 Y9.9571
G01 X15.1169 Y9.9327
G01 X15.1526 Y9.9112
G01 X15.1925 Y9.8921
G01 X15.2363 Y9.8762
G01 X15.2804 Y9.8652
G01 X15.3229 Y9.8590
G01 X15.3670 Y9.8568
G01 X18.5873 Y9.8568
G01 X18.5982 Y9.8489
G01 X18.6446 Y9.8212
G01 X18.6923 Y9.7987
G01 X18.7420 Y9.7809
G01 X18.7980 Y9.7670
G01 X18.8490 Y9.7595
G01 X18.9029 Y9.7568
G01 X18.9568 Y9.7595
G01 X19.0102 Y9.7674
G01 X19.0626 Y9.7805
G01 X19.1112 Y9.7978
G01 X19.1644 Y9.8230
G01 X19.2086 Y9.8495
G01 X19.2529 Y9.8825
G01 X19.2920 Y9.9180
G01 X21.0909 Y11.7166
G01 X21.1263 Y11.7558
G01 X21.1598 Y11.8012
G01 X21.1863 Y11.8455
G01 X21.2084 Y11.8920
G01 X21.2268 Y11.9428
G01 X21.2411 Y11.9999
G01 X21.2486 Y12.0509
G01 X21.2512 Y12.1049
G01 X21.2512 Y15.2980
G01 X21.4010 Y15.2980
G01 X21.4108 Y15.2989
G01 X21.4179 Y15.3009
G01 X21.4235 Y15.3033
G01 X21.4298 Y15.3071
G01 X21.4355 Y15.3117
G01 X21.4404 Y15.3172
G01 X21.4445 Y15.3233
G01 X21.4477 Y15.3300
G01 X21.4498 Y15.3370
G01 X21.4506 Y15.3418
G01 X21.4510 Y15.3480
G01 X21.4510 Y16.1493
G01 X21.4501 Y16.1578
G01 X21.4477 Y16.1660
G01 X21.4439 Y16.1738
G01 X21.4389 Y16.1807
G01 X21.4355 Y16.1843
G01 X21.4308 Y16.1882
G01 X21.4224 Y16.1932
G01 X21.4132 Y16.1965
G01 X21.4035 Y16.1980
G01 X21.0169 Y16.1980
G01 X21.0057 Y16.2062
G01 X20.9593 Y16.2338
G01 X20.9116 Y16.2564
G01 X20.8619 Y16.2742
G01 X20.8059 Y16.2881
G01 X20.7549 Y16.2956
G01 X20.7010 Y16.2982
G01 X20.6471 Y16.2956
G01 X20.5961 Y16.2881
G01 X20.5401 Y16.2742
G01 X20.4904 Y16.2564
G01 X20.4427 Y16.2338
G01 X20.3963 Y16.2062
G01 X20.3851 Y16.1980
G01 X19.9973 Y16.1979
G01 X19.9912 Y16.1971
G01 X19.9853 Y16.1955
G01 X19.9796 Y16.1932
G01 X19.9742 Y16.1903
G01 X19.9693 Y16.1867
G01 X19.9648 Y16.1825
G01 X19.9608 Y16.1778
G01 X19.9569 Y16.1716
G01 X19.9543 Y16.1660
G01 X19.9525 Y16.1602
G01 X19.9514 Y16.1542
G01 X19.9510 Y16.1480
G01 X19.9510 Y15.3480
G01 X19.9514 Y15.3418
G01 X19.9522 Y15.3370
G01 X19.9543 Y15.3300
G01 X19.9575 Y15.3233
G01 X19.9616 Y15.3172
G01 X19.9656 Y15.3126
G01 X19.9712 Y15.3078
G01 X19.9774 Y15.3039
G01 X19.9841 Y15.3009
G01 X19.9912 Y15.2989
G01 X20.0010 Y15.2980
G01 X20.1508 Y15.2980
G01 X20.1508 Y12.3328
G01 X18.5750 Y10.7573
G01 X15.3645 Y10.7573
G01 X15.3229 Y10.7551
G01 X15.2816 Y10.7491
G01 X15.2340 Y10.7372
G01 X15.1947 Y10.7230
G01 X15.1548 Y10.7041
G01 X15.1169 Y10.6814
G01 X15.0839 Y10.6570
G01 X14.8920 Y10.6570
G01 X14.8847 Y10.6565
G01 X14.8787 Y10.6552
G01 X14.8706 Y10.6522
G01 X14.8632 Y10.6479
G01 X14.8567 Y10.6424
G01 X14.8519 Y10.6368
G01 X14.8479 Y10.6306
G01 X14.8445 Y10.6227
G01 X14.8428 Y10.6156
G01 X14.8420 Y10.6070
G00 Z1.5000
G00 X15.3703 Y10.9167
G01 F80.00
G01 Z-0.0450
G01 F80.00
G01 X15.1992 Y10.8942
G01 X15.1894 Y10.8946
G01 X15.1799 Y10.8969
G01 X15.1710 Y10.9010
G01 X15.1630 Y10.9068
G01 X15.1564 Y10.9140
G01 X15.1513 Y10.9224
G01 X15.1482 Y10.9304
G01 X15.1465 Y10.9401
G01 X15.1465 Y10.9487
G01 X15.1484 Y10.9583
G01 X15.1515 Y10.9663
G01 X15.1567 Y10.9746
G01 X15.1608 Y10.9793
G01 X15.1849 Y11.0036
G01 X15.1907 Y11.0082
G01 X15.1971 Y11.0118
G01 X15.2052 Y11.0149
G01 X15.2137 Y11.0165
G01 X15.2463 Y11.0167
G01 X15.1451 Y11.1179
G01 X14.8541 Y11.1181
G01 X14.8469 Y11.1194
G01 X14.8410 Y11.1212
G01 X14.8344 Y11.1244
G01 X14.8292 Y11.1277
G01 X14.8245 Y11.1317
G01 X14.8196 Y11.1371
G01 X14.8161 Y11.1422
G01 X14.8128 Y11.1487
G01 X14.8100 Y11.1581
G01 X14.8090 Y11.1679
G01 X14.8090 Y12.1932
G01 X14.8094 Y12.1981
G01 X14.8105 Y12.2041
G01 X14.8119 Y12.2088
G01 X14.8143 Y12.2145
G01 X14.8168 Y12.2187
G01 X14.8204 Y12.2237
G01 X14.8245 Y12.2282
G01 X14.8292 Y12.2322
G01 X14.8365 Y12.2367
G01 X14.8433 Y12.2395
G01 X14.8505 Y12.2413
G01 X14.8578 Y12.2420
G01 X15.1464 Y12.2419
G01 X15.1536 Y12.2408
G01 X15.1595 Y12.2391
G01 X15.2093 Y12.2186
G01 X15.3703 Y12.1973
G01 X17.2486 Y12.1973
G01 X17.4096 Y12.2186
G01 X17.4986 Y12.2552
G01 X17.5041 Y12.2572
G01 X17.5110 Y12.2586
G01 X17.5828 Y12.2681
G01 X17.7540 Y12.3390
G01 X17.9037 Y12.4539
G01 X18.7881 Y13.3383
G01 X18.9030 Y13.4880
G01 X18.9739 Y13.6592
G01 X18.9985 Y13.8463
G01 X18.9985 Y15.0939
G01 X18.9992 Y15.1025
G01 X19.0010 Y15.1096
G01 X19.0038 Y15.1164
G01 X19.0076 Y15.1227
G01 X19.0123 Y15.1284
G01 X19.0177 Y15.1334
G01 X19.0238 Y15.1375
G01 X19.0305 Y15.1406
G01 X19.0375 Y15.1427
G01 X19.0424 Y15.1436
G01 X19.0485 Y15.1439
G01 X19.1920 Y15.1439
G01 X19.1920 Y16.3521
G01 X18.6743 Y16.3521
G01 X18.6682 Y16.3524
G01 X18.6621 Y16.3536
G01 X18.6550 Y16.3559
G01 X18.6495 Y16.3587
G01 X18.6433 Y16.3628
G01 X18.4718 Y16.4339
G01 X18.2847 Y16.4585
G01 X12.3800 Y16.4585
G01 X12.3714 Y16.4592
G01 X12.3631 Y16.4614
G01 X12.3575 Y16.4638
G01 X12.3532 Y16.4662
G01 X12.3492 Y16.4691
G01 X12.3446 Y16.4731
G01 X11.3931 Y17.4246
G01 X11.3898 Y17.4282
G01 X11.3862 Y17.4332
G01 X11.3838 Y17.4375
G01 X11.3814 Y17.4431
G01 X11.3792 Y17.4514
G01 X11.3785 Y17.4600
G01 X11.3787 Y19.1265
G01 X11.3803 Y19.1350
G01 X11.3838 Y19.1441
G01 X11.3883 Y19.1514
G01 X11.3940 Y19.1578
G01 X11.4007 Y19.1632
G01 X11.4082 Y19.1673
G01 X11.4163 Y19.1701
G01 X11.4248 Y19.1715
G01 X11.9283 Y19.1716
G01 X11.9344 Y19.1711
G01 X11.9416 Y19.1695
G01 X11.9473 Y19.1673
G01 X11.9528 Y19.1645
G01 X11.9588 Y19.1603
G01 X11.9633 Y19.1561
G01 X11.9672 Y19.1514
G01 X11.9712 Y19.1452
G01 X11.9749 Y19.1361
G01 X11.9768 Y19.1265
G01 X11.9771 Y19.0779
G01 X14.1849 Y19.0779
G01 X14.1849 Y20.7373
G01 X14.1855 Y20.7434
G01 X14.1864 Y20.7482
G01 X14.1883 Y20.7540
G01 X14.1908 Y20.7596
G01 X14.1940 Y20.7648
G01 X14.1979 Y20.7696
G01 X14.2013 Y20.7731
G01 X14.2061 Y20.7769
G01 X14.2124 Y20.7807
G01 X14.2192 Y20.7835
G01 X14.2264 Y20.7853
G01 X14.2349 Y20.7860
G01 X16.6544 Y20.7860
G01 X16.6751 Y20.8068
G01 X16.6751 Y21.3780
G01 X14.2325 Y21.3780
G01 X14.2240 Y21.3792
G01 X14.2169 Y21.3813
G01 X14.2103 Y21.3844
G01 X14.2042 Y21.3885
G01 X14.1987 Y21.3935
G01 X14.1940 Y21.3992
G01 X14.1903 Y21.4055
G01 X14.1874 Y21.4123
G01 X14.1857 Y21.4194
G01 X14.1849 Y21.4267
G01 X14.1849 Y21.5214
G01 X14.1859 Y21.5312
G01 X14.1887 Y21.5406
G01 X14.1934 Y21.5492
G01 X14.1996 Y21.5568
G01 X14.2071 Y21.5630
G01 X14.2158 Y21.5676
G01 X14.2252 Y21.5705
G01 X14.2349 Y21.5714
G01 X14.5169 Y21.5714
G01 X14.5230 Y21.5710
G01 X14.5314 Y21.5693
G01 X14.5382 Y21.5666
G01 X14.5456 Y21.5623
G01 X14.5522 Y21.5568
G01 X14.5570 Y21.5512
G01 X14.5615 Y21.5439
G01 X14.5647 Y21.5359
G01 X14.5664 Y21.5280
G01 X16.6751 Y21.5280
G01 X16.6751 Y23.0361
G01 X14.5664 Y23.0361
G01 X14.5647 Y23.0281
G01 X14.5615 Y23.0201
G01 X14.5570 Y23.0128
G01 X14.5522 Y23.0073
G01 X14.5456 Y23.0017
G01 X14.5382 Y22.9974
G01 X14.5314 Y22.9948
G01 X14.5230 Y22.9930
G01 X14.5169 Y22.9926
G01 X14.2349 Y22.9926
G01 X14.2276 Y22.9932
G01 X14.2216 Y22.9944
G01 X14.2158 Y22.9964
G01 X14.2092 Y22.9997
G01 X14.2032 Y23.0040
G01 X14.1987 Y23.0082
G01 X14.1948 Y23.0128
G01 X14.1908 Y23.0191
G01 X14.1871 Y23.0281
G01 X14.1852 Y23.0377
G01 X14.1849 Y23.0861
G01 X11.9771 Y23.0861
G01 X11.9771 Y20.6414
G01 X11.9761 Y20.6328
G01 X11.9737 Y20.6246
G01 X11.9700 Y20.6169
G01 X11.9649 Y20.6099
G01 X11.9588 Y20.6039
G01 X11.9517 Y20.5991
G01 X11.9451 Y20.5959
G01 X11.9368 Y20.5935
G01 X11.9271 Y20.5926
G01 X8.2583 Y20.5926
G01 X8.0713 Y20.5680
G01 X8.0510 Y20.5597
G01 X8.0449 Y20.5583
G01 X8.0375 Y20.5575
G01 X5.8301 Y20.5575
G01 X5.8240 Y20.5581
G01 X5.8180 Y20.5593
G01 X5.8122 Y20.5613
G01 X5.8067 Y20.5640
G01 X5.7996 Y20.5689
G01 X5.7928 Y20.5754
G01 X5.5753 Y20.7009
G01 X5.3325 Y20.7661
G01 X5.0815 Y20.7661
G01 X4.8387 Y20.7009
G01 X4.6212 Y20.5754
G01 X4.4436 Y20.3978
G01 X4.3181 Y20.1803
G01 X4.2529 Y19.9375
G01 X4.2529 Y19.8836
G01 X4.2524 Y19.8763
G01 X4.2508 Y19.8691
G01 X4.2481 Y19.8623
G01 X4.2445 Y19.8559
G01 X4.2408 Y19.8510
G01 X1.4049 Y17.0147
G01 X1.2901 Y16.8650
G01 X1.2191 Y16.6937
G01 X1.1945 Y16.5067
G01 X1.1945 Y2.7973
G01 X1.2191 Y2.6103
G01 X1.2901 Y2.4390
G01 X1.4049 Y2.2893
G01 X2.6703 Y1.0239
G01 X2.8200 Y0.9090
G01 X2.8898 Y0.8801
G01 X2.9912 Y0.8381
G01 X3.1783 Y0.8135
G01 X6.8471 Y0.8135
G01 X6.8532 Y0.8131
G01 X6.8592 Y0.8120
G01 X6.8651 Y0.8102
G01 X6.8717 Y0.8070
G01 X6.8769 Y0.8037
G01 X6.8816 Y0.7997
G01 X6.8857 Y0.7952
G01 X6.8895 Y0.7899
G01 X9.1125 Y0.7899
G01 X9.1163 Y0.7952
G01 X9.1204 Y0.7997
G01 X9.1251 Y0.8037
G01 X9.1303 Y0.8070
G01 X9.1369 Y0.8102
G01 X9.1428 Y0.8120
G01 X9.1488 Y0.8131
G01 X9.1549 Y0.8135
G01 X12.6190 Y0.8135
G01 X12.8060 Y0.8381
G01 X12.9773 Y0.9091
G01 X13.1270 Y1.0239
G01 X13.7081 Y1.6050
G01 X13.8230 Y1.7547
G01 X13.8939 Y1.9259
G01 X13.9185 Y2.1130
G01 X13.9185 Y4.0030
G01 X13.9189 Y4.0092
G01 X13.9200 Y4.0152
G01 X13.9218 Y4.0210
G01 X13.9250 Y4.0277
G01 X13.9291 Y4.0338
G01 X13.9331 Y4.0384
G01 X15.8671 Y5.9723
G01 X15.9820 Y6.1220
G01 X16.0529 Y6.2932
G01 X16.0770 Y6.4770
G01 X16.0529 Y6.6608
G01 X15.9820 Y6.8320
G01 X15.9403 Y6.8866
G01 X15.9374 Y6.8920
G01 X15.9348 Y6.8988
G01 X15.9334 Y6.9047
G01 X15.9328 Y6.9107
G01 X15.9327 Y8.5029
G01 X15.9331 Y8.5090
G01 X15.9345 Y8.5162
G01 X15.9370 Y8.5232
G01 X15.9405 Y8.5297
G01 X15.9448 Y8.5356
G01 X15.9500 Y8.5408
G01 X15.9559 Y8.5451
G01 X15.9624 Y8.5486
G01 X15.9717 Y8.5517
G01 X15.9802 Y8.5528
G01 X16.0460 Y8.5529
G01 X16.0460 Y9.6474
G01 X16.0467 Y9.6560
G01 X16.0489 Y9.6643
G01 X16.0519 Y9.6710
G01 X16.0566 Y9.6782
G01 X16.0606 Y9.6828
G01 X16.0652 Y9.6868
G01 X16.0692 Y9.6897
G01 X16.0746 Y9.6926
G01 X16.0803 Y9.6949
G01 X16.0850 Y9.6962
G01 X16.0911 Y9.6972
G01 X16.0960 Y9.6974
G01 X18.5265 Y9.6974
G01 X18.5350 Y9.6965
G01 X18.5432 Y9.6941
G01 X18.7191 Y9.6212
G01 X18.9029 Y9.5970
G01 X19.0867 Y9.6212
G01 X19.2580 Y9.6921
G01 X19.4076 Y9.8070
G01 X21.2011 Y11.6002
G01 X21.3160 Y11.7499
G01 X21.3869 Y11.9213
G01 X21.4115 Y12.1082
G01 X21.4116 Y15.0976
G01 X21.4130 Y15.1061
G01 X21.4153 Y15.1131
G01 X21.4186 Y15.1197
G01 X21.4236 Y15.1266
G01 X21.4288 Y15.1318
G01 X21.4347 Y15.1362
G01 X21.4423 Y15.1401
G01 X21.4493 Y15.1424
G01 X21.4554 Y15.1436
G01 X21.4615 Y15.1439
G01 X21.6050 Y15.1439
G01 X21.6050 Y16.3521
G01 X21.0873 Y16.3521
G01 X21.0812 Y16.3524
G01 X21.0739 Y16.3539
G01 X21.0680 Y16.3559
G01 X21.0625 Y16.3587
G01 X21.0563 Y16.3628
G01 X20.8848 Y16.4339
G01 X20.7010 Y16.4580
G01 X20.5172 Y16.4339
G01 X20.3457 Y16.3628
G01 X20.3395 Y16.3587
G01 X20.3340 Y16.3559
G01 X20.3281 Y16.3539
G01 X20.3208 Y16.3524
G01 X20.3147 Y16.3521
G01 X19.7970 Y16.3521
G01 X19.7970 Y15.1439
G01 X19.9405 Y15.1439
G01 X19.9466 Y15.1436
G01 X19.9527 Y15.1424
G01 X19.9608 Y15.1397
G01 X19.9673 Y15.1362
G01 X19.9732 Y15.1318
G01 X19.9792 Y15.1257
G01 X19.9834 Y15.1197
G01 X19.9872 Y15.1119
G01 X19.9893 Y15.1049
G01 X19.9905 Y15.0964
G01 X19.9905 Y12.4201
G01 X19.9903 Y12.4152
G01 X19.9893 Y12.4091
G01 X19.9872 Y12.4021
G01 X19.9840 Y12.3954
G01 X19.9799 Y12.3893
G01 X19.9759 Y12.3847
G01 X18.5198 Y10.9288
G01 X18.5128 Y10.9238
G01 X18.5051 Y10.9201
G01 X18.4969 Y10.9177
G01 X18.4871 Y10.9167
G01 X15.3703 Y10.9167
G00 Z1.5000
G00 X9.5910 Y4.7208
G01 F80.00
G01 Z-0.0450
G01 F80.00
G01 X9.5910 Y3.5197
G01 X9.5915 Y3.5136
G01 X9.5928 Y3.5076
G01 X9.5948 Y3.5018
G01 X9.5974 Y3.4963
G01 X9.6008 Y3.4912
G01 X9.6047 Y3.4865
G01 X9.6092 Y3.4823
G01 X9.6142 Y3.4787
G01 X9.6196 Y3.4758
G01 X9.6264 Y3.4731
G01 X9.6336 Y3.4715
G01 X9.6410 Y3.4710
G01 X11.4410 Y3.4710
G01 X11.4472 Y3.4713
G01 X11.4532 Y3.4724
G01 X11.4590 Y3.4743
G01 X11.4646 Y3.4769
G01 X11.4698 Y3.4801
G01 X11.4746 Y3.4839
G01 X11.4797 Y3.4892
G01 X11.4833 Y3.4942
G01 X11.4862 Y3.4996
G01 X11.4889 Y3.5064
G01 X11.4905 Y3.5136
G01 X11.4910 Y3.5210
G01 X11.4910 Y4.7208
G01 X11.4901 Y4.7306
G01 X11.4881 Y4.7377
G01 X11.4851 Y4.7444
G01 X11.4805 Y4.7516
G01 X11.4755 Y4.7571
G01 X11.4688 Y4.7624
G01 X11.4624 Y4.7660
G01 X11.4556 Y4.7687
G01 X11.4484 Y4.7703
G01 X11.4410 Y4.7708
G01 X11.2182 Y4.7708
G01 X11.2182 Y7.1672
G01 X11.5729 Y7.1674
G01 X11.5802 Y7.1687
G01 X11.5872 Y7.1710
G01 X11.5948 Y7.1749
G01 X11.6007 Y7.1793
G01 X11.6059 Y7.1845
G01 X11.6103 Y7.1904
G01 X11.6138 Y7.1969
G01 X11.6162 Y7.2038
G01 X11.6175 Y7.2098
G01 X11.6180 Y7.2172
G01 X11.6180 Y8.4183
G01 X11.6175 Y8.4244
G01 X11.6159 Y8.4316
G01 X11.6138 Y8.4373
G01 X11.6109 Y8.4428
G01 X11.6075 Y8.4478
G01 X11.6025 Y8.4533
G01 X11.5978 Y8.4572
G01 X11.5916 Y8.4611
G01 X11.5860 Y8.4637
G01 X11.5802 Y8.4656
G01 X11.5742 Y8.4667
G01 X11.5680 Y8.4670
G01 X9.7680 Y8.4670
G01 X9.7606 Y8.4665
G01 X9.7546 Y8.4652
G01 X9.7488 Y8.4632
G01 X9.7422 Y8.4599
G01 X9.7362 Y8.4557
G01 X9.7317 Y8.4515
G01 X9.7278 Y8.4468
G01 X9.7239 Y8.4406
G01 X9.7213 Y8.4350
G01 X9.7195 Y8.4292
G01 X9.7183 Y8.4232
G01 X9.7180 Y8.4170
G01 X9.7180 Y7.2172
G01 X9.7185 Y7.2098
G01 X9.7201 Y7.2026
G01 X9.7228 Y7.1958
G01 X9.7264 Y7.1894
G01 X9.7309 Y7.1836
G01 X9.7362 Y7.1785
G01 X9.7422 Y7.1743
G01 X9.7488 Y7.1710
G01 X9.7558 Y7.1687
G01 X9.7631 Y7.1674
G01 X10.1178 Y7.1672
G01 X10.1178 Y4.7708
G01 X9.6361 Y4.7706
G01 X9.6264 Y4.7687
G01 X9.6185 Y4.7655
G01 X9.6112 Y4.7610
G01 X9.6039 Y4.7544
G01 X9.5987 Y4.7476
G01 X9.5943 Y4.7388
G01 X9.5917 Y4.7294
G01 X9.5910 Y4.7208
G00 Z1.5000
G00 X24.0384 Y23.1494
G01 F80.00
G01 Z-0.0450
G01 F80.00
G01 X23.0224 Y24.1654
G01 X23.0148 Y24.1716
G01 X23.0073 Y24.1757
G01 X22.9980 Y24.1788
G01 X22.9895 Y24.1799
G01 X1.1430 Y24.1800
G01 X1.1345 Y24.1793
G01 X1.1250 Y24.1766
G01 X1.1173 Y24.1729
G01 X1.1094 Y24.1670
G01 X-0.0354 Y23.0224
G01 X-0.0409 Y23.0158
G01 X-0.0457 Y23.0073
G01 X-0.0488 Y22.9980
G01 X-0.0499 Y22.9895
G01 X-0.0500 Y1.5240
G01 X-0.0490 Y1.5142
G01 X-0.0466 Y1.5060
G01 X-0.0429 Y1.4983
G01 X-0.0370 Y1.4904
G01 X1.4886 Y-0.0354
G01 X1.4952 Y-0.0409
G01 X1.5026 Y-0.0452
G01 X1.5107 Y-0.0482
G01 X1.5203 Y-0.0499
G01 X22.8600 Y-0.0500
G01 X22.8698 Y-0.0490
G01 X22.8780 Y-0.0466
G01 X22.8867 Y-0.0422
G01 X22.8936 Y-0.0370
G01 X24.0384 Y1.1076
G01 X24.0446 Y1.1152
G01 X24.0487 Y1.1227
G01 X24.0518 Y1.1320
G01 X24.0529 Y1.1405
G01 X24.0530 Y23.1140
G01 X24.0520 Y23.1238
G01 X24.0492 Y23.1331
G01 X24.0446 Y23.1418
G01 X24.0384 Y23.1494
G00 Z1.5000
M05
G00 Z1.5000
G00 Z15.00


