(G-CODE GENERATED BY FLATCAM v8.994 - www.flatcam.org - Version Date: 2020/11/7)

(Name: PCB3.GTL_iso_combined_cnc)
(Type: G-code from Geometry)
(Units: MM)

(Created on Thursday, 16 March 2023 at 12:19)

(This preprocessor is the default preprocessor used by FlatCAM.)
(It is made to work with MACH3 compatible motion controllers.)

(TOOL DIAMETER: 0.2 mm)
(Feedrate_XY: 80.0 mm/min)
(Feedrate_Z: 60.0 mm/min)
(Feedrate rapids 1500.0 mm/min)

(Z_Cut: -0.03 mm)
(Z_Move: 2.0 mm)
(Z Start: None mm)
(Z End: 15.0 mm)
(X,Y End: None mm)
(Steps per circle: 64)
(Preprocessor Geometry: default)

(X range:   -0.1000 ...   52.1700  mm)
(Y range:   -0.1000 ...   26.2620  mm)

(Spindle Speed: 10000.0 RPM)
G21
G90
G94

G01 F80.00

M5
G00 Z15.0000
G00 X0.0000 Y0.0000
T2
M6    
(MSG, Change to Tool Dia = 0.2000)
M0
G00 Z15.0000

M03 S10000.0
G01 F80.00
G00 X3.6230 Y4.6288
G01 F60.00
G01 Z-0.0300
G01 F80.00
G01 X3.5582 Y4.6288
G01 X3.5582 Y3.8624
G01 X3.5987 Y3.5545
G01 X3.7150 Y3.2738
G01 X3.8999 Y3.0327
G01 X4.1410 Y2.8478
G01 X4.4217 Y2.7315
G01 X4.7296 Y2.6910
G01 X5.9960 Y2.6910
G01 X5.9960 Y2.7558
G01 X4.7205 Y2.7558
G01 X4.6152 Y2.7611
G01 X4.5132 Y2.7761
G01 X4.5036 Y2.7780
G01 X4.4037 Y2.8032
G01 X4.3066 Y2.8378
G01 X4.2976 Y2.8415
G01 X4.2045 Y2.8857
G01 X4.1160 Y2.9386
G01 X4.1079 Y2.9440
G01 X4.0252 Y3.0055
G01 X3.9452 Y3.0780
G01 X3.8759 Y3.1543
G01 X3.8697 Y3.1618
G01 X3.8112 Y3.2407
G01 X3.8058 Y3.2488
G01 X3.7529 Y3.3373
G01 X3.7067 Y3.4348
G01 X3.6704 Y3.5365
G01 X3.6452 Y3.6364
G01 X3.6433 Y3.6460
G01 X3.6283 Y3.7480
G01 X3.6230 Y3.8533
G01 X3.6230 Y4.6288
G00 Z2.0000
G00 X5.9960 Y7.0206
G01 F60.00
G01 Z-0.0300
G01 F80.00
G01 X4.7296 Y7.0206
G01 X4.4217 Y6.9801
G01 X4.1410 Y6.8638
G01 X3.8999 Y6.6789
G01 X3.7150 Y6.4378
G01 X3.5987 Y6.1571
G01 X3.5582 Y5.8492
G01 X3.5582 Y5.0828
G01 X3.6230 Y5.0828
G01 X3.6231 Y5.8607
G01 X3.6283 Y5.9636
G01 X3.6433 Y6.0656
G01 X3.6452 Y6.0752
G01 X3.6697 Y6.1728
G01 X3.6719 Y6.1798
G01 X3.7050 Y6.2722
G01 X3.7087 Y6.2812
G01 X3.7529 Y6.3743
G01 X3.8084 Y6.4669
G01 X3.8727 Y6.5536
G01 X3.9418 Y6.6301
G01 X3.9487 Y6.6370
G01 X4.0215 Y6.7029
G01 X4.0271 Y6.7076
G01 X4.1079 Y6.7676
G01 X4.1160 Y6.7730
G01 X4.2045 Y6.8259
G01 X4.2976 Y6.8701
G01 X4.3066 Y6.8738
G01 X4.4037 Y6.9084
G01 X4.5036 Y6.9336
G01 X4.5132 Y6.9355
G01 X4.6152 Y6.9505
G01 X4.7205 Y6.9558
G01 X5.9960 Y6.9558
G01 X5.9960 Y7.0206
G00 Z2.0000
G00 X7.7164 Y7.0206
G01 F60.00
G01 Z-0.0300
G01 F80.00
G01 X6.4500 Y7.0206
G01 X6.4500 Y6.9558
G01 X7.7230 Y6.9558
G01 X7.8259 Y6.9509
G01 X7.8333 Y6.9502
G01 X7.9376 Y6.9347
G01 X8.0376 Y6.9097
G01 X8.0470 Y6.9069
G01 X8.1440 Y6.8721
G01 X8.2372 Y6.8281
G01 X8.2458 Y6.8235
G01 X8.3341 Y6.7704
G01 X8.4189 Y6.7076
G01 X8.4245 Y6.7029
G01 X8.4973 Y6.6370
G01 X8.5042 Y6.6301
G01 X8.5733 Y6.5536
G01 X8.6376 Y6.4669
G01 X8.6931 Y6.3743
G01 X8.7373 Y6.2812
G01 X8.7410 Y6.2722
G01 X8.7741 Y6.1798
G01 X8.7763 Y6.1728
G01 X8.8008 Y6.0752
G01 X8.8027 Y6.0656
G01 X8.8177 Y5.9636
G01 X8.8229 Y5.8607
G01 X8.8230 Y5.0828
G01 X8.8878 Y5.0828
G01 X8.8878 Y5.8492
G01 X8.8473 Y6.1571
G01 X8.7310 Y6.4378
G01 X8.5461 Y6.6789
G01 X8.3050 Y6.8638
G01 X8.0243 Y6.9801
G01 X7.7164 Y7.0206
G00 Z2.0000
G00 X8.8878 Y4.6288
G01 F60.00
G01 Z-0.0300
G01 F80.00
G01 X8.8230 Y4.6288
G01 X8.8229 Y3.8509
G01 X8.8177 Y3.7480
G01 X8.8027 Y3.6460
G01 X8.8008 Y3.6364
G01 X8.7763 Y3.5388
G01 X8.7741 Y3.5318
G01 X8.7410 Y3.4394
G01 X8.7373 Y3.4304
G01 X8.6931 Y3.3373
G01 X8.6376 Y3.2447
G01 X8.5733 Y3.1580
G01 X8.5042 Y3.0815
G01 X8.4973 Y3.0746
G01 X8.4245 Y3.0087
G01 X8.4189 Y3.0040
G01 X8.3381 Y2.9440
G01 X8.3300 Y2.9386
G01 X8.2415 Y2.8857
G01 X8.1484 Y2.8415
G01 X8.1394 Y2.8378
G01 X8.0423 Y2.8032
G01 X7.9424 Y2.7780
G01 X7.9328 Y2.7761
G01 X7.8308 Y2.7611
G01 X7.7255 Y2.7558
G01 X6.4500 Y2.7558
G01 X6.4500 Y2.6910
G01 X7.7164 Y2.6910
G01 X8.0243 Y2.7315
G01 X8.3050 Y2.8478
G01 X8.5461 Y3.0327
G01 X8.7310 Y3.2738
G01 X8.8473 Y3.5545
G01 X8.8878 Y3.8624
G01 X8.8878 Y4.6288
G00 Z2.0000
G00 X18.2770 Y4.5640
G01 F60.00
G01 Z-0.0300
G01 F80.00
G01 X20.0819 Y4.5641
G01 X20.0917 Y4.5651
G01 X20.0989 Y4.5664
G01 X20.1084 Y4.5690
G01 X20.1175 Y4.5726
G01 X20.1263 Y4.5770
G01 X20.1346 Y4.5822
G01 X20.1423 Y4.5883
G01 X20.1494 Y4.5950
G01 X20.1543 Y4.6006
G01 X20.1601 Y4.6084
G01 X20.1652 Y4.6169
G01 X20.1694 Y4.6257
G01 X20.1727 Y4.6350
G01 X20.1751 Y4.6445
G01 X20.1765 Y4.6542
G01 X20.1770 Y4.6637
G01 X21.6060 Y4.6637
G01 X21.6065 Y4.6542
G01 X21.6079 Y4.6445
G01 X21.6103 Y4.6350
G01 X21.6136 Y4.6257
G01 X21.6178 Y4.6169
G01 X21.6229 Y4.6084
G01 X21.6287 Y4.6006
G01 X21.6353 Y4.5933
G01 X21.6407 Y4.5883
G01 X21.6484 Y4.5822
G01 X21.6567 Y4.5770
G01 X21.6655 Y4.5726
G01 X21.6746 Y4.5690
G01 X21.6841 Y4.5664
G01 X21.6938 Y4.5648
G01 X21.7035 Y4.5640
G01 X23.5085 Y4.5640
G01 X23.5207 Y4.5651
G01 X23.5327 Y4.5676
G01 X23.5443 Y4.5716
G01 X23.5553 Y4.5770
G01 X23.5656 Y4.5837
G01 X23.5750 Y4.5916
G01 X23.5833 Y4.6006
G01 X23.5905 Y4.6105
G01 X23.5942 Y4.6169
G01 X23.5974 Y4.6235
G01 X23.6017 Y4.6350
G01 X23.6036 Y4.6421
G01 X23.6049 Y4.6493
G01 X23.6057 Y4.6566
G01 X23.6060 Y4.6640
G01 X23.6060 Y5.8640
G01 X23.6057 Y5.8714
G01 X23.6049 Y5.8787
G01 X23.6024 Y5.8907
G01 X23.5984 Y5.9023
G01 X23.5953 Y5.9090
G01 X23.5918 Y5.9154
G01 X23.5878 Y5.9216
G01 X23.5833 Y5.9274
G01 X23.5784 Y5.9330
G01 X23.5732 Y5.9381
G01 X23.5675 Y5.9428
G01 X23.5616 Y5.9471
G01 X23.5553 Y5.9510
G01 X23.5488 Y5.9544
G01 X23.5420 Y5.9573
G01 X23.5350 Y5.9597
G01 X23.5231 Y5.9625
G01 X23.5158 Y5.9635
G01 X23.5060 Y5.9640
G01 X23.2062 Y5.9640
G01 X23.2062 Y10.1600
G01 X23.2036 Y10.2164
G01 X23.2010 Y10.2356
G01 X23.2010 Y11.9338
G01 X23.2002 Y11.9508
G01 X23.1994 Y11.9581
G01 X23.1968 Y11.9750
G01 X23.1927 Y11.9915
G01 X23.1907 Y11.9986
G01 X23.1849 Y12.0146
G01 X23.1746 Y12.0368
G01 X23.1647 Y12.0536
G01 X23.1605 Y12.0596
G01 X23.1503 Y12.0732
G01 X23.1389 Y12.0860
G01 X23.1338 Y12.0912
G01 X23.1192 Y12.1043
G01 X23.0996 Y12.1187
G01 X23.0828 Y12.1286
G01 X23.0674 Y12.1360
G01 X23.0606 Y12.1389
G01 X23.0423 Y12.1454
G01 X23.0234 Y12.1502
G01 X23.0161 Y12.1516
G01 X22.9992 Y12.1540
G01 X22.9822 Y12.1549
G01 X22.2347 Y12.1550
G01 X22.2103 Y12.1537
G01 X22.1910 Y12.1508
G01 X22.1721 Y12.1461
G01 X22.1537 Y12.1398
G01 X22.1446 Y12.1360
G01 X22.1292 Y12.1286
G01 X22.1104 Y12.1173
G01 X22.0928 Y12.1043
G01 X22.0800 Y12.0929
G01 X22.0748 Y12.0878
G01 X22.0649 Y12.0770
G01 X22.0587 Y12.0694
G01 X22.0487 Y12.0556
G01 X22.0374 Y12.0368
G01 X22.0280 Y12.0169
G01 X22.0221 Y12.0009
G01 X22.0193 Y11.9915
G01 X22.0148 Y11.9725
G01 X22.0120 Y11.9532
G01 X22.0110 Y11.9313
G01 X22.0110 Y10.2356
G01 X22.0084 Y10.2164
G01 X22.0057 Y10.1600
G01 X22.0057 Y5.9640
G01 X21.7060 Y5.9640
G01 X21.6938 Y5.9632
G01 X21.6817 Y5.9610
G01 X21.6723 Y5.9582
G01 X21.6655 Y5.9554
G01 X21.6567 Y5.9510
G01 X21.6504 Y5.9471
G01 X21.6445 Y5.9428
G01 X21.6388 Y5.9381
G01 X21.6319 Y5.9312
G01 X21.6272 Y5.9255
G01 X21.6229 Y5.9196
G01 X21.6190 Y5.9133
G01 X21.6146 Y5.9045
G01 X21.6118 Y5.8977
G01 X21.6090 Y5.8883
G01 X21.6075 Y5.8811
G01 X21.6065 Y5.8738
G01 X21.6060 Y5.8642
G01 X20.1770 Y5.8643
G01 X20.1765 Y5.8738
G01 X20.1751 Y5.8835
G01 X20.1727 Y5.8930
G01 X20.1694 Y5.9023
G01 X20.1652 Y5.9111
G01 X20.1601 Y5.9196
G01 X20.1543 Y5.9274
G01 X20.1477 Y5.9347
G01 X20.1423 Y5.9397
G01 X20.1346 Y5.9458
G01 X20.1263 Y5.9510
G01 X20.1175 Y5.9554
G01 X20.1084 Y5.9590
G01 X20.0989 Y5.9616
G01 X20.0892 Y5.9632
G01 X20.0795 Y5.9640
G01 X18.2770 Y5.9640
G01 X18.2672 Y5.9635
G01 X18.2575 Y5.9621
G01 X18.2480 Y5.9597
G01 X18.2410 Y5.9573
G01 X18.2342 Y5.9544
G01 X18.2277 Y5.9510
G01 X18.2214 Y5.9471
G01 X18.2155 Y5.9428
G01 X18.2098 Y5.9381
G01 X18.2046 Y5.9330
G01 X18.1967 Y5.9236
G01 X18.1925 Y5.9175
G01 X18.1888 Y5.9111
G01 X18.1856 Y5.9045
G01 X18.1828 Y5.8977
G01 X18.1806 Y5.8907
G01 X18.1789 Y5.8835
G01 X18.1778 Y5.8762
G01 X18.1771 Y5.8689
G01 X18.1770 Y4.6615
G01 X18.1778 Y4.6518
G01 X18.1794 Y4.6421
G01 X18.1820 Y4.6326
G01 X18.1856 Y4.6235
G01 X18.1900 Y4.6147
G01 X18.1952 Y4.6064
G01 X18.2013 Y4.5987
G01 X18.2080 Y4.5916
G01 X18.2155 Y4.5852
G01 X18.2235 Y4.5795
G01 X18.2320 Y4.5747
G01 X18.2410 Y4.5707
G01 X18.2503 Y4.5676
G01 X18.2599 Y4.5655
G01 X18.2696 Y4.5643
G01 X18.2770 Y4.5640
G00 Z2.0000
G00 X18.7770 Y3.6180
G01 F60.00
G01 Z-0.0300
G01 F80.00
G01 X18.1230 Y3.6180
G01 X18.1230 Y3.2640
G01 X18.1770 Y3.2640
G01 X18.1770 Y3.4640
G01 X18.1773 Y3.4714
G01 X18.1785 Y3.4811
G01 X18.1813 Y3.4930
G01 X18.1846 Y3.5023
G01 X18.1900 Y3.5133
G01 X18.1967 Y3.5236
G01 X18.2046 Y3.5330
G01 X18.2117 Y3.5397
G01 X18.2194 Y3.5458
G01 X18.2299 Y3.5522
G01 X18.2410 Y3.5573
G01 X18.2527 Y3.5610
G01 X18.2648 Y3.5632
G01 X18.2745 Y3.5640
G01 X18.7770 Y3.5640
G01 X18.7770 Y3.6180
G00 Z2.0000
G00 X18.1770 Y2.4640
G01 F60.00
G01 Z-0.0300
G01 F80.00
G01 X18.1230 Y2.4640
G01 X18.1230 Y2.1100
G01 X18.7770 Y2.1100
G01 X18.7770 Y2.1640
G01 X18.2745 Y2.1640
G01 X18.2672 Y2.1645
G01 X18.2599 Y2.1655
G01 X18.2480 Y2.1683
G01 X18.2365 Y2.1726
G01 X18.2256 Y2.1782
G01 X18.2174 Y2.1837
G01 X18.2080 Y2.1916
G01 X18.2013 Y2.1987
G01 X18.1939 Y2.2084
G01 X18.1888 Y2.2169
G01 X18.1846 Y2.2257
G01 X18.1806 Y2.2373
G01 X18.1785 Y2.2469
G01 X18.1773 Y2.2566
G01 X18.1770 Y2.2640
G01 X18.1770 Y2.4640
G00 Z2.0000
G00 X21.7060 Y2.1640
G01 F60.00
G01 Z-0.0300
G01 F80.00
G01 X22.4186 Y2.1640
G01 X22.4645 Y2.1526
G01 X22.5325 Y2.1425
G01 X22.5398 Y2.1418
G01 X22.6060 Y2.1387
G01 X24.5880 Y2.1387
G01 X24.5880 Y2.0550
G01 X24.5885 Y2.0452
G01 X24.5899 Y2.0355
G01 X24.5923 Y2.0260
G01 X24.5956 Y2.0167
G01 X24.5998 Y2.0079
G01 X24.6062 Y1.9974
G01 X24.6139 Y1.9878
G01 X24.6190 Y1.9826
G01 X24.6246 Y1.9777
G01 X24.6345 Y1.9705
G01 X24.6409 Y1.9668
G01 X24.6475 Y1.9636
G01 X24.6590 Y1.9593
G01 X24.6661 Y1.9574
G01 X24.6733 Y1.9561
G01 X24.6855 Y1.9550
G01 X26.7605 Y1.9550
G01 X26.7678 Y1.9555
G01 X26.7751 Y1.9565
G01 X26.7823 Y1.9580
G01 X26.7894 Y1.9600
G01 X26.7963 Y1.9626
G01 X26.8030 Y1.9657
G01 X26.8094 Y1.9692
G01 X26.8156 Y1.9732
G01 X26.8214 Y1.9777
G01 X26.8270 Y1.9826
G01 X26.8321 Y1.9878
G01 X26.8368 Y1.9935
G01 X26.8411 Y1.9994
G01 X26.8450 Y2.0057
G01 X26.8484 Y2.0122
G01 X26.8513 Y2.0190
G01 X26.8544 Y2.0283
G01 X26.8565 Y2.0379
G01 X26.8575 Y2.0452
G01 X26.8580 Y2.0550
G01 X26.8580 Y5.5650
G01 X26.8572 Y5.5772
G01 X26.8561 Y5.5845
G01 X26.8537 Y5.5940
G01 X26.8513 Y5.6010
G01 X26.8473 Y5.6100
G01 X26.8438 Y5.6164
G01 X26.8383 Y5.6246
G01 X26.8337 Y5.6303
G01 X26.8287 Y5.6357
G01 X26.8233 Y5.6407
G01 X26.8156 Y5.6468
G01 X26.8094 Y5.6508
G01 X26.8030 Y5.6543
G01 X26.7940 Y5.6583
G01 X26.7870 Y5.6607
G01 X26.7799 Y5.6626
G01 X26.7702 Y5.6642
G01 X26.7580 Y5.6650
G01 X26.1272 Y5.6650
G01 X26.1272 Y8.3890
G01 X26.1246 Y8.4454
G01 X26.1238 Y8.4527
G01 X26.1157 Y8.5061
G01 X26.1027 Y8.5585
G01 X26.0999 Y8.5679
G01 X26.0816 Y8.6187
G01 X26.0586 Y8.6676
G01 X26.0540 Y8.6762
G01 X26.0261 Y8.7225
G01 X25.9910 Y8.7698
G01 X25.9532 Y8.8117
G01 X25.7512 Y9.0136
G01 X25.7512 Y10.1550
G01 X25.7484 Y10.2138
G01 X25.7410 Y10.2643
G01 X25.7409 Y11.9362
G01 X25.7400 Y11.9532
G01 X25.7372 Y11.9725
G01 X25.7327 Y11.9915
G01 X25.7307 Y11.9986
G01 X25.7240 Y12.0169
G01 X25.7168 Y12.0324
G01 X25.7122 Y12.0410
G01 X25.7020 Y12.0576
G01 X25.6903 Y12.0732
G01 X25.6789 Y12.0860
G01 X25.6738 Y12.0912
G01 X25.6592 Y12.1043
G01 X25.6416 Y12.1173
G01 X25.6270 Y12.1262
G01 X25.6184 Y12.1308
G01 X25.6006 Y12.1389
G01 X25.5823 Y12.1454
G01 X25.5610 Y12.1508
G01 X25.5392 Y12.1540
G01 X25.5198 Y12.1550
G01 X24.7747 Y12.1550
G01 X24.7528 Y12.1540
G01 X24.7335 Y12.1512
G01 X24.7145 Y12.1467
G01 X24.7051 Y12.1439
G01 X24.6891 Y12.1380
G01 X24.6692 Y12.1286
G01 X24.6504 Y12.1173
G01 X24.6366 Y12.1073
G01 X24.6290 Y12.1011
G01 X24.6182 Y12.0912
G01 X24.6131 Y12.0860
G01 X24.6017 Y12.0732
G01 X24.5887 Y12.0556
G01 X24.5774 Y12.0368
G01 X24.5700 Y12.0214
G01 X24.5662 Y12.0123
G01 X24.5599 Y11.9939
G01 X24.5552 Y11.9750
G01 X24.5523 Y11.9557
G01 X24.5510 Y11.9313
G01 X24.5510 Y10.2356
G01 X24.5484 Y10.2164
G01 X24.5457 Y10.1600
G01 X24.5484 Y10.1036
G01 X24.5507 Y10.0861
G01 X24.5510 Y8.3887
G01 X24.5520 Y8.3668
G01 X24.5558 Y8.3426
G01 X24.5599 Y8.3261
G01 X24.5621 Y8.3191
G01 X24.5680 Y8.3031
G01 X24.5752 Y8.2876
G01 X24.5786 Y8.2811
G01 X24.5860 Y8.2685
G01 X24.5900 Y8.2624
G01 X24.6002 Y8.2487
G01 X24.6165 Y8.2305
G01 X24.6347 Y8.2142
G01 X24.6484 Y8.2040
G01 X24.6545 Y8.2000
G01 X24.6714 Y8.1902
G01 X24.6868 Y8.1829
G01 X24.6937 Y8.1802
G01 X24.7097 Y8.1746
G01 X24.7263 Y8.1703
G01 X24.7335 Y8.1688
G01 X24.7479 Y8.1666
G01 X24.7552 Y8.1658
G01 X24.7747 Y8.1650
G01 X24.9021 Y8.1650
G01 X24.9267 Y8.1404
G01 X24.9267 Y5.6650
G01 X24.6880 Y5.6650
G01 X24.6758 Y5.6642
G01 X24.6637 Y5.6620
G01 X24.6566 Y5.6600
G01 X24.6497 Y5.6574
G01 X24.6430 Y5.6543
G01 X24.6366 Y5.6508
G01 X24.6265 Y5.6438
G01 X24.6208 Y5.6391
G01 X24.6156 Y5.6340
G01 X24.6107 Y5.6284
G01 X24.6062 Y5.6226
G01 X24.6022 Y5.6164
G01 X24.5987 Y5.6100
G01 X24.5956 Y5.6033
G01 X24.5930 Y5.5964
G01 X24.5910 Y5.5893
G01 X24.5895 Y5.5821
G01 X24.5883 Y5.5724
G01 X24.5880 Y5.5650
G01 X24.5880 Y3.5893
G01 X22.6035 Y3.5893
G01 X22.5398 Y3.5862
G01 X22.5300 Y3.5852
G01 X22.4645 Y3.5754
G01 X22.4186 Y3.5640
G01 X21.7035 Y3.5640
G01 X21.6938 Y3.5632
G01 X21.6817 Y3.5610
G01 X21.6723 Y3.5582
G01 X21.6610 Y3.5533
G01 X21.6546 Y3.5498
G01 X21.6484 Y3.5458
G01 X21.6388 Y3.5381
G01 X21.6303 Y3.5293
G01 X21.6229 Y3.5196
G01 X21.6190 Y3.5133
G01 X21.6156 Y3.5068
G01 X21.6110 Y3.4954
G01 X21.6090 Y3.4883
G01 X21.6075 Y3.4811
G01 X21.6061 Y3.4689
G01 X21.6060 Y2.2615
G01 X21.6068 Y2.2518
G01 X21.6079 Y2.2445
G01 X21.6103 Y2.2350
G01 X21.6136 Y2.2257
G01 X21.6178 Y2.2169
G01 X21.6229 Y2.2084
G01 X21.6287 Y2.2006
G01 X21.6353 Y2.1933
G01 X21.6426 Y2.1867
G01 X21.6504 Y2.1809
G01 X21.6589 Y2.1758
G01 X21.6677 Y2.1716
G01 X21.6770 Y2.1683
G01 X21.6865 Y2.1659
G01 X21.6962 Y2.1645
G01 X21.7060 Y2.1640
G00 Z2.0000
G00 X20.2772 Y6.0640
G01 F60.00
G01 Z-0.0300
G01 F80.00
G01 X18.0770 Y6.0640
G01 X18.0770 Y4.4640
G01 X20.3795 Y4.4640
G01 X20.3868 Y4.4635
G01 X20.3941 Y4.4625
G01 X20.4013 Y4.4610
G01 X20.4084 Y4.4590
G01 X20.4153 Y4.4564
G01 X20.4220 Y4.4533
G01 X20.4284 Y4.4498
G01 X20.4346 Y4.4458
G01 X20.4404 Y4.4413
G01 X20.4460 Y4.4364
G01 X20.4511 Y4.4312
G01 X20.4558 Y4.4255
G01 X20.4601 Y4.4196
G01 X20.4640 Y4.4133
G01 X20.4674 Y4.4068
G01 X20.4703 Y4.4000
G01 X20.4734 Y4.3907
G01 X20.4755 Y4.3811
G01 X20.4765 Y4.3738
G01 X20.4770 Y4.3640
G01 X20.4770 Y3.8259
G01 X20.4765 Y3.8158
G01 X20.4744 Y3.8034
G01 X20.4725 Y3.7961
G01 X20.4699 Y3.7890
G01 X20.4220 Y3.6766
G01 X20.4176 Y3.6679
G01 X20.4123 Y3.6597
G01 X20.4046 Y3.6503
G01 X20.3977 Y3.6435
G01 X20.3921 Y3.6388
G01 X20.3841 Y3.6333
G01 X20.3778 Y3.6296
G01 X20.3690 Y3.6255
G01 X20.3598 Y3.6222
G01 X20.3503 Y3.6199
G01 X20.3407 Y3.6185
G01 X20.3334 Y3.6180
G01 X19.5770 Y3.6180
G01 X19.5770 Y3.5640
G01 X20.0770 Y3.5640
G01 X20.0868 Y3.5635
G01 X20.0989 Y3.5616
G01 X20.1060 Y3.5597
G01 X20.1130 Y3.5573
G01 X20.1241 Y3.5522
G01 X20.1346 Y3.5458
G01 X20.1404 Y3.5413
G01 X20.1460 Y3.5364
G01 X20.1543 Y3.5274
G01 X20.1588 Y3.5216
G01 X20.1628 Y3.5154
G01 X20.1684 Y3.5045
G01 X20.1720 Y3.4954
G01 X20.1746 Y3.4859
G01 X20.1765 Y3.4738
G01 X20.1770 Y3.4640
G01 X20.1770 Y2.2640
G01 X20.1767 Y2.2566
G01 X20.1755 Y2.2469
G01 X20.1734 Y2.2373
G01 X20.1712 Y2.2303
G01 X20.1684 Y2.2235
G01 X20.1652 Y2.2169
G01 X20.1601 Y2.2084
G01 X20.1558 Y2.2025
G01 X20.1511 Y2.1968
G01 X20.1442 Y2.1899
G01 X20.1366 Y2.1837
G01 X20.1305 Y2.1795
G01 X20.1220 Y2.1747
G01 X20.1153 Y2.1716
G01 X20.1084 Y2.1690
G01 X20.1013 Y2.1670
G01 X20.0892 Y2.1648
G01 X20.0770 Y2.1640
G01 X19.5770 Y2.1640
G01 X19.5770 Y2.1100
G01 X20.2741 Y2.1099
G01 X20.2817 Y2.1092
G01 X20.2891 Y2.1080
G01 X20.2965 Y2.1062
G01 X20.3036 Y2.1038
G01 X20.3974 Y2.0640
G01 X22.3617 Y2.0640
G01 X22.3743 Y2.0632
G01 X22.3873 Y2.0607
G01 X22.6126 Y2.0310
G01 X24.3929 Y2.0309
G01 X24.4002 Y2.0302
G01 X24.4075 Y2.0291
G01 X24.4194 Y2.0260
G01 X24.4308 Y2.0214
G01 X24.4415 Y2.0155
G01 X24.4476 Y2.0113
G01 X24.4533 Y2.0067
G01 X24.4621 Y1.9982
G01 X24.4698 Y1.9886
G01 X24.4762 Y1.9781
G01 X24.4804 Y1.9693
G01 X24.4837 Y1.9600
G01 X24.4861 Y1.9505
G01 X24.4875 Y1.9408
G01 X24.4880 Y1.9310
G01 X24.4880 Y1.8550
G01 X27.0166 Y1.8550
G01 X27.0387 Y1.8767
G01 X27.0484 Y1.8841
G01 X27.0569 Y1.8892
G01 X27.0680 Y1.8943
G01 X27.0797 Y1.8980
G01 X27.0918 Y1.9002
G01 X27.1040 Y1.9010
G01 X30.2650 Y1.9010
G01 X30.2650 Y1.9550
G01 X29.6300 Y1.9550
G01 X29.6202 Y1.9555
G01 X29.6105 Y1.9569
G01 X29.6033 Y1.9586
G01 X29.5963 Y1.9608
G01 X29.5872 Y1.9646
G01 X29.5807 Y1.9680
G01 X29.5744 Y1.9719
G01 X29.5666 Y1.9777
G01 X29.5610 Y1.9826
G01 X29.5559 Y1.9878
G01 X29.5512 Y1.9935
G01 X29.5469 Y1.9994
G01 X29.5430 Y2.0057
G01 X29.5396 Y2.0122
G01 X29.5367 Y2.0190
G01 X29.5343 Y2.0260
G01 X29.5324 Y2.0331
G01 X29.5308 Y2.0428
G01 X29.5300 Y2.0550
G01 X29.5300 Y5.5650
G01 X29.5305 Y5.5748
G01 X29.5319 Y5.5845
G01 X29.5336 Y5.5917
G01 X29.5358 Y5.5987
G01 X29.5386 Y5.6055
G01 X29.5418 Y5.6121
G01 X29.5455 Y5.6185
G01 X29.5497 Y5.6246
G01 X29.5543 Y5.6303
G01 X29.5593 Y5.6357
G01 X29.5647 Y5.6407
G01 X29.5704 Y5.6453
G01 X29.5786 Y5.6508
G01 X29.5850 Y5.6543
G01 X29.5917 Y5.6574
G01 X29.5986 Y5.6600
G01 X29.6057 Y5.6620
G01 X29.6129 Y5.6635
G01 X29.6226 Y5.6647
G01 X29.6300 Y5.6650
G01 X30.2650 Y5.6650
G01 X30.2650 Y5.7190
G01 X29.3760 Y5.7190
G01 X29.3686 Y5.7193
G01 X29.3613 Y5.7201
G01 X29.3541 Y5.7214
G01 X29.3470 Y5.7233
G01 X29.3400 Y5.7257
G01 X29.3332 Y5.7286
G01 X29.3267 Y5.7320
G01 X29.3204 Y5.7359
G01 X29.3126 Y5.7417
G01 X29.3053 Y5.7483
G01 X29.3003 Y5.7537
G01 X29.2957 Y5.7594
G01 X29.2915 Y5.7655
G01 X29.2878 Y5.7719
G01 X29.2846 Y5.7785
G01 X29.2818 Y5.7853
G01 X29.2796 Y5.7923
G01 X29.2779 Y5.7995
G01 X29.2768 Y5.8068
G01 X29.2760 Y5.8190
G01 X29.2760 Y8.8096
G01 X29.2618 Y8.8238
G01 X29.2569 Y8.8294
G01 X29.2511 Y8.8372
G01 X29.2449 Y8.8478
G01 X29.2400 Y8.8591
G01 X29.2366 Y8.8709
G01 X29.2347 Y8.8830
G01 X29.2342 Y8.8928
G01 X29.2347 Y8.9026
G01 X29.2361 Y8.9123
G01 X29.2385 Y8.9218
G01 X29.2418 Y8.9311
G01 X29.2924 Y9.0529
G01 X29.2958 Y9.0594
G01 X29.3010 Y9.0677
G01 X29.3071 Y9.0754
G01 X29.3121 Y9.0808
G01 X29.3194 Y9.0874
G01 X29.3272 Y9.0932
G01 X29.3357 Y9.0983
G01 X29.3445 Y9.1025
G01 X29.3538 Y9.1058
G01 X29.3633 Y9.1082
G01 X29.3730 Y9.1096
G01 X29.3828 Y9.1101
G01 X31.9704 Y9.1101
G01 X32.1597 Y9.1350
G01 X32.3416 Y9.2103
G01 X32.3533 Y9.2140
G01 X32.3654 Y9.2162
G01 X32.3776 Y9.2170
G01 X32.7770 Y9.2170
G01 X32.7770 Y9.5759
G01 X32.7773 Y9.5833
G01 X32.7785 Y9.5930
G01 X32.7800 Y9.6002
G01 X32.7828 Y9.6096
G01 X32.7856 Y9.6164
G01 X32.7888 Y9.6230
G01 X32.7939 Y9.6315
G01 X32.7982 Y9.6374
G01 X32.8046 Y9.6449
G01 X43.7595 Y20.5998
G01 X43.7649 Y20.6048
G01 X43.7726 Y20.6109
G01 X43.7809 Y20.6161
G01 X43.7874 Y20.6195
G01 X43.7988 Y20.6241
G01 X43.8083 Y20.6267
G01 X43.8180 Y20.6283
G01 X43.8302 Y20.6291
G01 X45.3218 Y20.6291
G01 X45.3292 Y20.6288
G01 X45.3365 Y20.6280
G01 X45.3437 Y20.6267
G01 X45.3508 Y20.6248
G01 X45.3578 Y20.6224
G01 X45.3646 Y20.6195
G01 X45.3711 Y20.6161
G01 X45.3774 Y20.6122
G01 X45.3871 Y20.6048
G01 X45.3942 Y20.5981
G01 X45.4006 Y20.5906
G01 X45.4076 Y20.5805
G01 X45.4122 Y20.5719
G01 X45.4168 Y20.5605
G01 X45.4194 Y20.5510
G01 X45.4213 Y20.5389
G01 X45.4218 Y20.5291
G01 X45.4218 Y20.0886
G01 X45.4639 Y19.7687
G01 X45.5848 Y19.4768
G01 X45.7771 Y19.2261
G01 X46.0278 Y19.0338
G01 X46.3197 Y18.9129
G01 X46.6396 Y18.8708
G01 X49.6264 Y18.8708
G01 X49.9463 Y18.9129
G01 X50.2382 Y19.0338
G01 X50.4889 Y19.2261
G01 X50.6812 Y19.4768
G01 X50.8021 Y19.7687
G01 X50.8442 Y20.0886
G01 X50.8442 Y22.0754
G01 X50.8021 Y22.3953
G01 X50.6812 Y22.6872
G01 X50.4889 Y22.9379
G01 X50.2382 Y23.1302
G01 X49.9463 Y23.2511
G01 X49.6264 Y23.2932
G01 X46.6396 Y23.2932
G01 X46.3197 Y23.2511
G01 X46.0278 Y23.1302
G01 X45.7771 Y22.9379
G01 X45.5848 Y22.6872
G01 X45.4639 Y22.3953
G01 X45.4289 Y22.1298
G01 X45.4272 Y22.1202
G01 X45.4245 Y22.1109
G01 X45.4199 Y22.0996
G01 X45.4153 Y22.0910
G01 X45.4098 Y22.0829
G01 X45.4019 Y22.0736
G01 X45.3948 Y22.0669
G01 X45.3851 Y22.0596
G01 X45.3767 Y22.0546
G01 X45.3656 Y22.0495
G01 X45.3563 Y22.0465
G01 X45.3468 Y22.0444
G01 X45.3371 Y22.0432
G01 X45.3298 Y22.0429
G01 X43.5026 Y22.0429
G01 X43.3133 Y22.0180
G01 X43.1429 Y21.9474
G01 X42.9915 Y21.8313
G01 X31.7135 Y10.5532
G01 X31.7043 Y10.5451
G01 X31.6984 Y10.5408
G01 X31.6899 Y10.5357
G01 X31.6833 Y10.5325
G01 X31.6742 Y10.5289
G01 X31.6647 Y10.5263
G01 X31.6575 Y10.5250
G01 X31.6502 Y10.5242
G01 X31.6428 Y10.5239
G01 X28.4893 Y10.5239
G01 X28.4795 Y10.5244
G01 X28.4722 Y10.5254
G01 X28.4626 Y10.5275
G01 X28.4556 Y10.5297
G01 X28.4465 Y10.5335
G01 X28.4379 Y10.5381
G01 X28.4297 Y10.5436
G01 X28.4240 Y10.5482
G01 X28.4186 Y10.5532
G01 X28.4120 Y10.5605
G01 X28.4062 Y10.5683
G01 X28.4011 Y10.5768
G01 X28.3979 Y10.5834
G01 X28.3943 Y10.5925
G01 X28.3917 Y10.6020
G01 X28.3901 Y10.6117
G01 X28.3893 Y10.6239
G01 X28.3893 Y11.9214
G01 X28.3622 Y12.0576
G01 X28.3095 Y12.1365
G01 X28.3044 Y12.1450
G01 X28.3002 Y12.1540
G01 X28.2962 Y12.1657
G01 X28.2937 Y12.1779
G01 X28.2928 Y12.1878
G01 X28.2930 Y12.2002
G01 X28.2943 Y12.2100
G01 X28.2973 Y12.2221
G01 X28.3018 Y12.2337
G01 X28.3622 Y12.3651
G01 X28.3672 Y12.3737
G01 X28.3730 Y12.3817
G01 X28.3796 Y12.3891
G01 X28.3869 Y12.3958
G01 X28.3928 Y12.4004
G01 X28.4011 Y12.4057
G01 X28.4100 Y12.4102
G01 X28.4169 Y12.4130
G01 X28.4240 Y12.4153
G01 X28.4336 Y12.4175
G01 X28.4435 Y12.4187
G01 X28.4509 Y12.4190
G01 X30.7610 Y12.4190
G01 X30.7610 Y16.9250
G01 X30.7613 Y16.9324
G01 X30.7621 Y16.9397
G01 X30.7634 Y16.9469
G01 X30.7660 Y16.9562
G01 X30.7660 Y25.0500
G01 X19.5260 Y25.0500
G01 X19.5260 Y21.9873
G01 X19.5255 Y21.9800
G01 X19.5241 Y21.9703
G01 X19.5217 Y21.9608
G01 X19.5184 Y21.9515
G01 X19.5142 Y21.9427
G01 X19.5091 Y21.9342
G01 X19.5048 Y21.9283
G01 X19.4984 Y21.9208
G01 X19.4913 Y21.9141
G01 X19.4856 Y21.9095
G01 X19.4774 Y21.9040
G01 X19.4688 Y21.8994
G01 X19.4620 Y21.8965
G01 X19.4527 Y21.8934
G01 X19.4431 Y21.8913
G01 X19.4334 Y21.8901
G01 X19.4260 Y21.8898
G01 X9.0342 Y21.8898
G01 X9.0268 Y21.8901
G01 X9.0195 Y21.8909
G01 X9.0123 Y21.8922
G01 X9.0052 Y21.8941
G01 X8.9982 Y21.8965
G01 X8.9914 Y21.8994
G01 X8.9849 Y21.9028
G01 X8.9786 Y21.9067
G01 X8.9727 Y21.9110
G01 X8.9670 Y21.9157
G01 X8.9618 Y21.9208
G01 X8.9569 Y21.9264
G01 X8.9524 Y21.9322
G01 X8.9484 Y21.9384
G01 X8.9449 Y21.9448
G01 X8.9418 Y21.9515
G01 X8.9392 Y21.9584
G01 X8.9372 Y21.9655
G01 X8.9357 Y21.9727
G01 X8.9343 Y21.9849
G01 X8.9342 Y22.0754
G01 X8.8921 Y22.3953
G01 X8.7711 Y22.6872
G01 X8.5789 Y22.9379
G01 X8.3282 Y23.1302
G01 X8.0363 Y23.2511
G01 X7.7164 Y23.2932
G01 X4.7296 Y23.2932
G01 X4.4097 Y23.2511
G01 X4.1178 Y23.1302
G01 X3.8671 Y22.9379
G01 X3.6749 Y22.6872
G01 X3.5539 Y22.3953
G01 X3.5118 Y22.0754
G01 X3.5118 Y20.0886
G01 X3.5539 Y19.7687
G01 X3.6749 Y19.4768
G01 X3.8671 Y19.2261
G01 X4.1178 Y19.0338
G01 X4.4097 Y18.9129
G01 X4.7296 Y18.8708
G01 X7.7164 Y18.8708
G01 X8.0363 Y18.9129
G01 X8.3282 Y19.0338
G01 X8.5789 Y19.2261
G01 X8.7711 Y19.4768
G01 X8.8921 Y19.7687
G01 X8.9342 Y20.0886
G01 X8.9343 Y20.1791
G01 X8.9350 Y20.1864
G01 X8.9361 Y20.1937
G01 X8.9392 Y20.2056
G01 X8.9438 Y20.2170
G01 X8.9472 Y20.2235
G01 X8.9511 Y20.2298
G01 X8.9554 Y20.2357
G01 X8.9601 Y20.2414
G01 X8.9652 Y20.2466
G01 X8.9708 Y20.2515
G01 X8.9766 Y20.2560
G01 X8.9828 Y20.2600
G01 X8.9892 Y20.2635
G01 X8.9959 Y20.2666
G01 X9.0028 Y20.2692
G01 X9.0099 Y20.2712
G01 X9.0171 Y20.2727
G01 X9.0244 Y20.2737
G01 X9.0342 Y20.2742
G01 X19.4260 Y20.2742
G01 X19.4382 Y20.2734
G01 X19.4479 Y20.2718
G01 X19.4574 Y20.2692
G01 X19.4665 Y20.2656
G01 X19.4753 Y20.2612
G01 X19.4836 Y20.2560
G01 X19.4913 Y20.2499
G01 X19.4984 Y20.2432
G01 X19.5048 Y20.2357
G01 X19.5105 Y20.2277
G01 X19.5153 Y20.2192
G01 X19.5184 Y20.2125
G01 X19.5217 Y20.2032
G01 X19.5241 Y20.1937
G01 X19.5255 Y20.1840
G01 X19.5260 Y20.1742
G01 X19.5260 Y12.8734
G01 X20.1930 Y12.2064
G01 X20.3763 Y12.3897
G01 X20.3817 Y12.3947
G01 X20.3874 Y12.3993
G01 X20.3935 Y12.4035
G01 X20.3999 Y12.4072
G01 X20.4065 Y12.4104
G01 X20.4133 Y12.4132
G01 X20.4203 Y12.4154
G01 X20.4275 Y12.4171
G01 X20.4348 Y12.4182
G01 X20.4470 Y12.4190
G01 X21.8411 Y12.4190
G01 X21.8535 Y12.4182
G01 X21.8632 Y12.4165
G01 X21.8751 Y12.4130
G01 X21.8865 Y12.4081
G01 X21.8972 Y12.4018
G01 X21.9070 Y12.3942
G01 X21.9141 Y12.3873
G01 X21.9220 Y12.3778
G01 X21.9274 Y12.3695
G01 X21.9320 Y12.3607
G01 X21.9912 Y12.2314
G01 X21.9947 Y12.2221
G01 X21.9966 Y12.2149
G01 X21.9981 Y12.2076
G01 X21.9991 Y12.1977
G01 X21.9993 Y12.1903
G01 X21.9989 Y12.1828
G01 X21.9970 Y12.1706
G01 X21.9936 Y12.1586
G01 X21.9887 Y12.1472
G01 X21.9825 Y12.1365
G01 X21.9298 Y12.0576
G01 X21.9027 Y11.9214
G01 X21.9027 Y10.1874
G01 X21.9022 Y10.1770
G01 X21.8991 Y10.1535
G01 X21.8991 Y6.1640
G01 X21.8988 Y6.1566
G01 X21.8980 Y6.1493
G01 X21.8955 Y6.1373
G01 X21.8933 Y6.1303
G01 X21.8905 Y6.1235
G01 X21.8873 Y6.1169
G01 X21.8836 Y6.1105
G01 X21.8764 Y6.1006
G01 X21.8715 Y6.0950
G01 X21.8663 Y6.0899
G01 X21.8606 Y6.0852
G01 X21.8547 Y6.0809
G01 X21.8441 Y6.0747
G01 X21.8328 Y6.0698
G01 X21.8258 Y6.0676
G01 X21.8186 Y6.0659
G01 X21.8089 Y6.0645
G01 X21.7991 Y6.0640
G01 X21.5058 Y6.0640
G01 X21.5049 Y6.0562
G01 X21.5030 Y6.0466
G01 X21.5002 Y6.0372
G01 X21.4974 Y6.0304
G01 X21.4930 Y6.0216
G01 X21.4878 Y6.0133
G01 X21.4833 Y6.0075
G01 X21.4767 Y6.0002
G01 X21.4694 Y5.9936
G01 X21.4616 Y5.9878
G01 X21.4553 Y5.9839
G01 X21.4465 Y5.9795
G01 X21.4397 Y5.9767
G01 X21.4303 Y5.9739
G01 X21.4207 Y5.9720
G01 X21.4109 Y5.9710
G01 X20.3770 Y5.9709
G01 X20.3696 Y5.9712
G01 X20.3599 Y5.9724
G01 X20.3527 Y5.9739
G01 X20.3433 Y5.9767
G01 X20.3365 Y5.9795
G01 X20.3299 Y5.9827
G01 X20.3214 Y5.9878
G01 X20.3136 Y5.9936
G01 X20.3063 Y6.0002
G01 X20.2997 Y6.0075
G01 X20.2952 Y6.0133
G01 X20.2900 Y6.0216
G01 X20.2856 Y6.0304
G01 X20.2820 Y6.0395
G01 X20.2800 Y6.0466
G01 X20.2781 Y6.0562
G01 X20.2772 Y6.0640
G00 Z2.0000
G00 X27.0910 Y8.3917
G01 F60.00
G01 Z-0.0300
G01 F80.00
G01 X27.0918 Y8.3692
G01 X27.0944 Y8.3499
G01 X27.0958 Y8.3426
G01 X27.0993 Y8.3285
G01 X27.1021 Y8.3191
G01 X27.1080 Y8.3031
G01 X27.1174 Y8.2832
G01 X27.1287 Y8.2644
G01 X27.1417 Y8.2468
G01 X27.1565 Y8.2305
G01 X27.1728 Y8.2157
G01 X27.1904 Y8.2027
G01 X27.2050 Y8.1938
G01 X27.2114 Y8.1902
G01 X27.2246 Y8.1840
G01 X27.2337 Y8.1802
G01 X27.2521 Y8.1739
G01 X27.2735 Y8.1688
G01 X27.2928 Y8.1660
G01 X27.3147 Y8.1650
G01 X28.0622 Y8.1651
G01 X28.0792 Y8.1660
G01 X28.0985 Y8.1688
G01 X28.1057 Y8.1703
G01 X28.1246 Y8.1753
G01 X28.1429 Y8.1820
G01 X28.1584 Y8.1892
G01 X28.1670 Y8.1938
G01 X28.1836 Y8.2040
G01 X28.2011 Y8.2173
G01 X28.2138 Y8.2288
G01 X28.2189 Y8.2340
G01 X28.2303 Y8.2468
G01 X28.2405 Y8.2604
G01 X28.2447 Y8.2664
G01 X28.2522 Y8.2790
G01 X28.2558 Y8.2854
G01 X28.2631 Y8.3008
G01 X28.2714 Y8.3237
G01 X28.2768 Y8.3450
G01 X28.2800 Y8.3668
G01 X28.2810 Y8.3887
G01 X28.2810 Y9.2167
G01 X31.9795 Y9.2168
G01 X32.0358 Y9.2196
G01 X32.0893 Y9.2274
G01 X32.0989 Y9.2294
G01 X32.1512 Y9.2426
G01 X32.2021 Y9.2607
G01 X32.2112 Y9.2644
G01 X32.2600 Y9.2876
G01 X32.3091 Y9.3170
G01 X32.5819 Y9.3171
G01 X32.5892 Y9.3178
G01 X32.5965 Y9.3189
G01 X32.6037 Y9.3206
G01 X32.6107 Y9.3228
G01 X32.6175 Y9.3256
G01 X32.6241 Y9.3288
G01 X32.6305 Y9.3325
G01 X32.6366 Y9.3367
G01 X32.6442 Y9.3429
G01 X32.6511 Y9.3498
G01 X32.6573 Y9.3574
G01 X32.6640 Y9.3677
G01 X32.6684 Y9.3765
G01 X32.6720 Y9.3856
G01 X32.6746 Y9.3951
G01 X32.6762 Y9.4048
G01 X32.6770 Y9.4170
G01 X32.6770 Y9.6681
G01 X43.7446 Y20.7357
G01 X45.5330 Y20.7357
G01 X45.5330 Y20.0820
G01 X45.5383 Y19.9742
G01 X45.5541 Y19.8674
G01 X45.5804 Y19.7627
G01 X45.6167 Y19.6610
G01 X45.6618 Y19.5656
G01 X45.6653 Y19.5592
G01 X45.7184 Y19.4709
G01 X45.7827 Y19.3842
G01 X45.8552 Y19.3042
G01 X45.9315 Y19.2349
G01 X45.9390 Y19.2287
G01 X46.0219 Y19.1674
G01 X46.1102 Y19.1143
G01 X46.1188 Y19.1097
G01 X46.2076 Y19.0677
G01 X46.2166 Y19.0640
G01 X46.3137 Y19.0294
G01 X46.4136 Y19.0042
G01 X46.4232 Y19.0023
G01 X46.5252 Y18.9873
G01 X46.6330 Y18.9820
G01 X49.6379 Y18.9821
G01 X49.7408 Y18.9873
G01 X49.8428 Y19.0023
G01 X49.8524 Y19.0042
G01 X49.9523 Y19.0294
G01 X50.0494 Y19.0640
G01 X50.0584 Y19.0677
G01 X50.1515 Y19.1119
G01 X50.2400 Y19.1648
G01 X50.2481 Y19.1702
G01 X50.3308 Y19.2317
G01 X50.4108 Y19.3042
G01 X50.4833 Y19.3842
G01 X50.5448 Y19.4669
G01 X50.5502 Y19.4750
G01 X50.6007 Y19.5592
G01 X50.6053 Y19.5678
G01 X50.6493 Y19.6610
G01 X50.6841 Y19.7580
G01 X50.6869 Y19.7674
G01 X50.7119 Y19.8674
G01 X50.7277 Y19.9742
G01 X50.7330 Y20.0820
G01 X50.7330 Y22.0820
G01 X50.7279 Y22.1874
G01 X50.7271 Y22.1947
G01 X50.7119 Y22.2966
G01 X50.6869 Y22.3966
G01 X50.6841 Y22.4060
G01 X50.6493 Y22.5030
G01 X50.6053 Y22.5962
G01 X50.6007 Y22.6048
G01 X50.5502 Y22.6890
G01 X50.5448 Y22.6971
G01 X50.4833 Y22.7798
G01 X50.4108 Y22.8598
G01 X50.3308 Y22.9323
G01 X50.2481 Y22.9938
G01 X50.2400 Y22.9992
G01 X50.1558 Y23.0497
G01 X50.1472 Y23.0543
G01 X50.0540 Y23.0983
G01 X49.9570 Y23.1331
G01 X49.9476 Y23.1359
G01 X49.8476 Y23.1609
G01 X49.7433 Y23.1764
G01 X49.7359 Y23.1771
G01 X49.6330 Y23.1820
G01 X46.6330 Y23.1820
G01 X46.5301 Y23.1771
G01 X46.5227 Y23.1764
G01 X46.4184 Y23.1609
G01 X46.3137 Y23.1346
G01 X46.2120 Y23.0983
G01 X46.1145 Y23.0521
G01 X46.0219 Y22.9966
G01 X45.9352 Y22.9323
G01 X45.8552 Y22.8598
G01 X45.7859 Y22.7835
G01 X45.7812 Y22.7779
G01 X45.7184 Y22.6931
G01 X45.6629 Y22.6005
G01 X45.6167 Y22.5030
G01 X45.5804 Y22.4013
G01 X45.5541 Y22.2966
G01 X45.5383 Y22.1898
G01 X45.5330 Y22.0845
G01 X45.5330 Y21.9362
G01 X43.4911 Y21.9361
G01 X43.4372 Y21.9334
G01 X43.3837 Y21.9256
G01 X43.3741 Y21.9236
G01 X43.3218 Y21.9104
G01 X43.2663 Y21.8906
G01 X43.2174 Y21.8676
G01 X43.2088 Y21.8630
G01 X43.1625 Y21.8351
G01 X43.1152 Y21.8000
G01 X43.0716 Y21.7604
G01 X31.7284 Y10.4172
G01 X28.2810 Y10.4173
G01 X28.2810 Y11.9338
G01 X28.2800 Y11.9532
G01 X28.2776 Y11.9701
G01 X28.2762 Y11.9774
G01 X28.2714 Y11.9963
G01 X28.2649 Y12.0146
G01 X28.2620 Y12.0214
G01 X28.2546 Y12.0368
G01 X28.2447 Y12.0536
G01 X28.2303 Y12.0732
G01 X28.2155 Y12.0895
G01 X28.1973 Y12.1058
G01 X28.1836 Y12.1160
G01 X28.1775 Y12.1200
G01 X28.1628 Y12.1286
G01 X28.1474 Y12.1360
G01 X28.1406 Y12.1389
G01 X28.1246 Y12.1447
G01 X28.1010 Y12.1508
G01 X28.0768 Y12.1542
G01 X28.0573 Y12.1550
G01 X27.3098 Y12.1549
G01 X27.2928 Y12.1540
G01 X27.2759 Y12.1516
G01 X27.2686 Y12.1502
G01 X27.2497 Y12.1454
G01 X27.2314 Y12.1389
G01 X27.2246 Y12.1360
G01 X27.2092 Y12.1286
G01 X27.1945 Y12.1200
G01 X27.1884 Y12.1160
G01 X27.1728 Y12.1043
G01 X27.1548 Y12.0878
G01 X27.1417 Y12.0732
G01 X27.1315 Y12.0596
G01 X27.1273 Y12.0536
G01 X27.1186 Y12.0389
G01 X27.1080 Y12.0169
G01 X27.1013 Y11.9986
G01 X27.0993 Y11.9915
G01 X27.0952 Y11.9750
G01 X27.0926 Y11.9581
G01 X27.0918 Y11.9508
G01 X27.0910 Y11.9338
G01 X27.0910 Y8.3917
G00 Z2.0000
G00 X31.0770 Y7.8170
G01 F60.00
G01 Z-0.0300
G01 F80.00
G01 X31.0230 Y7.8170
G01 X31.0230 Y7.6630
G01 X31.4770 Y7.6630
G01 X31.4770 Y7.7170
G01 X31.1745 Y7.7170
G01 X31.1648 Y7.7178
G01 X31.1575 Y7.7189
G01 X31.1480 Y7.7213
G01 X31.1410 Y7.7237
G01 X31.1342 Y7.7266
G01 X31.1277 Y7.7300
G01 X31.1214 Y7.7339
G01 X31.1155 Y7.7382
G01 X31.1098 Y7.7429
G01 X31.1046 Y7.7480
G01 X31.0997 Y7.7536
G01 X31.0952 Y7.7594
G01 X31.0912 Y7.7656
G01 X31.0877 Y7.7720
G01 X31.0846 Y7.7787
G01 X31.0820 Y7.7856
G01 X31.0800 Y7.7927
G01 X31.0785 Y7.7999
G01 X31.0775 Y7.8072
G01 X31.0770 Y7.8170
G00 Z2.0000
G00 X31.4770 Y8.7710
G01 F60.00
G01 Z-0.0300
G01 F80.00
G01 X31.0230 Y8.7710
G01 X31.0230 Y8.6170
G01 X31.0770 Y8.6170
G01 X31.0773 Y8.6244
G01 X31.0781 Y8.6317
G01 X31.0794 Y8.6389
G01 X31.0820 Y8.6484
G01 X31.0846 Y8.6553
G01 X31.0888 Y8.6641
G01 X31.0939 Y8.6726
G01 X31.0982 Y8.6785
G01 X31.1046 Y8.6860
G01 X31.1098 Y8.6911
G01 X31.1174 Y8.6973
G01 X31.1235 Y8.7015
G01 X31.1299 Y8.7052
G01 X31.1387 Y8.7094
G01 X31.1456 Y8.7120
G01 X31.1551 Y8.7146
G01 X31.1672 Y8.7165
G01 X31.1770 Y8.7170
G01 X31.4770 Y8.7170
G01 X31.4770 Y8.7710
G00 Z2.0000
G00 X32.6770 Y8.6170
G01 F60.00
G01 Z-0.0300
G01 F80.00
G01 X32.7310 Y8.6170
G01 X32.7310 Y8.7710
G01 X32.2770 Y8.7710
G01 X32.2770 Y8.7170
G01 X32.5795 Y8.7170
G01 X32.5892 Y8.7162
G01 X32.5965 Y8.7151
G01 X32.6060 Y8.7127
G01 X32.6130 Y8.7103
G01 X32.6198 Y8.7074
G01 X32.6263 Y8.7040
G01 X32.6326 Y8.7001
G01 X32.6385 Y8.6958
G01 X32.6442 Y8.6911
G01 X32.6494 Y8.6860
G01 X32.6543 Y8.6804
G01 X32.6588 Y8.6746
G01 X32.6628 Y8.6684
G01 X32.6663 Y8.6620
G01 X32.6694 Y8.6553
G01 X32.6720 Y8.6484
G01 X32.6740 Y8.6413
G01 X32.6755 Y8.6341
G01 X32.6765 Y8.6268
G01 X32.6770 Y8.6170
G00 Z2.0000
G00 X32.7310 Y7.8170
G01 F60.00
G01 Z-0.0300
G01 F80.00
G01 X32.6770 Y7.8170
G01 X32.6767 Y7.8096
G01 X32.6759 Y7.8023
G01 X32.6746 Y7.7951
G01 X32.6720 Y7.7856
G01 X32.6684 Y7.7765
G01 X32.6652 Y7.7699
G01 X32.6601 Y7.7614
G01 X32.6558 Y7.7555
G01 X32.6494 Y7.7480
G01 X32.6442 Y7.7429
G01 X32.6366 Y7.7367
G01 X32.6305 Y7.7325
G01 X32.6220 Y7.7277
G01 X32.6153 Y7.7246
G01 X32.6084 Y7.7220
G01 X32.5989 Y7.7194
G01 X32.5868 Y7.7175
G01 X32.5770 Y7.7170
G01 X32.2770 Y7.7170
G01 X32.2770 Y7.6630
G01 X32.7310 Y7.6630
G01 X32.7310 Y7.8170
G00 Z2.0000
G00 X31.8540 Y5.7190
G01 F60.00
G01 Z-0.0300
G01 F80.00
G01 X31.0650 Y5.7190
G01 X31.0650 Y5.6650
G01 X31.7000 Y5.6650
G01 X31.7074 Y5.6647
G01 X31.7147 Y5.6639
G01 X31.7219 Y5.6626
G01 X31.7337 Y5.6592
G01 X31.7405 Y5.6564
G01 X31.7471 Y5.6532
G01 X31.7576 Y5.6468
G01 X31.7672 Y5.6391
G01 X31.7757 Y5.6303
G01 X31.7803 Y5.6246
G01 X31.7845 Y5.6185
G01 X31.7904 Y5.6078
G01 X31.7942 Y5.5987
G01 X31.7976 Y5.5869
G01 X31.7995 Y5.5748
G01 X31.8000 Y5.5650
G01 X31.8000 Y4.2100
G01 X31.8540 Y4.2100
G01 X31.8540 Y5.7190
G00 Z2.0000
G00 X31.8540 Y3.4100
G01 F60.00
G01 Z-0.0300
G01 F80.00
G01 X31.8000 Y3.4100
G01 X31.8000 Y2.0550
G01 X31.7992 Y2.0428
G01 X31.7970 Y2.0307
G01 X31.7933 Y2.0190
G01 X31.7882 Y2.0079
G01 X31.7818 Y1.9974
G01 X31.7741 Y1.9878
G01 X31.7653 Y1.9793
G01 X31.7556 Y1.9719
G01 X31.7450 Y1.9657
G01 X31.7383 Y1.9626
G01 X31.7314 Y1.9600
G01 X31.7195 Y1.9569
G01 X31.7074 Y1.9553
G01 X31.7000 Y1.9550
G01 X31.0650 Y1.9550
G01 X31.0650 Y1.9010
G01 X31.8540 Y1.9010
G01 X31.8540 Y3.4100
G00 Z2.0000
G00 X45.5330 Y4.6288
G01 F60.00
G01 Z-0.0300
G01 F80.00
G01 X45.4682 Y4.6288
G01 X45.4682 Y3.8624
G01 X45.5087 Y3.5545
G01 X45.6250 Y3.2738
G01 X45.8099 Y3.0327
G01 X46.0510 Y2.8478
G01 X46.3317 Y2.7315
G01 X46.6396 Y2.6910
G01 X47.9060 Y2.6910
G01 X47.9060 Y2.7558
G01 X46.6305 Y2.7558
G01 X46.5252 Y2.7611
G01 X46.4232 Y2.7761
G01 X46.4136 Y2.7780
G01 X46.3137 Y2.8032
G01 X46.2166 Y2.8378
G01 X46.2076 Y2.8415
G01 X46.1145 Y2.8857
G01 X46.0260 Y2.9386
G01 X46.0179 Y2.9440
G01 X45.9352 Y3.0055
G01 X45.8552 Y3.0780
G01 X45.7859 Y3.1543
G01 X45.7797 Y3.1618
G01 X45.7212 Y3.2407
G01 X45.7158 Y3.2488
G01 X45.6629 Y3.3373
G01 X45.6167 Y3.4348
G01 X45.5804 Y3.5365
G01 X45.5552 Y3.6364
G01 X45.5533 Y3.6460
G01 X45.5383 Y3.7480
G01 X45.5330 Y3.8533
G01 X45.5330 Y4.6288
G00 Z2.0000
G00 X47.9060 Y7.0206
G01 F60.00
G01 Z-0.0300
G01 F80.00
G01 X46.6396 Y7.0206
G01 X46.3317 Y6.9801
G01 X46.0510 Y6.8638
G01 X45.8099 Y6.6789
G01 X45.6250 Y6.4378
G01 X45.5087 Y6.1571
G01 X45.4682 Y5.8492
G01 X45.4682 Y5.0828
G01 X45.5330 Y5.0828
G01 X45.5331 Y5.8607
G01 X45.5383 Y5.9636
G01 X45.5533 Y6.0656
G01 X45.5552 Y6.0752
G01 X45.5797 Y6.1728
G01 X45.5819 Y6.1798
G01 X45.6150 Y6.2722
G01 X45.6187 Y6.2812
G01 X45.6629 Y6.3743
G01 X45.7184 Y6.4669
G01 X45.7827 Y6.5536
G01 X45.8518 Y6.6301
G01 X45.8587 Y6.6370
G01 X45.9315 Y6.7029
G01 X45.9371 Y6.7076
G01 X46.0179 Y6.7676
G01 X46.0260 Y6.7730
G01 X46.1145 Y6.8259
G01 X46.2076 Y6.8701
G01 X46.2166 Y6.8738
G01 X46.3137 Y6.9084
G01 X46.4136 Y6.9336
G01 X46.4232 Y6.9355
G01 X46.5252 Y6.9505
G01 X46.6305 Y6.9558
G01 X47.9060 Y6.9558
G01 X47.9060 Y7.0206
G00 Z2.0000
G00 X49.6264 Y7.0206
G01 F60.00
G01 Z-0.0300
G01 F80.00
G01 X48.3600 Y7.0206
G01 X48.3600 Y6.9558
G01 X49.6330 Y6.9558
G01 X49.7359 Y6.9509
G01 X49.7433 Y6.9502
G01 X49.8476 Y6.9347
G01 X49.9476 Y6.9097
G01 X49.9570 Y6.9069
G01 X50.0540 Y6.8721
G01 X50.1472 Y6.8281
G01 X50.1558 Y6.8235
G01 X50.2441 Y6.7704
G01 X50.3289 Y6.7076
G01 X50.3345 Y6.7029
G01 X50.4073 Y6.6370
G01 X50.4142 Y6.6301
G01 X50.4833 Y6.5536
G01 X50.5476 Y6.4669
G01 X50.6031 Y6.3743
G01 X50.6473 Y6.2812
G01 X50.6510 Y6.2722
G01 X50.6841 Y6.1798
G01 X50.6863 Y6.1728
G01 X50.7108 Y6.0752
G01 X50.7127 Y6.0656
G01 X50.7277 Y5.9636
G01 X50.7329 Y5.8607
G01 X50.7330 Y5.0828
G01 X50.7978 Y5.0828
G01 X50.7978 Y5.8492
G01 X50.7573 Y6.1571
G01 X50.6410 Y6.4378
G01 X50.4561 Y6.6789
G01 X50.2150 Y6.8638
G01 X49.9343 Y6.9801
G01 X49.6264 Y7.0206
G00 Z2.0000
G00 X50.7978 Y4.6288
G01 F60.00
G01 Z-0.0300
G01 F80.00
G01 X50.7330 Y4.6288
G01 X50.7329 Y3.8509
G01 X50.7277 Y3.7480
G01 X50.7127 Y3.6460
G01 X50.7108 Y3.6364
G01 X50.6863 Y3.5388
G01 X50.6841 Y3.5318
G01 X50.6510 Y3.4394
G01 X50.6473 Y3.4304
G01 X50.6031 Y3.3373
G01 X50.5476 Y3.2447
G01 X50.4833 Y3.1580
G01 X50.4142 Y3.0815
G01 X50.4073 Y3.0746
G01 X50.3345 Y3.0087
G01 X50.3289 Y3.0040
G01 X50.2481 Y2.9440
G01 X50.2400 Y2.9386
G01 X50.1515 Y2.8857
G01 X50.0584 Y2.8415
G01 X50.0494 Y2.8378
G01 X49.9523 Y2.8032
G01 X49.8524 Y2.7780
G01 X49.8428 Y2.7761
G01 X49.7408 Y2.7611
G01 X49.6355 Y2.7558
G01 X48.3600 Y2.7558
G01 X48.3600 Y2.6910
G01 X49.6264 Y2.6910
G01 X49.9343 Y2.7315
G01 X50.2150 Y2.8478
G01 X50.4561 Y3.0327
G01 X50.6410 Y3.2738
G01 X50.7573 Y3.5545
G01 X50.7978 Y3.8624
G01 X50.7978 Y4.6288
G00 Z2.0000
G00 X52.1700 Y0.0000
G01 F60.00
G01 Z-0.0300
G01 F80.00
G01 X52.1700 Y26.1620
G01 X52.1697 Y26.1694
G01 X52.1689 Y26.1767
G01 X52.1664 Y26.1887
G01 X52.1624 Y26.2003
G01 X52.1593 Y26.2070
G01 X52.1558 Y26.2134
G01 X52.1518 Y26.2196
G01 X52.1473 Y26.2254
G01 X52.1390 Y26.2344
G01 X52.1334 Y26.2393
G01 X52.1276 Y26.2438
G01 X52.1214 Y26.2478
G01 X52.1150 Y26.2513
G01 X52.1037 Y26.2562
G01 X52.0919 Y26.2596
G01 X52.0822 Y26.2612
G01 X52.0700 Y26.2620
G01 X-0.0000 Y26.2620
G01 X-0.0122 Y26.2612
G01 X-0.0195 Y26.2601
G01 X-0.0267 Y26.2584
G01 X-0.0337 Y26.2562
G01 X-0.0405 Y26.2534
G01 X-0.0471 Y26.2502
G01 X-0.0535 Y26.2465
G01 X-0.0634 Y26.2393
G01 X-0.0690 Y26.2344
G01 X-0.0741 Y26.2292
G01 X-0.0788 Y26.2235
G01 X-0.0831 Y26.2176
G01 X-0.0893 Y26.2070
G01 X-0.0942 Y26.1957
G01 X-0.0976 Y26.1839
G01 X-0.0992 Y26.1742
G01 X-0.1000 Y26.1620
G01 X-0.1000 Y0.0000
G01 X-0.0997 Y-0.0074
G01 X-0.0989 Y-0.0147
G01 X-0.0964 Y-0.0267
G01 X-0.0942 Y-0.0337
G01 X-0.0914 Y-0.0405
G01 X-0.0858 Y-0.0514
G01 X-0.0818 Y-0.0576
G01 X-0.0773 Y-0.0634
G01 X-0.0724 Y-0.0690
G01 X-0.0672 Y-0.0741
G01 X-0.0576 Y-0.0818
G01 X-0.0514 Y-0.0858
G01 X-0.0450 Y-0.0893
G01 X-0.0337 Y-0.0942
G01 X-0.0219 Y-0.0976
G01 X-0.0098 Y-0.0995
G01 X0.0000 Y-0.1000
G01 X52.0700 Y-0.1000
G01 X52.0798 Y-0.0995
G01 X52.0895 Y-0.0981
G01 X52.0990 Y-0.0957
G01 X52.1083 Y-0.0924
G01 X52.1171 Y-0.0882
G01 X52.1256 Y-0.0831
G01 X52.1334 Y-0.0773
G01 X52.1407 Y-0.0707
G01 X52.1473 Y-0.0634
G01 X52.1531 Y-0.0556
G01 X52.1582 Y-0.0471
G01 X52.1624 Y-0.0383
G01 X52.1657 Y-0.0290
G01 X52.1681 Y-0.0195
G01 X52.1695 Y-0.0098
G01 X52.1700 Y0.0000
G00 Z2.0000
G00 X8.8230 Y21.7823
G01 F60.00
G01 Z-0.0300
G01 F80.00
G01 X8.8229 Y22.0869
G01 X8.8177 Y22.1898
G01 X8.8027 Y22.2918
G01 X8.8008 Y22.3014
G01 X8.7769 Y22.3966
G01 X8.7741 Y22.4060
G01 X8.7393 Y22.5030
G01 X8.6953 Y22.5962
G01 X8.6919 Y22.6027
G01 X8.6376 Y22.6931
G01 X8.5733 Y22.7798
G01 X8.5008 Y22.8598
G01 X8.4208 Y22.9323
G01 X8.3341 Y22.9966
G01 X8.2415 Y23.0521
G01 X8.1440 Y23.0983
G01 X8.0423 Y23.1346
G01 X7.9424 Y23.1598
G01 X7.9328 Y23.1617
G01 X7.8308 Y23.1767
G01 X7.7255 Y23.1820
G01 X4.7230 Y23.1820
G01 X4.6152 Y23.1767
G01 X4.5084 Y23.1609
G01 X4.4037 Y23.1346
G01 X4.3020 Y23.0983
G01 X4.2088 Y23.0543
G01 X4.2002 Y23.0497
G01 X4.1119 Y22.9966
G01 X4.0290 Y22.9353
G01 X4.0215 Y22.9291
G01 X3.9452 Y22.8598
G01 X3.8727 Y22.7798
G01 X3.8112 Y22.6971
G01 X3.8058 Y22.6890
G01 X3.7529 Y22.6005
G01 X3.7087 Y22.5074
G01 X3.7050 Y22.4984
G01 X3.6704 Y22.4013
G01 X3.6452 Y22.3014
G01 X3.6437 Y22.2942
G01 X3.6283 Y22.1898
G01 X3.6230 Y22.0820
G01 X3.6230 Y20.0795
G01 X3.6283 Y19.9742
G01 X3.6441 Y19.8674
G01 X3.6704 Y19.7627
G01 X3.7067 Y19.6610
G01 X3.7529 Y19.5635
G01 X3.8058 Y19.4750
G01 X3.8112 Y19.4669
G01 X3.8727 Y19.3842
G01 X3.9418 Y19.3077
G01 X3.9487 Y19.3008
G01 X4.0252 Y19.2317
G01 X4.1079 Y19.1702
G01 X4.1160 Y19.1648
G01 X4.2045 Y19.1119
G01 X4.2976 Y19.0677
G01 X4.3066 Y19.0640
G01 X4.4037 Y19.0294
G01 X4.5036 Y19.0042
G01 X4.5108 Y19.0027
G01 X4.6152 Y18.9873
G01 X4.7230 Y18.9820
G01 X7.7279 Y18.9821
G01 X7.8308 Y18.9873
G01 X7.9328 Y19.0023
G01 X7.9424 Y19.0042
G01 X8.0376 Y19.0281
G01 X8.0470 Y19.0309
G01 X8.1440 Y19.0657
G01 X8.2372 Y19.1097
G01 X8.2458 Y19.1143
G01 X8.3341 Y19.1674
G01 X8.4208 Y19.2317
G01 X8.5008 Y19.3042
G01 X8.5701 Y19.3805
G01 X8.5748 Y19.3861
G01 X8.6376 Y19.4709
G01 X8.6907 Y19.5592
G01 X8.6953 Y19.5678
G01 X8.7393 Y19.6610
G01 X8.7741 Y19.7580
G01 X8.7769 Y19.7674
G01 X8.8008 Y19.8626
G01 X8.8027 Y19.8722
G01 X8.8177 Y19.9742
G01 X8.8229 Y20.0771
G01 X8.8230 Y20.3817
G01 X19.6260 Y20.3817
G01 X19.6260 Y17.2275
G01 X19.6265 Y17.2202
G01 X19.6279 Y17.2105
G01 X19.6296 Y17.2033
G01 X19.6318 Y17.1963
G01 X19.6346 Y17.1895
G01 X19.6390 Y17.1807
G01 X19.6429 Y17.1744
G01 X19.6472 Y17.1685
G01 X19.6519 Y17.1628
G01 X19.6570 Y17.1576
G01 X19.6626 Y17.1527
G01 X19.6704 Y17.1469
G01 X19.6767 Y17.1430
G01 X19.6832 Y17.1396
G01 X19.6923 Y17.1358
G01 X19.6993 Y17.1336
G01 X19.7065 Y17.1319
G01 X19.7138 Y17.1308
G01 X19.7260 Y17.1300
G01 X30.5660 Y17.1300
G01 X30.5758 Y17.1305
G01 X30.5831 Y17.1315
G01 X30.5927 Y17.1336
G01 X30.5997 Y17.1358
G01 X30.6088 Y17.1396
G01 X30.6153 Y17.1430
G01 X30.6236 Y17.1482
G01 X30.6294 Y17.1527
G01 X30.6367 Y17.1593
G01 X30.6417 Y17.1647
G01 X30.6478 Y17.1724
G01 X30.6518 Y17.1786
G01 X30.6564 Y17.1872
G01 X30.6593 Y17.1940
G01 X30.6617 Y17.2010
G01 X30.6641 Y17.2105
G01 X30.6655 Y17.2202
G01 X30.6660 Y17.2300
G01 X30.6660 Y24.8500
G01 X30.6655 Y24.8598
G01 X30.6645 Y24.8671
G01 X30.6630 Y24.8743
G01 X30.6602 Y24.8837
G01 X30.6564 Y24.8928
G01 X30.6530 Y24.8993
G01 X30.6478 Y24.9076
G01 X30.6433 Y24.9134
G01 X30.6367 Y24.9207
G01 X30.6313 Y24.9257
G01 X30.6256 Y24.9303
G01 X30.6174 Y24.9358
G01 X30.6088 Y24.9404
G01 X30.6020 Y24.9433
G01 X30.5950 Y24.9457
G01 X30.5855 Y24.9481
G01 X30.5758 Y24.9495
G01 X30.5660 Y24.9500
G01 X19.7260 Y24.9500
G01 X19.7186 Y24.9497
G01 X19.7113 Y24.9489
G01 X19.7017 Y24.9470
G01 X19.6946 Y24.9450
G01 X19.6877 Y24.9424
G01 X19.6789 Y24.9382
G01 X19.6704 Y24.9331
G01 X19.6626 Y24.9273
G01 X19.6553 Y24.9207
G01 X19.6503 Y24.9153
G01 X19.6442 Y24.9076
G01 X19.6402 Y24.9014
G01 X19.6367 Y24.8950
G01 X19.6327 Y24.8860
G01 X19.6303 Y24.8790
G01 X19.6279 Y24.8695
G01 X19.6268 Y24.8622
G01 X19.6260 Y24.8525
G01 X19.6260 Y21.7823
G01 X8.8230 Y21.7823
G00 Z2.0000
M05
G00 Z2.0000
G00 Z15.00


