(G-CODE GENERATED BY FLATCAM v8.994 - www.flatcam.org - Version Date: 2020/11/7)

(Name: PCB1.GTL_iso_combined_cnc)
(Type: G-code from Geometry)
(Units: MM)

(Created on Monday, 13 March 2023 at 00:52)

(This preprocessor is the default preprocessor used by FlatCAM.)
(It is made to work with MACH3 compatible motion controllers.)

(TOOL DIAMETER: 0.1106 mm)
(Feedrate_XY: 120.0 mm/min)
(Feedrate_Z: 80.0 mm/min)
(Feedrate rapids 1500.0 mm/min)

(Z_Cut: -0.0301 mm)
(Z_Move: 2.0 mm)
(Z Start: None mm)
(Z End: 15.0 mm)
(X,Y End: None mm)
(Steps per circle: 64)
(Preprocessor Geometry: default)

(X range:   -0.0553 ...   57.0783  mm)
(Y range:    0.4527 ...   40.8223  mm)

(Spindle Speed: 10000.0 RPM)
G21
G90
G94

G01 F120.00

M5
G00 Z15.0000
G00 X0.0000 Y0.0000
T2
M6    
(MSG, Change to Tool Dia = 0.1106)
M0
G00 Z15.0000

M03 S10000.0
G01 F120.00
G00 X6.8607 Y5.9717
G01 F80.00
G01 Z-0.0301
G01 F120.00
G01 X6.7673 Y5.9717
G01 X6.7673 Y5.5783
G01 X6.8607 Y5.5783
G01 X6.8607 Y5.9717
G00 Z2.0000
G00 X6.8607 Y7.3757
G01 F80.00
G01 Z-0.0301
G01 F120.00
G01 X6.7673 Y7.3757
G01 X6.7673 Y6.9823
G01 X6.8607 Y6.9823
G01 X6.8607 Y7.3757
G00 Z2.0000
G00 X4.9292 Y10.1587
G01 F80.00
G01 Z-0.0301
G01 F120.00
G01 X4.9319 Y10.1501
G01 X4.9363 Y10.1417
G01 X4.9411 Y10.1352
G01 X4.9479 Y10.1286
G01 X4.9557 Y10.1232
G01 X4.9631 Y10.1197
G01 X4.9722 Y10.1171
G01 X4.9816 Y10.1160
G01 X6.4840 Y10.1160
G01 X6.4935 Y10.1168
G01 X6.5026 Y10.1192
G01 X6.5101 Y10.1225
G01 X6.5169 Y10.1269
G01 X6.5231 Y10.1322
G01 X6.5284 Y10.1384
G01 X6.5328 Y10.1452
G01 X6.5361 Y10.1527
G01 X6.5382 Y10.1605
G01 X6.5392 Y10.1686
G01 X6.5393 Y10.7327
G01 X10.4787 Y10.7327
G01 X10.4788 Y10.3007
G01 X10.4800 Y10.2927
G01 X10.4829 Y10.2836
G01 X10.4866 Y10.2764
G01 X10.4913 Y10.2697
G01 X10.4969 Y10.2638
G01 X10.5033 Y10.2588
G01 X10.5116 Y10.2542
G01 X10.5193 Y10.2515
G01 X10.5272 Y10.2499
G01 X10.5340 Y10.2495
G01 X12.2718 Y10.2495
G01 X12.2786 Y10.2499
G01 X12.2865 Y10.2515
G01 X12.2942 Y10.2542
G01 X12.3002 Y10.2574
G01 X12.3058 Y10.2612
G01 X12.3109 Y10.2657
G01 X14.0375 Y11.9923
G01 X14.2430 Y12.1500
G01 X14.4788 Y12.2477
G01 X14.7356 Y12.2815
G01 X17.8901 Y12.2815
G01 X17.8969 Y12.2819
G01 X17.9022 Y12.2828
G01 X17.9074 Y12.2843
G01 X17.9125 Y12.2862
G01 X17.9174 Y12.2887
G01 X17.9219 Y12.2916
G01 X17.9262 Y12.2949
G01 X17.9302 Y12.2987
G01 X17.9361 Y12.3061
G01 X17.9407 Y12.3144
G01 X17.9898 Y12.4330
G01 X17.9916 Y12.4382
G01 X17.9929 Y12.4434
G01 X17.9939 Y12.4501
G01 X17.9940 Y12.4556
G01 X17.9936 Y12.4610
G01 X17.9923 Y12.4676
G01 X17.9908 Y12.4728
G01 X17.9887 Y12.4778
G01 X17.9861 Y12.4826
G01 X17.9823 Y12.4882
G01 X17.9778 Y12.4933
G01 X17.5887 Y12.8824
G01 X17.5826 Y12.8877
G01 X17.5770 Y12.8913
G01 X17.5685 Y12.8953
G01 X17.5634 Y12.8969
G01 X17.5581 Y12.8979
G01 X17.3946 Y12.9195
G01 X17.3880 Y12.9221
G01 X17.3829 Y12.9237
G01 X17.3776 Y12.9247
G01 X17.3722 Y12.9252
G01 X16.8193 Y12.9253
G01 X16.8193 Y13.6176
G01 X16.8188 Y13.6248
G01 X16.8124 Y13.6736
G01 X16.8124 Y13.9664
G01 X16.8188 Y14.0152
G01 X16.8193 Y14.0224
G01 X16.8193 Y15.0147
G01 X18.3087 Y15.0147
G01 X18.3087 Y14.2889
G01 X18.3090 Y14.2834
G01 X18.3101 Y14.2767
G01 X18.3120 Y14.2701
G01 X18.3141 Y14.2650
G01 X18.3167 Y14.2602
G01 X18.3198 Y14.2557
G01 X18.3242 Y14.2505
G01 X18.3282 Y14.2467
G01 X18.4231 Y14.1739
G01 X18.9271 Y13.6699
G01 X18.9345 Y13.6639
G01 X18.9428 Y13.6593
G01 X18.9518 Y13.6563
G01 X18.9598 Y13.6549
G01 X18.9652 Y13.6546
G01 X19.3667 Y13.6547
G01 X19.3735 Y13.6554
G01 X19.3801 Y13.6570
G01 X19.3864 Y13.6593
G01 X19.3924 Y13.6625
G01 X19.3980 Y13.6663
G01 X19.4041 Y13.6718
G01 X19.4084 Y13.6770
G01 X19.4121 Y13.6826
G01 X19.4151 Y13.6887
G01 X19.4173 Y13.6952
G01 X19.4189 Y13.7031
G01 X19.4193 Y13.7099
G01 X19.4193 Y14.7357
G01 X19.5627 Y14.7357
G01 X19.5627 Y13.5370
G01 X19.5635 Y13.5275
G01 X19.5659 Y13.5184
G01 X19.5692 Y13.5109
G01 X19.5744 Y13.5030
G01 X19.5779 Y13.4989
G01 X19.5829 Y13.4943
G01 X19.5884 Y13.4903
G01 X19.5931 Y13.4876
G01 X19.5981 Y13.4854
G01 X19.6046 Y13.4834
G01 X19.6099 Y13.4823
G01 X19.6166 Y13.4817
G01 X20.5180 Y13.4817
G01 X20.5234 Y13.4820
G01 X20.5327 Y13.4837
G01 X20.5416 Y13.4870
G01 X20.5464 Y13.4896
G01 X20.5509 Y13.4926
G01 X20.5581 Y13.4989
G01 X20.5640 Y13.5063
G01 X20.5686 Y13.5146
G01 X20.5705 Y13.5197
G01 X20.5720 Y13.5249
G01 X20.5732 Y13.5343
G01 X20.5733 Y14.7357
G01 X20.7167 Y14.7357
G01 X20.7167 Y13.8377
G01 X20.7175 Y13.8282
G01 X20.7195 Y13.8204
G01 X20.7214 Y13.8153
G01 X20.7239 Y13.8104
G01 X20.7268 Y13.8059
G01 X20.7310 Y13.8006
G01 X20.7349 Y13.7967
G01 X20.7391 Y13.7933
G01 X20.7436 Y13.7903
G01 X20.7484 Y13.7877
G01 X20.8804 Y13.7330
G01 X20.8869 Y13.7311
G01 X20.8949 Y13.7299
G01 X20.9031 Y13.7300
G01 X20.9111 Y13.7311
G01 X20.9189 Y13.7335
G01 X20.9251 Y13.7363
G01 X20.9308 Y13.7399
G01 X20.9361 Y13.7441
G01 X21.0771 Y13.8850
G01 X21.0832 Y13.8923
G01 X21.0874 Y13.8992
G01 X21.0905 Y13.9068
G01 X21.0925 Y13.9146
G01 X21.0933 Y13.9241
G01 X21.0933 Y14.8617
G01 X22.6827 Y14.8617
G01 X22.6830 Y14.8185
G01 X22.6838 Y14.8131
G01 X22.6855 Y14.8066
G01 X22.6874 Y14.8015
G01 X22.6899 Y14.7966
G01 X22.6936 Y14.7910
G01 X22.6979 Y14.7858
G01 X22.7029 Y14.7812
G01 X22.7084 Y14.7772
G01 X22.7144 Y14.7739
G01 X22.7207 Y14.7714
G01 X22.7272 Y14.7697
G01 X22.7339 Y14.7687
G01 X23.7869 Y14.7686
G01 X23.7923 Y14.7689
G01 X23.7990 Y14.7699
G01 X23.8068 Y14.7723
G01 X23.8130 Y14.7751
G01 X23.8198 Y14.7795
G01 X23.8260 Y14.7848
G01 X24.7377 Y15.6965
G01 X24.7430 Y15.7027
G01 X24.7474 Y15.7095
G01 X24.7507 Y15.7170
G01 X24.7526 Y15.7235
G01 X24.7538 Y15.7315
G01 X24.7537 Y15.7397
G01 X24.7408 Y15.8701
G01 X24.7390 Y15.8781
G01 X24.7361 Y15.8856
G01 X24.7321 Y15.8927
G01 X24.7271 Y15.8991
G01 X24.7233 Y15.9029
G01 X24.7180 Y15.9072
G01 X24.6875 Y15.9276
G01 X23.6256 Y16.9895
G01 X23.6215 Y16.9930
G01 X23.6171 Y16.9961
G01 X23.6087 Y17.0005
G01 X23.6036 Y17.0023
G01 X23.5983 Y17.0036
G01 X23.5889 Y17.0047
G01 X23.5834 Y17.0045
G01 X23.5780 Y17.0039
G01 X23.5727 Y17.0027
G01 X23.5676 Y17.0010
G01 X23.4616 Y16.9571
G01 X23.2374 Y16.9275
G01 X22.5906 Y16.9275
G01 X22.5852 Y16.9271
G01 X22.5799 Y16.9262
G01 X22.5708 Y16.9233
G01 X22.5659 Y16.9210
G01 X22.5613 Y16.9182
G01 X22.5569 Y16.9149
G01 X22.5529 Y16.9113
G01 X22.5493 Y16.9073
G01 X22.5460 Y16.9029
G01 X22.5432 Y16.8983
G01 X22.5409 Y16.8934
G01 X22.5380 Y16.8843
G01 X22.5371 Y16.8790
G01 X22.5367 Y16.8736
G01 X22.5367 Y15.7983
G01 X22.3933 Y15.7983
G01 X22.3933 Y16.9970
G01 X22.3925 Y17.0065
G01 X22.3901 Y17.0156
G01 X22.3868 Y17.0231
G01 X22.3816 Y17.0310
G01 X22.3771 Y17.0361
G01 X22.3731 Y17.0397
G01 X22.3687 Y17.0430
G01 X22.3629 Y17.0464
G01 X22.3579 Y17.0486
G01 X22.3514 Y17.0506
G01 X22.3461 Y17.0517
G01 X22.3394 Y17.0523
G01 X21.4366 Y17.0523
G01 X21.4312 Y17.0519
G01 X21.4259 Y17.0510
G01 X21.4168 Y17.0481
G01 X21.4119 Y17.0458
G01 X21.4073 Y17.0430
G01 X21.3999 Y17.0371
G01 X21.3961 Y17.0331
G01 X21.3928 Y17.0288
G01 X21.3880 Y17.0206
G01 X21.3859 Y17.0156
G01 X21.3844 Y17.0104
G01 X21.3833 Y17.0051
G01 X21.3828 Y16.9997
G01 X21.3827 Y15.7983
G01 X21.2393 Y15.7983
G01 X21.2393 Y16.7198
G01 X21.2385 Y16.7293
G01 X21.2373 Y16.7345
G01 X21.2351 Y16.7410
G01 X21.2321 Y16.7471
G01 X21.2292 Y16.7516
G01 X21.2250 Y16.7569
G01 X21.2201 Y16.7617
G01 X21.2159 Y16.7650
G01 X21.2101 Y16.7686
G01 X21.2052 Y16.7709
G01 X21.0902 Y16.8185
G01 X21.0837 Y16.8204
G01 X21.0784 Y16.8213
G01 X21.0730 Y16.8217
G01 X21.0675 Y16.8215
G01 X21.0595 Y16.8204
G01 X21.0530 Y16.8185
G01 X21.0467 Y16.8158
G01 X21.0397 Y16.8116
G01 X20.9397 Y16.7296
G01 X20.9330 Y16.7228
G01 X20.9277 Y16.7149
G01 X20.9237 Y16.7063
G01 X20.9213 Y16.6971
G01 X20.9205 Y16.6877
G01 X20.9205 Y16.4706
G01 X20.8909 Y16.2464
G01 X20.8659 Y16.1859
G01 X20.8638 Y16.1781
G01 X20.8628 Y16.1700
G01 X20.8627 Y15.6223
G01 X20.1270 Y15.6223
G01 X20.1198 Y15.6218
G01 X20.0644 Y15.6145
G01 X18.3993 Y15.6144
G01 X18.3912 Y15.6134
G01 X18.3834 Y15.6113
G01 X18.3759 Y15.6080
G01 X18.3691 Y15.6036
G01 X18.3629 Y15.5983
G01 X18.3576 Y15.5921
G01 X18.3532 Y15.5853
G01 X18.3499 Y15.5778
G01 X18.3478 Y15.5700
G01 X18.3467 Y15.5606
G01 X18.3467 Y15.4653
G01 X16.8573 Y15.4653
G01 X16.8573 Y16.0097
G01 X16.8570 Y16.0151
G01 X16.8557 Y16.0230
G01 X16.8532 Y16.0307
G01 X16.8496 Y16.0379
G01 X16.8441 Y16.0455
G01 X16.8395 Y16.0504
G01 X16.8184 Y16.0697
G01 X16.8118 Y16.0744
G01 X16.8045 Y16.0782
G01 X16.7994 Y16.0800
G01 X16.7941 Y16.0814
G01 X16.7887 Y16.0822
G01 X16.7833 Y16.0825
G01 X16.7778 Y16.0823
G01 X16.7724 Y16.0815
G01 X16.7632 Y16.0789
G01 X16.6313 Y16.0208
G01 X16.6254 Y16.0173
G01 X16.6189 Y16.0123
G01 X16.6142 Y16.0075
G01 X16.6093 Y16.0009
G01 X16.6060 Y15.9950
G01 X16.6031 Y15.9874
G01 X16.6013 Y15.9794
G01 X16.6007 Y15.9727
G01 X16.6007 Y15.6113
G01 X16.5073 Y15.6113
G01 X16.5073 Y17.4087
G01 X16.6007 Y17.4087
G01 X16.6007 Y17.0473
G01 X16.6013 Y17.0406
G01 X16.6031 Y17.0326
G01 X16.6060 Y17.0250
G01 X16.6093 Y17.0191
G01 X16.6142 Y17.0125
G01 X16.6189 Y17.0077
G01 X16.6254 Y17.0027
G01 X16.6313 Y16.9992
G01 X16.7632 Y16.9411
G01 X16.7724 Y16.9385
G01 X16.7778 Y16.9377
G01 X16.7833 Y16.9375
G01 X16.7887 Y16.9378
G01 X16.7941 Y16.9386
G01 X16.7994 Y16.9400
G01 X16.8045 Y16.9418
G01 X16.8118 Y16.9456
G01 X16.8184 Y16.9503
G01 X16.8395 Y16.9696
G01 X16.8441 Y16.9745
G01 X16.8489 Y16.9810
G01 X16.8526 Y16.9881
G01 X16.8553 Y16.9957
G01 X16.8570 Y17.0049
G01 X16.8573 Y17.0103
G01 X16.8573 Y17.5547
G01 X18.3467 Y17.5547
G01 X18.3467 Y17.3748
G01 X18.3475 Y17.3653
G01 X18.3495 Y17.3575
G01 X18.3520 Y17.3512
G01 X18.3560 Y17.3441
G01 X18.3610 Y17.3377
G01 X18.3669 Y17.3321
G01 X18.3736 Y17.3274
G01 X18.3808 Y17.3237
G01 X18.3886 Y17.3212
G01 X18.3952 Y17.3199
G01 X18.4020 Y17.3195
G01 X19.2212 Y17.3195
G01 X19.2280 Y17.3199
G01 X19.2359 Y17.3215
G01 X19.2424 Y17.3237
G01 X19.2473 Y17.3260
G01 X19.2519 Y17.3288
G01 X19.2563 Y17.3320
G01 X19.2603 Y17.3357
G01 X19.2639 Y17.3397
G01 X19.2672 Y17.3441
G01 X19.2700 Y17.3487
G01 X19.2723 Y17.3536
G01 X19.3302 Y17.4932
G01 X19.4678 Y17.6726
G01 X20.1754 Y18.3802
G01 X20.3548 Y18.5179
G01 X20.5602 Y18.6029
G01 X20.7844 Y18.6325
G01 X23.2374 Y18.6325
G01 X23.4616 Y18.6029
G01 X23.6670 Y18.5179
G01 X23.8435 Y18.3825
G01 X23.9793 Y18.2054
G01 X23.9836 Y18.1981
G01 X23.9897 Y18.1908
G01 X23.9970 Y18.1846
G01 X24.0193 Y18.1697
G01 X25.2543 Y16.9347
G01 X25.2605 Y16.9294
G01 X25.2685 Y16.9244
G01 X25.2761 Y16.9213
G01 X25.2839 Y16.9193
G01 X25.2907 Y16.9186
G01 X25.2975 Y16.9186
G01 X25.3042 Y16.9196
G01 X25.3107 Y16.9213
G01 X25.3170 Y16.9238
G01 X25.3218 Y16.9264
G01 X25.3274 Y16.9302
G01 X25.3325 Y16.9347
G01 X26.0618 Y17.6640
G01 X26.0653 Y17.6681
G01 X26.0684 Y17.6725
G01 X26.0711 Y17.6772
G01 X26.0733 Y17.6822
G01 X26.0750 Y17.6874
G01 X26.0762 Y17.6926
G01 X26.0770 Y17.7021
G01 X26.0767 Y17.7075
G01 X26.0759 Y17.7129
G01 X26.0746 Y17.7182
G01 X26.0728 Y17.7233
G01 X26.0705 Y17.7282
G01 X26.0677 Y17.7328
G01 X26.0644 Y17.7372
G01 X26.0608 Y17.7412
G01 X24.6933 Y19.1087
G01 X24.7984 Y19.2140
G01 X24.8039 Y19.2217
G01 X24.8076 Y19.2289
G01 X24.8101 Y19.2367
G01 X24.8117 Y19.2460
G01 X24.8117 Y19.2542
G01 X24.8107 Y19.2609
G01 X24.8090 Y19.2674
G01 X24.8065 Y19.2737
G01 X24.8032 Y19.2797
G01 X24.7992 Y19.2852
G01 X24.7869 Y19.2979
G01 X24.7869 Y20.3490
G01 X24.7861 Y20.3585
G01 X24.7841 Y20.3663
G01 X24.7816 Y20.3726
G01 X24.7790 Y20.3774
G01 X24.7752 Y20.3830
G01 X24.7707 Y20.3881
G01 X24.0185 Y21.1403
G01 X24.0134 Y21.1448
G01 X24.0078 Y21.1486
G01 X24.0018 Y21.1518
G01 X23.9955 Y21.1541
G01 X23.9875 Y21.1559
G01 X23.9794 Y21.1565
G01 X23.1632 Y21.1565
G01 X23.1562 Y21.1561
G01 X23.1506 Y21.1551
G01 X23.1452 Y21.1535
G01 X23.0303 Y21.1139
G01 X23.0231 Y21.1102
G01 X23.0166 Y21.1055
G01 X23.0108 Y21.0999
G01 X23.0051 Y21.0923
G01 X23.0019 Y21.0864
G01 X22.9994 Y21.0802
G01 X22.9977 Y21.0737
G01 X22.9968 Y21.0657
G01 X22.9967 Y20.9143
G01 X21.1993 Y20.9143
G01 X21.1992 Y21.0657
G01 X21.1983 Y21.0737
G01 X21.1966 Y21.0802
G01 X21.1935 Y21.0876
G01 X21.1894 Y21.0946
G01 X21.1843 Y21.1008
G01 X21.1784 Y21.1063
G01 X21.1717 Y21.1108
G01 X21.1645 Y21.1144
G01 X21.0494 Y21.1539
G01 X21.0412 Y21.1559
G01 X21.0328 Y21.1565
G01 X20.7502 Y21.1565
G01 X20.7446 Y21.1562
G01 X20.7390 Y21.1554
G01 X20.7322 Y21.1535
G01 X20.6210 Y21.1153
G01 X20.6124 Y21.1115
G01 X20.6068 Y21.1079
G01 X20.6015 Y21.1037
G01 X20.5978 Y21.0999
G01 X20.5936 Y21.0946
G01 X20.5908 Y21.0900
G01 X20.5878 Y21.0840
G01 X20.5857 Y21.0776
G01 X20.5843 Y21.0710
G01 X20.5837 Y21.0630
G01 X20.5837 Y20.9143
G01 X18.7863 Y20.9143
G01 X18.7862 Y21.0657
G01 X18.7853 Y21.0737
G01 X18.7836 Y21.0802
G01 X18.7811 Y21.0864
G01 X18.7772 Y21.0935
G01 X18.7722 Y21.0999
G01 X18.7654 Y21.1063
G01 X18.7587 Y21.1108
G01 X18.7515 Y21.1144
G01 X18.6364 Y21.1539
G01 X18.6296 Y21.1556
G01 X18.6240 Y21.1563
G01 X15.2056 Y21.1565
G01 X14.9814 Y21.1861
G01 X14.7760 Y21.2712
G01 X14.5966 Y21.4088
G01 X13.3791 Y22.6263
G01 X13.3729 Y22.6316
G01 X13.3673 Y22.6353
G01 X13.3599 Y22.6388
G01 X13.3534 Y22.6408
G01 X13.3468 Y22.6421
G01 X13.3400 Y22.6425
G01 X9.4138 Y22.6425
G01 X9.4084 Y22.6422
G01 X9.4030 Y22.6414
G01 X9.3965 Y22.6397
G01 X9.3902 Y22.6372
G01 X9.3831 Y22.6332
G01 X9.3777 Y22.6291
G01 X9.3188 Y22.5703
G01 X9.3154 Y22.5661
G01 X9.3124 Y22.5616
G01 X9.3082 Y22.5531
G01 X9.3065 Y22.5479
G01 X9.3053 Y22.5427
G01 X9.3045 Y22.5332
G01 X9.3045 Y22.2550
G01 X9.3051 Y22.2469
G01 X9.3065 Y22.2403
G01 X9.3087 Y22.2338
G01 X9.3110 Y22.2289
G01 X9.3138 Y22.2243
G01 X9.3179 Y22.2189
G01 X9.3227 Y22.2140
G01 X9.3269 Y22.2106
G01 X9.3325 Y22.2069
G01 X9.3374 Y22.2044
G01 X9.3464 Y22.2014
G01 X9.3557 Y22.1998
G01 X9.3967 Y22.1997
G01 X9.3967 Y19.7065
G01 X9.3884 Y19.7024
G01 X9.3817 Y19.6977
G01 X9.3758 Y19.6921
G01 X9.3708 Y19.6857
G01 X9.3668 Y19.6786
G01 X9.3639 Y19.6711
G01 X9.3621 Y19.6631
G01 X9.3615 Y19.6550
G01 X9.3615 Y15.1166
G01 X9.3319 Y14.8921
G01 X9.3297 Y14.8843
G01 X9.3287 Y14.8749
G01 X9.3287 Y13.6933
G01 X7.6893 Y13.6933
G01 X7.6893 Y14.8749
G01 X7.6883 Y14.8843
G01 X7.6861 Y14.8921
G01 X7.6565 Y15.1166
G01 X7.6564 Y19.6577
G01 X7.6554 Y19.6658
G01 X7.6533 Y19.6736
G01 X7.6500 Y19.6811
G01 X7.6456 Y19.6879
G01 X7.6403 Y19.6941
G01 X7.6341 Y19.6994
G01 X7.6273 Y19.7038
G01 X7.6198 Y19.7071
G01 X7.6120 Y19.7092
G01 X7.6026 Y19.7103
G01 X7.5073 Y19.7103
G01 X7.5073 Y21.3471
G01 X7.5070 Y21.3525
G01 X7.5062 Y21.3579
G01 X7.5045 Y21.3644
G01 X7.5020 Y21.3707
G01 X7.4987 Y21.3767
G01 X7.4948 Y21.3822
G01 X7.4891 Y21.3881
G01 X7.4839 Y21.3923
G01 X7.4781 Y21.3959
G01 X7.4719 Y21.3987
G01 X7.4628 Y21.4013
G01 X7.3358 Y21.4266
G01 X7.3304 Y21.4274
G01 X7.3250 Y21.4277
G01 X7.3182 Y21.4273
G01 X7.3116 Y21.4260
G01 X7.3038 Y21.4235
G01 X7.2977 Y21.4205
G01 X7.2921 Y21.4168
G01 X7.2869 Y21.4125
G01 X7.2814 Y21.4064
G01 X7.2776 Y21.4008
G01 X7.2739 Y21.3936
G01 X7.1792 Y21.1649
G01 X7.0853 Y21.0424
G01 X7.0813 Y21.0355
G01 X7.0782 Y21.0280
G01 X7.0765 Y21.0216
G01 X7.0756 Y21.0136
G01 X7.0755 Y15.1306
G01 X7.0459 Y14.9064
G01 X7.0315 Y14.8711
G01 X7.0295 Y14.8632
G01 X7.0287 Y14.8552
G01 X7.0287 Y13.6933
G01 X5.3893 Y13.6933
G01 X5.3893 Y14.9845
G01 X5.3888 Y14.9917
G01 X5.3705 Y15.1306
G01 X5.3704 Y18.3686
G01 X5.3696 Y18.3756
G01 X5.3679 Y18.3824
G01 X5.3284 Y18.4975
G01 X5.3248 Y18.5047
G01 X5.3203 Y18.5114
G01 X5.3148 Y18.5173
G01 X5.3075 Y18.5232
G01 X5.3004 Y18.5271
G01 X5.2942 Y18.5296
G01 X5.2877 Y18.5313
G01 X5.2797 Y18.5322
G01 X5.1283 Y18.5323
G01 X5.1283 Y20.3297
G01 X5.2770 Y20.3297
G01 X5.2864 Y20.3305
G01 X5.2929 Y20.3320
G01 X5.2992 Y20.3344
G01 X5.3063 Y20.3381
G01 X5.3118 Y20.3420
G01 X5.3168 Y20.3466
G01 X5.3219 Y20.3528
G01 X5.3255 Y20.3584
G01 X5.3288 Y20.3658
G01 X5.3679 Y20.4796
G01 X5.3696 Y20.4864
G01 X5.3703 Y20.4920
G01 X5.3705 Y20.9998
G01 X5.3697 Y21.0078
G01 X5.3678 Y21.0156
G01 X5.3647 Y21.0231
G01 X5.3607 Y21.0300
G01 X5.2258 Y21.2059
G01 X5.1155 Y21.4722
G01 X5.0774 Y21.7616
G01 X5.0774 Y25.7834
G01 X5.0766 Y25.7915
G01 X5.0746 Y25.7993
G01 X5.0715 Y25.8069
G01 X5.0673 Y25.8138
G01 X5.0622 Y25.8201
G01 X5.0561 Y25.8256
G01 X5.0494 Y25.8301
G01 X5.0420 Y25.8336
G01 X5.0329 Y25.8362
G01 X5.0235 Y25.8373
G01 X4.9373 Y25.8373
G01 X4.9373 Y29.0267
G01 X7.4267 Y29.0267
G01 X7.4267 Y25.8373
G01 X7.3405 Y25.8373
G01 X7.3311 Y25.8362
G01 X7.3220 Y25.8336
G01 X7.3146 Y25.8301
G01 X7.3079 Y25.8256
G01 X7.3018 Y25.8201
G01 X7.2967 Y25.8138
G01 X7.2925 Y25.8069
G01 X7.2894 Y25.7993
G01 X7.2874 Y25.7915
G01 X7.2866 Y25.7834
G01 X7.2866 Y22.3598
G01 X7.2872 Y22.3517
G01 X7.2886 Y22.3451
G01 X7.2908 Y22.3387
G01 X7.2944 Y22.3314
G01 X7.2991 Y22.3248
G01 X7.3037 Y22.3198
G01 X7.3099 Y22.3147
G01 X7.3157 Y22.3111
G01 X7.4436 Y22.2423
G01 X7.4498 Y22.2398
G01 X7.4563 Y22.2380
G01 X7.4629 Y22.2371
G01 X7.4709 Y22.2370
G01 X7.4802 Y22.2384
G01 X7.4891 Y22.2413
G01 X7.5311 Y22.2617
G01 X7.5382 Y22.2661
G01 X7.5446 Y22.2715
G01 X7.5850 Y22.3134
G01 X7.5908 Y22.3210
G01 X7.5947 Y22.3282
G01 X7.5967 Y22.3333
G01 X7.5984 Y22.3399
G01 X7.5992 Y22.3453
G01 X7.5995 Y22.3508
G01 X7.5995 Y22.9056
G01 X7.6291 Y23.1298
G01 X7.7142 Y23.3352
G01 X7.8518 Y23.5146
G01 X8.4324 Y24.0952
G01 X8.6118 Y24.2329
G01 X8.8172 Y24.3179
G01 X9.0414 Y24.3475
G01 X13.7124 Y24.3475
G01 X13.9365 Y24.3179
G01 X14.1420 Y24.2329
G01 X14.3214 Y24.0952
G01 X15.5389 Y22.8777
G01 X15.5462 Y22.8716
G01 X15.5544 Y22.8668
G01 X15.5607 Y22.8643
G01 X15.5659 Y22.8628
G01 X15.5726 Y22.8618
G01 X15.5780 Y22.8615
G01 X17.0361 Y22.8615
G01 X17.0456 Y22.8623
G01 X17.0508 Y22.8635
G01 X17.0560 Y22.8652
G01 X17.0610 Y22.8674
G01 X17.0657 Y22.8701
G01 X17.0701 Y22.8732
G01 X17.0742 Y22.8768
G01 X17.0805 Y22.8839
G01 X17.0849 Y22.8907
G01 X17.0886 Y22.8995
G01 X17.0906 Y22.9073
G01 X17.1038 Y23.0397
G01 X17.1038 Y23.0465
G01 X17.1033 Y23.0519
G01 X17.1022 Y23.0572
G01 X17.1007 Y23.0624
G01 X17.0986 Y23.0674
G01 X17.0960 Y23.0722
G01 X17.0930 Y23.0767
G01 X17.0886 Y23.0819
G01 X17.0826 Y23.0874
G01 X17.0770 Y23.0912
G01 X17.0710 Y23.0944
G01 X17.0633 Y23.0971
G01 X16.9303 Y23.1237
G01 X16.7620 Y23.2361
G01 X15.3580 Y24.6401
G01 X15.3517 Y24.6452
G01 X15.3448 Y24.6494
G01 X15.3372 Y24.6525
G01 X15.3294 Y24.6545
G01 X15.3213 Y24.6553
G01 X15.2743 Y24.6553
G01 X15.2743 Y24.7987
G01 X15.6239 Y24.7987
G01 X16.9790 Y23.4435
G01 X16.9930 Y23.4309
G01 X17.0070 Y23.4205
G01 X17.0265 Y23.4086
G01 X17.0447 Y23.4000
G01 X17.0611 Y23.3940
G01 X17.0846 Y23.3880
G01 X17.1032 Y23.3853
G01 X17.1233 Y23.3843
G01 X23.5351 Y23.3843
G01 X24.8291 Y22.0902
G01 X24.8291 Y21.8218
G01 X24.8304 Y21.7990
G01 X24.8331 Y21.7817
G01 X24.8380 Y21.7622
G01 X24.8448 Y21.7432
G01 X24.8522 Y21.7274
G01 X24.8645 Y21.7066
G01 X24.8757 Y21.6915
G01 X24.8874 Y21.6785
G01 X26.2765 Y20.2893
G01 X26.2914 Y20.2757
G01 X26.3054 Y20.2653
G01 X26.3106 Y20.2619
G01 X27.0338 Y19.5388
G01 X27.0477 Y19.5262
G01 X27.0639 Y19.5142
G01 X27.0812 Y19.5039
G01 X27.0969 Y19.4964
G01 X27.1158 Y19.4893
G01 X27.1210 Y19.4877
G01 X27.1379 Y19.4836
G01 X27.1579 Y19.4806
G01 X27.1780 Y19.4796
G01 X27.5334 Y19.4796
G01 X27.6911 Y19.4739
G01 X27.7551 Y19.4669
G01 X27.8097 Y19.4574
G01 X27.8373 Y19.4499
G01 X29.0646 Y18.2226
G01 X29.0674 Y18.2168
G01 X29.0700 Y18.2034
G01 X29.0693 Y18.1867
G01 X29.0640 Y18.1653
G01 X29.0530 Y18.1394
G01 X29.0357 Y18.1095
G01 X29.0116 Y18.0760
G01 X28.9808 Y18.0392
G01 X28.9435 Y18.0000
G01 X27.6166 Y16.6729
G01 X27.6130 Y16.6689
G01 X27.6097 Y16.6645
G01 X27.6051 Y16.6562
G01 X27.6024 Y16.6485
G01 X27.6008 Y16.6406
G01 X27.6005 Y16.6311
G01 X27.6015 Y16.6230
G01 X27.6041 Y16.6139
G01 X27.6083 Y16.6054
G01 X27.6130 Y16.5987
G01 X27.6166 Y16.5947
G01 X27.8297 Y16.3816
G01 X27.8349 Y16.3773
G01 X27.8405 Y16.3736
G01 X27.8466 Y16.3706
G01 X27.8531 Y16.3684
G01 X27.8597 Y16.3670
G01 X27.8664 Y16.3664
G01 X27.8746 Y16.3668
G01 X27.8812 Y16.3681
G01 X27.8877 Y16.3701
G01 X27.8939 Y16.3729
G01 X27.9007 Y16.3773
G01 X27.9059 Y16.3816
G01 X29.2359 Y17.7115
G01 X29.2731 Y17.7468
G01 X29.3099 Y17.7777
G01 X29.3435 Y17.8017
G01 X29.3735 Y17.8191
G01 X29.3993 Y17.8300
G01 X29.4206 Y17.8353
G01 X29.4373 Y17.8360
G01 X29.4508 Y17.8334
G01 X29.4566 Y17.8306
G01 X30.1233 Y17.1640
G01 X30.1360 Y17.1527
G01 X30.1453 Y17.1459
G01 X30.1575 Y17.1386
G01 X30.1704 Y17.1325
G01 X30.1812 Y17.1285
G01 X30.1990 Y17.1239
G01 X30.2118 Y17.1221
G01 X30.2233 Y17.1215
G01 X30.2416 Y17.1222
G01 X30.2543 Y17.1242
G01 X30.2669 Y17.1273
G01 X30.2841 Y17.1336
G01 X30.2945 Y17.1386
G01 X30.3056 Y17.1451
G01 X30.3182 Y17.1544
G01 X30.3287 Y17.1640
G01 X32.6147 Y19.4499
G01 X32.6423 Y19.4574
G01 X32.6961 Y19.4668
G01 X32.8365 Y19.4782
G01 X32.9159 Y19.4796
G01 X33.4219 Y19.4796
G01 X34.6587 Y18.2428
G01 X34.6727 Y18.2302
G01 X34.6889 Y18.2182
G01 X34.7062 Y18.2079
G01 X34.7244 Y18.1993
G01 X34.7434 Y18.1925
G01 X34.7629 Y18.1876
G01 X34.7829 Y18.1846
G01 X34.8016 Y18.1836
G01 X38.2103 Y18.1836
G01 X38.2331 Y18.1849
G01 X38.2504 Y18.1876
G01 X38.2699 Y18.1925
G01 X38.2889 Y18.1993
G01 X38.3095 Y18.2092
G01 X38.3244 Y18.2182
G01 X38.3384 Y18.2286
G01 X38.3546 Y18.2428
G01 X39.4002 Y19.2885
G01 X39.4129 Y19.3024
G01 X39.4258 Y19.3196
G01 X39.4373 Y19.3393
G01 X39.4447 Y19.3551
G01 X39.4507 Y19.3715
G01 X39.4564 Y19.3936
G01 X39.4594 Y19.4136
G01 X39.4604 Y19.4323
G01 X39.4604 Y19.5559
G01 X39.5451 Y19.6406
G01 X40.7699 Y19.6406
G01 X41.1497 Y19.2609
G01 X41.1497 Y18.8510
G01 X41.1403 Y18.8493
G01 X41.1314 Y18.8460
G01 X41.1232 Y18.8412
G01 X41.1189 Y18.8379
G01 X41.1149 Y18.8341
G01 X41.1090 Y18.8267
G01 X41.1062 Y18.8221
G01 X41.1039 Y18.8172
G01 X41.1021 Y18.8121
G01 X41.1008 Y18.8068
G01 X41.0997 Y18.7974
G01 X41.0997 Y17.8973
G01 X41.0063 Y17.8973
G01 X41.0062 Y18.8641
G01 X41.0055 Y18.8695
G01 X41.0043 Y18.8747
G01 X41.0021 Y18.8812
G01 X40.9998 Y18.8861
G01 X40.9962 Y18.8918
G01 X40.9929 Y18.8961
G01 X40.9881 Y18.9010
G01 X40.9839 Y18.9044
G01 X40.9604 Y18.9201
G01 X40.9557 Y18.9227
G01 X40.9506 Y18.9248
G01 X40.9441 Y18.9267
G01 X40.9361 Y18.9278
G01 X40.9293 Y18.9279
G01 X40.9225 Y18.9272
G01 X40.9147 Y18.9252
G01 X40.9071 Y18.9221
G01 X40.7789 Y18.8536
G01 X40.7743 Y18.8508
G01 X40.7699 Y18.8475
G01 X40.7649 Y18.8429
G01 X40.7614 Y18.8388
G01 X40.7583 Y18.8344
G01 X40.7556 Y18.8297
G01 X40.7534 Y18.8247
G01 X40.7514 Y18.8182
G01 X40.7503 Y18.8129
G01 X40.7497 Y18.8048
G01 X40.7497 Y17.7513
G01 X39.8902 Y17.7513
G01 X39.8807 Y17.7505
G01 X39.8305 Y17.7405
G01 X39.0067 Y17.7405
G01 X39.0013 Y17.7402
G01 X38.9959 Y17.7394
G01 X38.9894 Y17.7377
G01 X38.9818 Y17.7346
G01 X38.9749 Y17.7304
G01 X38.9686 Y17.7253
G01 X38.7994 Y17.5560
G01 X38.7951 Y17.5507
G01 X38.7916 Y17.5448
G01 X38.7892 Y17.5399
G01 X38.7870 Y17.5334
G01 X38.7857 Y17.5267
G01 X38.7852 Y17.5213
G01 X38.7853 Y17.5144
G01 X38.7862 Y17.5078
G01 X38.7796 Y17.5087
G01 X38.7741 Y17.5089
G01 X38.7687 Y17.5085
G01 X38.7633 Y17.5076
G01 X38.7580 Y17.5062
G01 X38.7529 Y17.5042
G01 X38.7480 Y17.5018
G01 X38.7434 Y17.4989
G01 X38.7360 Y17.4927
G01 X38.6697 Y17.4265
G01 X38.5014 Y17.3140
G01 X38.3233 Y17.2784
G01 X38.3181 Y17.2767
G01 X38.3131 Y17.2745
G01 X38.3051 Y17.2695
G01 X38.2979 Y17.2632
G01 X38.2920 Y17.2558
G01 X38.2880 Y17.2487
G01 X38.2851 Y17.2412
G01 X38.2833 Y17.2332
G01 X38.2827 Y17.2251
G01 X38.2827 Y15.0113
G01 X36.3933 Y15.0113
G01 X36.3933 Y15.3482
G01 X36.3930 Y15.3536
G01 X36.3916 Y15.3616
G01 X36.3891 Y15.3694
G01 X36.3854 Y15.3766
G01 X36.3799 Y15.3843
G01 X36.3741 Y15.3901
G01 X36.3664 Y15.3956
G01 X36.3592 Y15.3993
G01 X36.3501 Y15.4022
G01 X36.3434 Y15.4032
G01 X36.3380 Y15.4035
G01 X34.8016 Y15.4035
G01 X34.5774 Y15.4331
G01 X34.3720 Y15.5181
G01 X34.1955 Y15.6535
G01 X34.0601 Y15.8300
G01 X33.9751 Y16.0354
G01 X33.9460 Y16.2560
G01 X33.9603 Y16.3649
G01 X33.9608 Y16.3703
G01 X33.9604 Y16.3785
G01 X33.9589 Y16.3866
G01 X33.9561 Y16.3943
G01 X33.9523 Y16.4016
G01 X33.9483 Y16.4071
G01 X33.9446 Y16.4112
G01 X33.4147 Y16.9411
G01 X33.4085 Y16.9464
G01 X33.4005 Y16.9514
G01 X33.3929 Y16.9545
G01 X33.3851 Y16.9565
G01 X33.3783 Y16.9572
G01 X33.3729 Y16.9572
G01 X33.3661 Y16.9565
G01 X33.3595 Y16.9549
G01 X33.3532 Y16.9526
G01 X33.3472 Y16.9494
G01 X33.3427 Y16.9464
G01 X33.3375 Y16.9421
G01 X32.4796 Y16.0842
G01 X32.4751 Y16.0791
G01 X32.4713 Y16.0735
G01 X32.4681 Y16.0675
G01 X32.4658 Y16.0612
G01 X32.4640 Y16.0532
G01 X32.4634 Y16.0437
G01 X32.4642 Y16.0356
G01 X32.4666 Y16.0265
G01 X32.5167 Y15.9054
G01 X32.5192 Y15.9005
G01 X32.5221 Y15.8960
G01 X32.5254 Y15.8917
G01 X32.5292 Y15.8877
G01 X32.5344 Y15.8834
G01 X32.5412 Y15.8790
G01 X32.5474 Y15.8762
G01 X32.5552 Y15.8738
G01 X32.5646 Y15.8726
G01 X32.5787 Y15.8725
G01 X32.7771 Y15.8330
G01 X32.9453 Y15.7205
G01 X34.9363 Y13.7297
G01 X34.9414 Y13.7252
G01 X34.9481 Y13.7207
G01 X34.9555 Y13.7172
G01 X34.9633 Y13.7148
G01 X34.9700 Y13.7138
G01 X34.9754 Y13.7135
G01 X36.2810 Y13.7135
G01 X36.2891 Y13.7141
G01 X36.2983 Y13.7163
G01 X36.3059 Y13.7194
G01 X36.3128 Y13.7236
G01 X36.3181 Y13.7278
G01 X36.3229 Y13.7327
G01 X36.3270 Y13.7381
G01 X36.3298 Y13.7427
G01 X36.3326 Y13.7489
G01 X36.3346 Y13.7554
G01 X36.3357 Y13.7607
G01 X36.3363 Y13.7674
G01 X36.3363 Y14.7067
G01 X38.2257 Y14.7067
G01 X38.2257 Y9.9313
G01 X36.4673 Y9.9313
G01 X36.4579 Y9.9302
G01 X36.4526 Y9.9289
G01 X36.4475 Y9.9271
G01 X36.4391 Y9.9227
G01 X36.4316 Y9.9170
G01 X36.4251 Y9.9100
G01 X36.4199 Y9.9021
G01 X36.4162 Y9.8933
G01 X36.4140 Y9.8841
G01 X36.4134 Y9.8760
G01 X36.4134 Y6.8803
G01 X36.4140 Y6.8723
G01 X36.4157 Y6.8644
G01 X36.4192 Y6.8556
G01 X36.4241 Y6.8476
G01 X36.4303 Y6.8405
G01 X36.4354 Y6.8361
G01 X36.4399 Y6.8331
G01 X36.5126 Y6.7911
G01 X36.7630 Y6.5406
G01 X36.9401 Y6.2341
G01 X37.0317 Y5.8920
G01 X37.0317 Y5.5380
G01 X36.9401 Y5.1959
G01 X36.7630 Y4.8894
G01 X36.5126 Y4.6390
G01 X36.2061 Y4.4619
G01 X35.8640 Y4.3703
G01 X35.5100 Y4.3703
G01 X35.1679 Y4.4619
G01 X34.8614 Y4.6390
G01 X34.6110 Y4.8894
G01 X34.5277 Y5.0335
G01 X34.5221 Y5.0411
G01 X34.5154 Y5.0476
G01 X34.5087 Y5.0523
G01 X34.5003 Y5.0564
G01 X34.4925 Y5.0587
G01 X34.4845 Y5.0599
G01 X34.3535 Y5.0600
G01 X34.3454 Y5.0594
G01 X34.3402 Y5.0584
G01 X34.3350 Y5.0568
G01 X34.3300 Y5.0548
G01 X34.3253 Y5.0523
G01 X34.3208 Y5.0493
G01 X34.3156 Y5.0450
G01 X34.3119 Y5.0411
G01 X34.3085 Y5.0369
G01 X34.3056 Y5.0324
G01 X34.2230 Y4.8894
G01 X33.9726 Y4.6390
G01 X33.6661 Y4.4619
G01 X33.3240 Y4.3703
G01 X32.9700 Y4.3703
G01 X32.6279 Y4.4619
G01 X32.3214 Y4.6390
G01 X32.0710 Y4.8894
G01 X31.9877 Y5.0335
G01 X31.9821 Y5.0411
G01 X31.9754 Y5.0476
G01 X31.9676 Y5.0529
G01 X31.9603 Y5.0564
G01 X31.9525 Y5.0587
G01 X31.9445 Y5.0599
G01 X31.8095 Y5.0599
G01 X31.8041 Y5.0592
G01 X31.7976 Y5.0577
G01 X31.7925 Y5.0559
G01 X31.7864 Y5.0529
G01 X31.7808 Y5.0493
G01 X31.7766 Y5.0459
G01 X31.7728 Y5.0421
G01 X31.7693 Y5.0380
G01 X31.7656 Y5.0324
G01 X31.6830 Y4.8894
G01 X31.4326 Y4.6390
G01 X31.1261 Y4.4619
G01 X30.7840 Y4.3703
G01 X30.4300 Y4.3703
G01 X30.0879 Y4.4619
G01 X29.7814 Y4.6390
G01 X29.5310 Y4.8894
G01 X29.4477 Y5.0335
G01 X29.4421 Y5.0411
G01 X29.4354 Y5.0476
G01 X29.4276 Y5.0529
G01 X29.4203 Y5.0564
G01 X29.4125 Y5.0587
G01 X29.4045 Y5.0599
G01 X29.2708 Y5.0599
G01 X29.2641 Y5.0592
G01 X29.2589 Y5.0580
G01 X29.2525 Y5.0559
G01 X29.2476 Y5.0536
G01 X29.2430 Y5.0508
G01 X29.2376 Y5.0468
G01 X29.2337 Y5.0431
G01 X29.2293 Y5.0380
G01 X29.2256 Y5.0324
G01 X29.1430 Y4.8894
G01 X28.8926 Y4.6390
G01 X28.5861 Y4.4619
G01 X28.2440 Y4.3703
G01 X27.8900 Y4.3703
G01 X27.5479 Y4.4619
G01 X27.2414 Y4.6390
G01 X26.9909 Y4.8894
G01 X26.9729 Y4.9200
G01 X26.9695 Y4.9243
G01 X26.9657 Y4.9282
G01 X26.9581 Y4.9341
G01 X26.9534 Y4.9368
G01 X26.9484 Y4.9391
G01 X26.9433 Y4.9409
G01 X26.9366 Y4.9423
G01 X26.8080 Y4.9593
G01 X26.8011 Y4.9596
G01 X26.7930 Y4.9588
G01 X26.7850 Y4.9569
G01 X26.7762 Y4.9531
G01 X26.7692 Y4.9488
G01 X26.7630 Y4.9434
G01 X24.9130 Y3.0932
G01 X24.9089 Y3.0878
G01 X24.9049 Y3.0807
G01 X24.9024 Y3.0744
G01 X24.9004 Y3.0666
G01 X24.8996 Y3.0585
G01 X24.8999 Y3.0517
G01 X24.9013 Y3.0437
G01 X24.9033 Y3.0372
G01 X24.9524 Y2.9186
G01 X24.9561 Y2.9114
G01 X24.9591 Y2.9069
G01 X24.9625 Y2.9027
G01 X24.9674 Y2.8979
G01 X24.9717 Y2.8946
G01 X24.9762 Y2.8917
G01 X24.9811 Y2.8892
G01 X24.9862 Y2.8873
G01 X24.9927 Y2.8856
G01 X24.9981 Y2.8848
G01 X25.0035 Y2.8845
G01 X36.8689 Y2.8845
G01 X36.8770 Y2.8851
G01 X36.8850 Y2.8869
G01 X36.8925 Y2.8898
G01 X36.8996 Y2.8938
G01 X36.9040 Y2.8971
G01 X36.9080 Y2.9007
G01 X43.9230 Y9.9156
G01 X43.9266 Y9.9196
G01 X43.9306 Y9.9251
G01 X43.9339 Y9.9311
G01 X43.9368 Y9.9386
G01 X43.9384 Y9.9452
G01 X43.9391 Y9.9520
G01 X43.9390 Y9.9588
G01 X43.9381 Y9.9655
G01 X43.9360 Y9.9733
G01 X43.8864 Y10.0932
G01 X43.8834 Y10.0993
G01 X43.8805 Y10.1038
G01 X43.8772 Y10.1081
G01 X43.8704 Y10.1147
G01 X43.8660 Y10.1180
G01 X43.8614 Y10.1208
G01 X43.8565 Y10.1231
G01 X43.8514 Y10.1249
G01 X43.8434 Y10.1267
G01 X43.8353 Y10.1273
G01 X43.2503 Y10.1273
G01 X43.2503 Y10.6707
G01 X43.3937 Y10.6707
G01 X43.3937 Y10.3260
G01 X43.3940 Y10.3206
G01 X43.3954 Y10.3126
G01 X43.3979 Y10.3048
G01 X43.4016 Y10.2976
G01 X43.4063 Y10.2909
G01 X43.4119 Y10.2850
G01 X43.4183 Y10.2800
G01 X43.4266 Y10.2754
G01 X43.4343 Y10.2727
G01 X43.4422 Y10.2711
G01 X43.4490 Y10.2707
G01 X44.5504 Y10.2707
G01 X44.5571 Y10.2713
G01 X44.5637 Y10.2727
G01 X44.5702 Y10.2749
G01 X44.5763 Y10.2779
G01 X44.5819 Y10.2816
G01 X44.5871 Y10.2859
G01 X44.5917 Y10.2909
G01 X44.5957 Y10.2964
G01 X44.5996 Y10.3036
G01 X44.6023 Y10.3113
G01 X44.6039 Y10.3192
G01 X44.6043 Y10.3260
G01 X44.6043 Y12.0260
G01 X44.6039 Y12.0328
G01 X44.6030 Y12.0381
G01 X44.6015 Y12.0433
G01 X44.5990 Y12.0496
G01 X44.5957 Y12.0556
G01 X44.5909 Y12.0621
G01 X44.5861 Y12.0670
G01 X44.5797 Y12.0720
G01 X44.5726 Y12.0760
G01 X44.5651 Y12.0789
G01 X44.5585 Y12.0805
G01 X44.5504 Y12.0813
G01 X43.4490 Y12.0813
G01 X43.4422 Y12.0809
G01 X43.4343 Y12.0793
G01 X43.4266 Y12.0766
G01 X43.4194 Y12.0727
G01 X43.4129 Y12.0679
G01 X43.4071 Y12.0621
G01 X43.4016 Y12.0544
G01 X43.3979 Y12.0472
G01 X43.3954 Y12.0394
G01 X43.3940 Y12.0314
G01 X43.3937 Y12.0260
G01 X43.3937 Y11.6813
G01 X43.2503 Y11.6813
G01 X43.2503 Y12.2623
G01 X43.3115 Y12.3481
G01 X43.3149 Y12.3541
G01 X43.3174 Y12.3605
G01 X43.3192 Y12.3671
G01 X43.3200 Y12.3725
G01 X43.3203 Y12.3780
G01 X43.3203 Y12.9567
G01 X43.4637 Y12.9567
G01 X43.4637 Y12.6120
G01 X43.4643 Y12.6039
G01 X43.4665 Y12.5947
G01 X43.4684 Y12.5896
G01 X43.4709 Y12.5847
G01 X43.4763 Y12.5769
G01 X43.4829 Y12.5701
G01 X43.4872 Y12.5668
G01 X43.4917 Y12.5639
G01 X43.5004 Y12.5599
G01 X43.5095 Y12.5575
G01 X43.5190 Y12.5567
G01 X44.6190 Y12.5567
G01 X44.6271 Y12.5573
G01 X44.6351 Y12.5591
G01 X44.6426 Y12.5620
G01 X44.6497 Y12.5660
G01 X44.6561 Y12.5710
G01 X44.6617 Y12.5769
G01 X44.6664 Y12.5836
G01 X44.6701 Y12.5908
G01 X44.6726 Y12.5986
G01 X44.6740 Y12.6066
G01 X44.6743 Y12.6120
G01 X44.6743 Y12.9567
G01 X44.8177 Y12.9567
G01 X44.8177 Y12.3757
G01 X44.7557 Y12.2887
G01 X44.7525 Y12.2826
G01 X44.7497 Y12.2749
G01 X44.7483 Y12.2682
G01 X44.7477 Y12.2614
G01 X44.7478 Y11.0371
G01 X44.7488 Y11.0290
G01 X44.7505 Y11.0225
G01 X44.7530 Y11.0162
G01 X44.7570 Y11.0091
G01 X44.7611 Y11.0037
G01 X44.7669 Y10.9979
G01 X44.7722 Y10.9938
G01 X44.7781 Y10.9904
G01 X44.8991 Y10.9400
G01 X44.9042 Y10.9382
G01 X44.9135 Y10.9362
G01 X44.9230 Y10.9359
G01 X44.9324 Y10.9371
G01 X44.9414 Y10.9400
G01 X44.9464 Y10.9423
G01 X44.9510 Y10.9451
G01 X44.9554 Y10.9484
G01 X44.9594 Y10.9520
G01 X49.5802 Y15.5728
G01 X49.5838 Y15.5768
G01 X49.5871 Y15.5812
G01 X49.5899 Y15.5858
G01 X49.5922 Y15.5907
G01 X49.5951 Y15.5998
G01 X49.5963 Y15.6092
G01 X49.5960 Y15.6187
G01 X49.5940 Y15.6280
G01 X49.5922 Y15.6331
G01 X49.5419 Y15.7541
G01 X49.5385 Y15.7599
G01 X49.5335 Y15.7663
G01 X49.5276 Y15.7719
G01 X49.5221 Y15.7759
G01 X49.5149 Y15.7798
G01 X49.5072 Y15.7825
G01 X49.4993 Y15.7841
G01 X49.4925 Y15.7845
G01 X46.8093 Y15.7844
G01 X46.7999 Y15.7832
G01 X46.7921 Y15.7808
G01 X46.7847 Y15.7773
G01 X46.7769 Y15.7719
G01 X46.7710 Y15.7663
G01 X46.7660 Y15.7599
G01 X46.7614 Y15.7516
G01 X46.7587 Y15.7439
G01 X46.7573 Y15.7373
G01 X46.7567 Y15.7306
G01 X46.7567 Y15.5923
G01 X45.2673 Y15.5923
G01 X45.2673 Y16.1367
G01 X45.2670 Y16.1421
G01 X45.2657 Y16.1500
G01 X45.2632 Y16.1577
G01 X45.2596 Y16.1649
G01 X45.2541 Y16.1725
G01 X45.2495 Y16.1774
G01 X45.2284 Y16.1967
G01 X45.2218 Y16.2014
G01 X45.2145 Y16.2052
G01 X45.2094 Y16.2070
G01 X45.2041 Y16.2084
G01 X45.1987 Y16.2092
G01 X45.1933 Y16.2095
G01 X45.1838 Y16.2087
G01 X45.1784 Y16.2075
G01 X45.1732 Y16.2059
G01 X45.0413 Y16.1478
G01 X45.0343 Y16.1436
G01 X45.0289 Y16.1393
G01 X45.0242 Y16.1345
G01 X45.0193 Y16.1279
G01 X45.0155 Y16.1208
G01 X45.0131 Y16.1144
G01 X45.0115 Y16.1078
G01 X45.0107 Y16.0997
G01 X45.0107 Y15.7383
G01 X44.9173 Y15.7383
G01 X44.9173 Y17.5357
G01 X45.0107 Y17.5357
G01 X45.0107 Y17.1743
G01 X45.0113 Y17.1676
G01 X45.0127 Y17.1609
G01 X45.0149 Y17.1545
G01 X45.0179 Y17.1484
G01 X45.0225 Y17.1416
G01 X45.0279 Y17.1356
G01 X45.0354 Y17.1297
G01 X45.0425 Y17.1256
G01 X45.1720 Y17.0687
G01 X45.1771 Y17.0668
G01 X45.1824 Y17.0655
G01 X45.1919 Y17.0645
G01 X45.1973 Y17.0647
G01 X45.2027 Y17.0654
G01 X45.2120 Y17.0678
G01 X45.2170 Y17.0700
G01 X45.2218 Y17.0726
G01 X45.2295 Y17.0782
G01 X45.2504 Y17.0975
G01 X45.2566 Y17.1046
G01 X45.2603 Y17.1103
G01 X45.2632 Y17.1163
G01 X45.2657 Y17.1240
G01 X45.2669 Y17.1306
G01 X45.2673 Y17.1373
G01 X45.2673 Y17.6817
G01 X46.7567 Y17.6817
G01 X46.7567 Y17.5434
G01 X46.7573 Y17.5367
G01 X46.7587 Y17.5301
G01 X46.7620 Y17.5212
G01 X46.7660 Y17.5141
G01 X46.7710 Y17.5077
G01 X46.7769 Y17.5021
G01 X46.7836 Y17.4974
G01 X46.7921 Y17.4932
G01 X46.8012 Y17.4906
G01 X46.8093 Y17.4896
G01 X50.1700 Y17.4895
G01 X50.1754 Y17.4898
G01 X50.1808 Y17.4906
G01 X50.1861 Y17.4919
G01 X50.1912 Y17.4937
G01 X50.1961 Y17.4960
G01 X50.2007 Y17.4988
G01 X50.2051 Y17.5021
G01 X50.2091 Y17.5057
G01 X50.9263 Y18.2229
G01 X50.9308 Y18.2280
G01 X50.9346 Y18.2336
G01 X50.9378 Y18.2396
G01 X50.9401 Y18.2459
G01 X50.9419 Y18.2539
G01 X50.9425 Y18.2620
G01 X50.9425 Y19.9460
G01 X50.9422 Y19.9514
G01 X50.9412 Y19.9581
G01 X50.9388 Y19.9659
G01 X50.9346 Y19.9744
G01 X50.9291 Y19.9821
G01 X50.9233 Y19.9879
G01 X50.9156 Y19.9934
G01 X50.9084 Y19.9971
G01 X50.8993 Y20.0000
G01 X50.8913 Y20.0012
G01 X50.3753 Y20.0013
G01 X50.3752 Y21.0659
G01 X50.3740 Y21.0753
G01 X50.3716 Y21.0831
G01 X50.3674 Y21.0916
G01 X50.3619 Y21.0993
G01 X50.3551 Y21.1059
G01 X50.3473 Y21.1113
G01 X50.3386 Y21.1153
G01 X50.3295 Y21.1177
G01 X50.3200 Y21.1185
G01 X42.8026 Y21.1185
G01 X42.5784 Y21.1481
G01 X42.3730 Y21.2332
G01 X42.1936 Y21.3708
G01 X41.8061 Y21.7583
G01 X41.8010 Y21.7628
G01 X41.7954 Y21.7667
G01 X41.7894 Y21.7698
G01 X41.7830 Y21.7721
G01 X41.7764 Y21.7737
G01 X41.7696 Y21.7744
G01 X41.7628 Y21.7743
G01 X41.7561 Y21.7734
G01 X41.6331 Y21.7423
G01 X40.7414 Y21.7422
G01 X40.7360 Y21.7415
G01 X40.7308 Y21.7403
G01 X40.7219 Y21.7370
G01 X40.7137 Y21.7322
G01 X40.7064 Y21.7261
G01 X40.0565 Y21.0762
G01 X40.0512 Y21.0700
G01 X40.0475 Y21.0644
G01 X40.0445 Y21.0583
G01 X40.0423 Y21.0518
G01 X40.0409 Y21.0452
G01 X40.0403 Y21.0385
G01 X40.0403 Y20.7287
G01 X40.0156 Y20.5410
G01 X40.0151 Y20.5355
G01 X40.0155 Y20.5273
G01 X40.0187 Y20.5060
G01 X40.0210 Y20.4982
G01 X40.0251 Y20.4897
G01 X40.0289 Y20.4841
G01 X40.1171 Y20.3699
G01 X40.1241 Y20.3634
G01 X40.1321 Y20.3581
G01 X40.1408 Y20.3543
G01 X40.1488 Y20.3523
G01 X40.1583 Y20.3515
G01 X40.8496 Y20.3515
G01 X41.0480 Y20.3120
G01 X41.2162 Y20.1995
G01 X41.7050 Y19.7109
G01 X41.7112 Y19.7056
G01 X41.7180 Y19.7012
G01 X41.7229 Y19.6989
G01 X41.7294 Y19.6967
G01 X41.7360 Y19.6953
G01 X41.7427 Y19.6947
G01 X42.2037 Y19.6947
G01 X42.2037 Y19.3013
G01 X42.0603 Y19.3013
G01 X42.0603 Y19.4960
G01 X42.0597 Y19.5041
G01 X42.0579 Y19.5121
G01 X42.0550 Y19.5196
G01 X42.0517 Y19.5256
G01 X42.0469 Y19.5321
G01 X42.0411 Y19.5379
G01 X42.0357 Y19.5420
G01 X42.0286 Y19.5460
G01 X42.0223 Y19.5485
G01 X42.0131 Y19.5507
G01 X42.0050 Y19.5513
G01 X41.4401 Y19.5513
G01 X40.9993 Y19.9922
G01 X40.9831 Y20.0064
G01 X40.9691 Y20.0168
G01 X40.9542 Y20.0258
G01 X40.9336 Y20.0357
G01 X40.9133 Y20.0429
G01 X40.8951 Y20.0474
G01 X40.8778 Y20.0501
G01 X40.8550 Y20.0514
G01 X39.4600 Y20.0514
G01 X39.4399 Y20.0504
G01 X39.4173 Y20.0468
G01 X39.4004 Y20.0425
G01 X39.3814 Y20.0357
G01 X39.3632 Y20.0271
G01 X39.3482 Y20.0182
G01 X39.3297 Y20.0048
G01 X39.3148 Y19.9912
G01 X39.1098 Y19.7862
G01 X39.0980 Y19.7733
G01 X39.0842 Y19.7551
G01 X39.0727 Y19.7354
G01 X39.0653 Y19.7196
G01 X39.0593 Y19.7032
G01 X39.0536 Y19.6811
G01 X39.0506 Y19.6611
G01 X39.0496 Y19.6424
G01 X39.0496 Y19.5188
G01 X38.1252 Y18.5944
G01 X34.8881 Y18.5944
G01 X33.6522 Y19.8302
G01 X33.6351 Y19.8454
G01 X33.6211 Y19.8558
G01 X33.6062 Y19.8648
G01 X33.5856 Y19.8747
G01 X33.5666 Y19.8815
G01 X33.5471 Y19.8864
G01 X33.5244 Y19.8896
G01 X33.5070 Y19.8904
G01 X32.9186 Y19.8904
G01 X32.7609 Y19.8961
G01 X32.6969 Y19.9031
G01 X32.6423 Y19.9127
G01 X32.6147 Y19.9201
G01 X30.4611 Y22.0737
G01 X30.4537 Y22.1013
G01 X30.4442 Y22.1552
G01 X30.4328 Y22.2955
G01 X30.4314 Y22.3749
G01 X30.4314 Y23.1637
G01 X31.4848 Y24.2174
G01 X31.4893 Y24.2225
G01 X31.4931 Y24.2281
G01 X31.4968 Y24.2353
G01 X31.4993 Y24.2431
G01 X31.5009 Y24.2524
G01 X31.5009 Y24.2606
G01 X31.4997 Y24.2686
G01 X31.4973 Y24.2764
G01 X31.4931 Y24.2849
G01 X31.4884 Y24.2916
G01 X31.4848 Y24.2956
G01 X31.2717 Y24.5087
G01 X31.2676 Y24.5122
G01 X31.2620 Y24.5160
G01 X31.2560 Y24.5192
G01 X31.2497 Y24.5215
G01 X31.2417 Y24.5233
G01 X31.2350 Y24.5239
G01 X31.2282 Y24.5236
G01 X31.2202 Y24.5222
G01 X31.2137 Y24.5202
G01 X31.2063 Y24.5167
G01 X31.2007 Y24.5130
G01 X31.1945 Y24.5077
G01 X30.0808 Y23.3940
G01 X30.0672 Y23.3791
G01 X30.0568 Y23.3651
G01 X30.0442 Y23.3444
G01 X30.0363 Y23.3274
G01 X30.0287 Y23.3058
G01 X30.0246 Y23.2889
G01 X30.0219 Y23.2716
G01 X30.0207 Y23.2515
G01 X30.0206 Y22.3776
G01 X30.0149 Y22.2199
G01 X30.0079 Y22.1559
G01 X29.9983 Y22.1013
G01 X29.9909 Y22.0737
G01 X27.8373 Y19.9201
G01 X27.8097 Y19.9127
G01 X27.7558 Y19.9032
G01 X27.6155 Y19.8918
G01 X27.5361 Y19.8904
G01 X27.2631 Y19.8904
G01 X26.5736 Y20.5797
G01 X26.5587 Y20.5933
G01 X26.5447 Y20.6037
G01 X26.5395 Y20.6071
G01 X25.2399 Y21.9069
G01 X25.2399 Y22.1753
G01 X25.2387 Y22.1968
G01 X25.2359 Y22.2154
G01 X25.2318 Y22.2323
G01 X25.2242 Y22.2539
G01 X25.2156 Y22.2721
G01 X25.2067 Y22.2871
G01 X25.2037 Y22.2916
G01 X25.1915 Y22.3076
G01 X25.1797 Y22.3205
G01 X23.7654 Y23.7349
G01 X23.7505 Y23.7485
G01 X23.7343 Y23.7605
G01 X23.7170 Y23.7708
G01 X23.6975 Y23.7799
G01 X23.6798 Y23.7862
G01 X23.6603 Y23.7911
G01 X23.6403 Y23.7941
G01 X23.6202 Y23.7951
G01 X17.2084 Y23.7951
G01 X15.9143 Y25.0891
G01 X15.9143 Y25.1487
G01 X16.2791 Y25.1487
G01 X17.3165 Y24.1113
G01 X17.3227 Y24.1060
G01 X17.3307 Y24.1010
G01 X17.3383 Y24.0979
G01 X17.3475 Y24.0957
G01 X17.3556 Y24.0951
G01 X23.0912 Y24.0951
G01 X23.0980 Y24.0955
G01 X23.1046 Y24.0968
G01 X23.1111 Y24.0988
G01 X23.1161 Y24.1010
G01 X23.1219 Y24.1044
G01 X23.1263 Y24.1077
G01 X23.1313 Y24.1123
G01 X23.1356 Y24.1175
G01 X23.1393 Y24.1232
G01 X23.1423 Y24.1293
G01 X23.1922 Y24.2505
G01 X23.1937 Y24.2557
G01 X23.1946 Y24.2611
G01 X23.1949 Y24.2705
G01 X23.1944 Y24.2759
G01 X23.1933 Y24.2813
G01 X23.1902 Y24.2902
G01 X23.1857 Y24.2985
G01 X23.1798 Y24.3059
G01 X22.9916 Y24.4941
G01 X22.9853 Y24.4992
G01 X22.9784 Y24.5034
G01 X22.9721 Y24.5061
G01 X22.9643 Y24.5082
G01 X22.9589 Y24.5090
G01 X22.9535 Y24.5093
G01 X21.1343 Y24.5093
G01 X21.1343 Y26.7987
G01 X21.5822 Y26.7987
G01 X21.5876 Y26.7990
G01 X21.5969 Y26.8007
G01 X21.6058 Y26.8040
G01 X21.6140 Y26.8088
G01 X21.6213 Y26.8149
G01 X21.6274 Y26.8222
G01 X21.6322 Y26.8304
G01 X21.6355 Y26.8393
G01 X21.6371 Y26.8472
G01 X21.6375 Y26.8540
G01 X21.6375 Y29.5404
G01 X21.6478 Y29.6192
G01 X21.6483 Y29.6264
G01 X21.6483 Y30.8357
G01 X23.5293 Y30.8357
G01 X23.5388 Y30.8365
G01 X23.5440 Y30.8377
G01 X23.5492 Y30.8394
G01 X23.5577 Y30.8436
G01 X23.5622 Y30.8466
G01 X23.5664 Y30.8500
G01 X23.5703 Y30.8539
G01 X23.5737 Y30.8581
G01 X23.5767 Y30.8626
G01 X23.5799 Y30.8686
G01 X23.5818 Y30.8737
G01 X23.5835 Y30.8802
G01 X23.5843 Y30.8856
G01 X23.5846 Y30.8910
G01 X23.5846 Y32.5152
G01 X23.5842 Y32.5220
G01 X23.5826 Y32.5299
G01 X23.5799 Y32.5376
G01 X23.5760 Y32.5448
G01 X23.5720 Y32.5503
G01 X23.5684 Y32.5543
G01 X20.6303 Y35.4924
G01 X20.6253 Y35.4969
G01 X20.6174 Y35.5020
G01 X20.6087 Y35.5057
G01 X20.5996 Y35.5080
G01 X20.5902 Y35.5086
G01 X20.5835 Y35.5081
G01 X20.5782 Y35.5070
G01 X20.4970 Y35.4853
G01 X20.1430 Y35.4853
G01 X19.8009 Y35.5769
G01 X19.4944 Y35.7540
G01 X19.2440 Y36.0044
G01 X19.0669 Y36.3109
G01 X18.9753 Y36.6530
G01 X18.9753 Y37.0070
G01 X19.0669 Y37.3491
G01 X19.2440 Y37.6556
G01 X19.3774 Y37.7891
G01 X19.3817 Y37.7943
G01 X19.3847 Y37.7988
G01 X19.3879 Y37.8048
G01 X19.3898 Y37.8099
G01 X19.3918 Y37.8177
G01 X19.3926 Y37.8272
G01 X19.3918 Y37.8367
G01 X19.3898 Y37.8445
G01 X19.3353 Y37.9766
G01 X19.3328 Y37.9815
G01 X19.3299 Y37.9860
G01 X19.3266 Y37.9903
G01 X19.3228 Y37.9942
G01 X19.3187 Y37.9978
G01 X19.3131 Y38.0016
G01 X19.3083 Y38.0042
G01 X19.3033 Y38.0063
G01 X19.2942 Y38.0087
G01 X19.2847 Y38.0095
G01 X7.9960 Y38.0095
G01 X7.9906 Y38.0092
G01 X7.9839 Y38.0082
G01 X7.9761 Y38.0058
G01 X7.9687 Y38.0023
G01 X7.9631 Y37.9986
G01 X7.9569 Y37.9933
G01 X6.7563 Y36.7927
G01 X6.7503 Y36.7853
G01 X6.7457 Y36.7770
G01 X6.7427 Y36.7680
G01 X6.7412 Y36.7587
G01 X6.7413 Y36.7492
G01 X6.7430 Y36.7399
G01 X6.7463 Y36.7310
G01 X6.7511 Y36.7228
G01 X6.8346 Y36.6208
G01 X6.8402 Y36.6149
G01 X6.8444 Y36.6115
G01 X6.8500 Y36.6078
G01 X6.8561 Y36.6048
G01 X6.8612 Y36.6030
G01 X6.8678 Y36.6014
G01 X6.8732 Y36.6007
G01 X6.8800 Y36.6007
G01 X6.8854 Y36.6012
G01 X6.8907 Y36.6023
G01 X6.8959 Y36.6038
G01 X6.9009 Y36.6059
G01 X6.9069 Y36.6092
G01 X7.0627 Y36.7133
G01 X7.3256 Y36.8222
G01 X7.6047 Y36.8777
G01 X7.8893 Y36.8777
G01 X8.1684 Y36.8222
G01 X8.4313 Y36.7133
G01 X8.6679 Y36.5551
G01 X8.8691 Y36.3539
G01 X9.0273 Y36.1173
G01 X9.1362 Y35.8544
G01 X9.1917 Y35.5753
G01 X9.1920 Y35.5680
G01 X9.1930 Y35.5613
G01 X9.1949 Y35.5548
G01 X9.1976 Y35.5485
G01 X9.2010 Y35.5427
G01 X9.2043 Y35.5383
G01 X9.2079 Y35.5343
G01 X11.3605 Y33.3817
G01 X11.5382 Y33.1501
G01 X11.6485 Y32.8838
G01 X11.6866 Y32.5944
G01 X11.6867 Y29.0793
G01 X11.6877 Y29.0712
G01 X11.6898 Y29.0634
G01 X11.6931 Y29.0559
G01 X11.6967 Y29.0502
G01 X11.7018 Y29.0439
G01 X11.7079 Y29.0384
G01 X11.7146 Y29.0339
G01 X11.7220 Y29.0304
G01 X11.7311 Y29.0278
G01 X11.7405 Y29.0267
G01 X11.8267 Y29.0267
G01 X11.8267 Y25.8373
G01 X9.3373 Y25.8373
G01 X9.3373 Y29.0267
G01 X9.4235 Y29.0267
G01 X9.4329 Y29.0278
G01 X9.4420 Y29.0304
G01 X9.4494 Y29.0339
G01 X9.4561 Y29.0384
G01 X9.4622 Y29.0439
G01 X9.4673 Y29.0502
G01 X9.4715 Y29.0571
G01 X9.4746 Y29.0647
G01 X9.4766 Y29.0725
G01 X9.4773 Y29.0793
G01 X9.4774 Y32.1175
G01 X9.4770 Y32.1243
G01 X9.4754 Y32.1322
G01 X9.4732 Y32.1387
G01 X9.4695 Y32.1459
G01 X9.4657 Y32.1515
G01 X9.4612 Y32.1566
G01 X7.6457 Y33.9721
G01 X7.6417 Y33.9757
G01 X7.6373 Y33.9790
G01 X7.6315 Y33.9824
G01 X7.6252 Y33.9851
G01 X7.6187 Y33.9870
G01 X7.6120 Y33.9880
G01 X7.6048 Y33.9883
G01 X7.3256 Y34.0439
G01 X7.0627 Y34.1527
G01 X6.8261 Y34.3109
G01 X6.6249 Y34.5121
G01 X6.4667 Y34.7487
G01 X6.3578 Y35.0116
G01 X6.3023 Y35.2907
G01 X6.3023 Y35.5753
G01 X6.3578 Y35.8544
G01 X6.4667 Y36.1173
G01 X6.5708 Y36.2731
G01 X6.5741 Y36.2791
G01 X6.5766 Y36.2853
G01 X6.5783 Y36.2919
G01 X6.5792 Y36.2986
G01 X6.5794 Y36.3041
G01 X6.5790 Y36.3095
G01 X6.5777 Y36.3161
G01 X6.5762 Y36.3213
G01 X6.5741 Y36.3263
G01 X6.5708 Y36.3323
G01 X6.5677 Y36.3367
G01 X6.5642 Y36.3408
G01 X6.5592 Y36.3454
G01 X6.4583 Y36.4281
G01 X6.4515 Y36.4325
G01 X6.4440 Y36.4358
G01 X6.4362 Y36.4379
G01 X6.4295 Y36.4389
G01 X6.4227 Y36.4389
G01 X6.4146 Y36.4379
G01 X6.4068 Y36.4358
G01 X6.4005 Y36.4331
G01 X6.3936 Y36.4289
G01 X6.3863 Y36.4228
G01 X2.7477 Y32.7841
G01 X2.7441 Y32.7801
G01 X2.7408 Y32.7757
G01 X2.7362 Y32.7674
G01 X2.7332 Y32.7584
G01 X2.7321 Y32.7531
G01 X2.7316 Y32.7477
G01 X2.7315 Y17.1170
G01 X2.7321 Y17.1089
G01 X2.7343 Y17.0997
G01 X2.7380 Y17.0909
G01 X2.7432 Y17.0830
G01 X2.7487 Y17.0769
G01 X2.7561 Y17.0710
G01 X2.7644 Y17.0664
G01 X2.7721 Y17.0637
G01 X2.7787 Y17.0623
G01 X2.7854 Y17.0617
G01 X2.9237 Y17.0617
G01 X2.9237 Y16.9183
G01 X2.5790 Y16.9183
G01 X2.5736 Y16.9180
G01 X2.5669 Y16.9170
G01 X2.5591 Y16.9146
G01 X2.5517 Y16.9111
G01 X2.5450 Y16.9066
G01 X2.5389 Y16.9011
G01 X2.5346 Y16.8959
G01 X2.5302 Y16.8891
G01 X2.5269 Y16.8816
G01 X2.5245 Y16.8725
G01 X2.5237 Y16.8630
G01 X2.5237 Y15.7630
G01 X2.5240 Y15.7576
G01 X2.5257 Y15.7483
G01 X2.5290 Y15.7394
G01 X2.5330 Y15.7323
G01 X2.5389 Y15.7249
G01 X2.5461 Y15.7186
G01 X2.5541 Y15.7136
G01 X2.5629 Y15.7101
G01 X2.5722 Y15.7081
G01 X2.5790 Y15.7077
G01 X2.9237 Y15.7077
G01 X2.9237 Y15.5643
G01 X2.7868 Y15.5643
G01 X2.7800 Y15.5639
G01 X2.7734 Y15.5626
G01 X2.7656 Y15.5601
G01 X2.7584 Y15.5564
G01 X2.7517 Y15.5517
G01 X2.7467 Y15.5471
G01 X2.7416 Y15.5408
G01 X2.7374 Y15.5339
G01 X2.7343 Y15.5263
G01 X2.7323 Y15.5185
G01 X2.7315 Y15.5090
G01 X2.7316 Y14.8603
G01 X2.7323 Y14.8535
G01 X2.7343 Y14.8457
G01 X2.7368 Y14.8394
G01 X2.7408 Y14.8323
G01 X2.7449 Y14.8269
G01 X2.7507 Y14.8211
G01 X2.7572 Y14.8163
G01 X2.7644 Y14.8124
G01 X2.7695 Y14.8105
G01 X2.7747 Y14.8090
G01 X2.7800 Y14.8081
G01 X2.7854 Y14.8077
G01 X3.0440 Y14.8077
G01 X3.0508 Y14.8081
G01 X3.0574 Y14.8094
G01 X3.0639 Y14.8114
G01 X3.1758 Y14.8577
G01 X3.4326 Y14.8915
G01 X3.4414 Y14.8915
G01 X3.6981 Y14.8577
G01 X3.8100 Y14.8114
G01 X3.8178 Y14.8090
G01 X3.8258 Y14.8078
G01 X4.6237 Y14.8077
G01 X4.6237 Y13.0183
G01 X4.5524 Y13.0183
G01 X4.5443 Y13.0175
G01 X4.5365 Y13.0155
G01 X4.5302 Y13.0130
G01 X4.5242 Y13.0097
G01 X4.5187 Y13.0057
G01 X4.5147 Y13.0021
G01 X4.5102 Y12.9970
G01 X4.5064 Y12.9914
G01 X4.5032 Y12.9854
G01 X4.5009 Y12.9791
G01 X4.4991 Y12.9711
G01 X4.4985 Y12.9630
G01 X4.4986 Y12.6099
G01 X4.5002 Y12.6006
G01 X4.5032 Y12.5916
G01 X4.5078 Y12.5833
G01 X4.5137 Y12.5759
G01 X4.5209 Y12.5696
G01 X4.5289 Y12.5646
G01 X4.5377 Y12.5611
G01 X4.5470 Y12.5591
G01 X4.5538 Y12.5587
G01 X4.9277 Y12.5587
G01 X4.9277 Y10.6693
G01 X3.5872 Y10.6693
G01 X3.5800 Y10.6688
G01 X3.5199 Y10.6610
G01 X3.4570 Y10.6691
G01 X3.4273 Y10.6690
G01 X3.4206 Y10.6680
G01 X3.4141 Y10.6661
G01 X3.4078 Y10.6634
G01 X3.4020 Y10.6600
G01 X3.3966 Y10.6559
G01 X3.3917 Y10.6511
G01 X3.3875 Y10.6458
G01 X3.3846 Y10.6413
G01 X3.3816 Y10.6352
G01 X3.3325 Y10.5166
G01 X3.3308 Y10.5115
G01 X3.3294 Y10.5048
G01 X3.3288 Y10.4981
G01 X3.3289 Y10.4926
G01 X3.3296 Y10.4872
G01 X3.3308 Y10.4820
G01 X3.3341 Y10.4731
G01 X3.3389 Y10.4649
G01 X3.3450 Y10.4576
G01 X3.6287 Y10.1739
G01 X3.6339 Y10.1696
G01 X3.6407 Y10.1652
G01 X3.6482 Y10.1619
G01 X3.6560 Y10.1598
G01 X3.6614 Y10.1590
G01 X3.6668 Y10.1587
G01 X4.9292 Y10.1587
G00 Z2.0000
G00 X1.4862 Y10.3252
G01 F80.00
G01 Z-0.0301
G01 F120.00
G01 X2.7277 Y9.0836
G01 X2.7278 Y8.6099
G01 X2.7290 Y8.6019
G01 X2.7314 Y8.5941
G01 X2.7349 Y8.5867
G01 X2.7403 Y8.5789
G01 X2.7459 Y8.5730
G01 X2.7523 Y8.5680
G01 X2.7594 Y8.5640
G01 X2.7669 Y8.5611
G01 X2.7749 Y8.5593
G01 X2.7830 Y8.5587
G01 X4.5871 Y8.5588
G01 X4.5951 Y8.5600
G01 X4.6029 Y8.5624
G01 X4.6103 Y8.5659
G01 X4.6170 Y8.5704
G01 X4.6231 Y8.5759
G01 X4.6282 Y8.5822
G01 X4.6324 Y8.5891
G01 X4.6355 Y8.5967
G01 X4.6375 Y8.6045
G01 X4.6383 Y8.6126
G01 X4.6383 Y8.7079
G01 X6.8287 Y8.7079
G01 X6.8288 Y8.2339
G01 X6.8300 Y8.2259
G01 X6.8324 Y8.2181
G01 X6.8359 Y8.2107
G01 X6.8404 Y8.2040
G01 X6.8459 Y8.1979
G01 X6.8522 Y8.1928
G01 X6.8591 Y8.1886
G01 X6.8667 Y8.1855
G01 X6.8759 Y8.1833
G01 X6.8840 Y8.1827
G01 X8.4104 Y8.1827
G01 X8.4104 Y6.4770
G01 X8.4129 Y6.4253
G01 X8.4207 Y6.3713
G01 X8.4217 Y6.3660
G01 X8.4344 Y6.3157
G01 X8.4518 Y6.2669
G01 X8.4760 Y6.2151
G01 X8.5033 Y6.1695
G01 X8.5107 Y6.1593
G01 X8.5107 Y5.7770
G01 X8.5110 Y5.7716
G01 X8.5124 Y5.7636
G01 X8.5149 Y5.7558
G01 X8.5186 Y5.7486
G01 X8.5241 Y5.7409
G01 X8.5299 Y5.7351
G01 X8.5364 Y5.7303
G01 X8.5436 Y5.7264
G01 X8.5513 Y5.7237
G01 X8.5592 Y5.7221
G01 X8.5660 Y5.7217
G01 X9.3687 Y5.7218
G01 X9.3768 Y5.7228
G01 X9.3846 Y5.7249
G01 X9.3921 Y5.7282
G01 X9.3978 Y5.7318
G01 X9.4041 Y5.7369
G01 X9.4096 Y5.7430
G01 X9.4134 Y5.7486
G01 X9.4171 Y5.7558
G01 X9.4189 Y5.7609
G01 X9.4202 Y5.7662
G01 X9.4210 Y5.7716
G01 X9.4213 Y5.7770
G01 X9.4213 Y6.1593
G01 X9.4287 Y6.1695
G01 X9.4566 Y6.2163
G01 X9.4793 Y6.2644
G01 X9.4972 Y6.3144
G01 X9.5103 Y6.3660
G01 X9.5113 Y6.3713
G01 X9.5189 Y6.4225
G01 X9.5215 Y6.4743
G01 X9.5216 Y8.0017
G01 X9.5238 Y8.0001
G01 X9.8885 Y7.6912
G01 X10.0845 Y7.5018
G01 X15.8991 Y1.6872
G01 X15.9386 Y1.6516
G01 X15.9801 Y1.6206
G01 X16.0291 Y1.5910
G01 X16.0809 Y1.5668
G01 X16.1297 Y1.5494
G01 X16.1800 Y1.5367
G01 X16.2365 Y1.5281
G01 X16.2910 Y1.5254
G01 X22.6331 Y1.5254
G01 X22.6487 Y1.5182
G01 X22.6974 Y1.5008
G01 X22.7503 Y1.4874
G01 X22.8055 Y1.4791
G01 X22.8600 Y1.4764
G01 X37.2449 Y1.4764
G01 X37.3020 Y1.4795
G01 X37.3533 Y1.4871
G01 X37.4036 Y1.4996
G01 X37.4575 Y1.5187
G01 X37.5091 Y1.5434
G01 X37.5535 Y1.5701
G01 X37.5952 Y1.6009
G01 X37.6377 Y1.6392
G01 X52.1878 Y16.1893
G01 X52.2244 Y16.2297
G01 X52.2562 Y16.2723
G01 X52.2836 Y16.3179
G01 X52.2862 Y16.3226
G01 X52.3083 Y16.3695
G01 X52.3266 Y16.4208
G01 X52.3403 Y16.4764
G01 X52.3479 Y16.5276
G01 X52.3505 Y16.5807
G01 X52.3506 Y20.2907
G01 X52.8700 Y20.2907
G01 X52.8754 Y20.2910
G01 X52.8847 Y20.2927
G01 X52.8936 Y20.2960
G01 X52.9018 Y20.3008
G01 X52.9091 Y20.3069
G01 X52.9152 Y20.3142
G01 X52.9200 Y20.3224
G01 X52.9233 Y20.3313
G01 X52.9250 Y20.3406
G01 X52.9253 Y20.3460
G01 X52.9253 Y23.5960
G01 X52.9249 Y23.6028
G01 X52.9236 Y23.6094
G01 X52.9206 Y23.6184
G01 X52.9160 Y23.6267
G01 X52.9101 Y23.6341
G01 X52.9040 Y23.6396
G01 X52.8961 Y23.6448
G01 X52.8886 Y23.6481
G01 X52.8808 Y23.6502
G01 X52.8714 Y23.6513
G01 X50.7200 Y23.6513
G01 X50.7146 Y23.6510
G01 X50.7079 Y23.6500
G01 X50.7027 Y23.6485
G01 X50.6964 Y23.6460
G01 X50.6904 Y23.6427
G01 X50.6839 Y23.6379
G01 X50.6781 Y23.6321
G01 X50.6740 Y23.6267
G01 X50.6700 Y23.6196
G01 X50.6671 Y23.6121
G01 X50.6655 Y23.6055
G01 X50.6647 Y23.5974
G01 X50.6647 Y22.5266
G01 X43.0291 Y22.5266
G01 X42.4131 Y23.1425
G01 X42.3746 Y23.1772
G01 X42.3308 Y23.2097
G01 X42.2841 Y23.2378
G01 X42.2360 Y23.2605
G01 X42.1835 Y23.2794
G01 X42.1306 Y23.2927
G01 X42.0767 Y23.3007
G01 X42.0249 Y23.3033
G01 X41.2953 Y23.3034
G01 X41.2952 Y23.8897
G01 X41.2945 Y23.8965
G01 X41.2925 Y23.9043
G01 X41.2900 Y23.9106
G01 X41.2860 Y23.9177
G01 X41.2810 Y23.9241
G01 X41.2761 Y23.9289
G01 X41.2696 Y23.9337
G01 X41.2636 Y23.9370
G01 X41.2573 Y23.9395
G01 X41.2521 Y23.9410
G01 X41.2468 Y23.9419
G01 X41.2400 Y23.9423
G01 X40.0400 Y23.9423
G01 X40.0346 Y23.9420
G01 X40.0292 Y23.9412
G01 X40.0201 Y23.9386
G01 X40.0116 Y23.9344
G01 X40.0039 Y23.9289
G01 X39.9973 Y23.9221
G01 X39.9919 Y23.9143
G01 X39.9879 Y23.9056
G01 X39.9858 Y23.8978
G01 X39.9847 Y23.8884
G01 X39.9844 Y22.6403
G01 X39.0095 Y21.6653
G01 X38.9811 Y21.6340
G01 X38.9575 Y21.6023
G01 X38.9342 Y21.5638
G01 X38.9152 Y21.5231
G01 X38.9019 Y21.4859
G01 X38.8923 Y21.4475
G01 X38.8855 Y21.4031
G01 X38.8834 Y21.3609
G01 X38.8834 Y20.9034
G01 X38.2256 Y20.2457
G01 X38.1981 Y20.2155
G01 X38.1721 Y20.1805
G01 X38.1504 Y20.1443
G01 X38.1323 Y20.1061
G01 X38.1185 Y20.0676
G01 X38.1078 Y20.0253
G01 X38.1017 Y19.9849
G01 X38.0995 Y19.9427
G01 X38.0995 Y19.9123
G01 X37.7817 Y19.5945
G01 X36.6380 Y19.5943
G01 X36.6312 Y19.5939
G01 X36.6246 Y19.5926
G01 X36.6168 Y19.5901
G01 X36.6096 Y19.5864
G01 X36.6029 Y19.5817
G01 X36.5970 Y19.5761
G01 X36.5920 Y19.5697
G01 X36.5880 Y19.5626
G01 X36.5851 Y19.5551
G01 X36.5833 Y19.5471
G01 X36.5827 Y19.5390
G01 X36.5827 Y19.3070
G01 X34.8825 Y19.3070
G01 X34.3416 Y19.8478
G01 X34.3376 Y19.8514
G01 X34.3332 Y19.8547
G01 X34.3286 Y19.8575
G01 X34.3224 Y19.8603
G01 X34.3159 Y19.8623
G01 X34.3079 Y19.8637
G01 X34.2998 Y19.8639
G01 X34.2930 Y19.8632
G01 X34.2864 Y19.8616
G01 X34.2801 Y19.8593
G01 X34.2729 Y19.8554
G01 X34.2674 Y19.8514
G01 X34.2634 Y19.8478
G01 X34.0513 Y19.6357
G01 X34.0460 Y19.6295
G01 X34.0410 Y19.6215
G01 X34.0375 Y19.6127
G01 X34.0355 Y19.6034
G01 X34.0351 Y19.5980
G01 X34.0352 Y19.5925
G01 X34.0368 Y19.5832
G01 X34.0398 Y19.5742
G01 X34.0444 Y19.5659
G01 X34.0503 Y19.5585
G01 X34.7584 Y18.8504
G01 X34.7635 Y18.8459
G01 X34.7702 Y18.8414
G01 X34.7776 Y18.8379
G01 X34.7854 Y18.8355
G01 X34.7907 Y18.8346
G01 X34.7961 Y18.8342
G01 X34.8016 Y18.8343
G01 X34.8070 Y18.8350
G01 X34.8122 Y18.8362
G01 X34.8174 Y18.8379
G01 X34.8224 Y18.8401
G01 X34.8271 Y18.8428
G01 X34.8315 Y18.8459
G01 X34.8356 Y18.8494
G01 X34.8824 Y18.8962
G01 X36.5827 Y18.8962
G01 X36.5827 Y18.7390
G01 X36.5831 Y18.7322
G01 X36.5840 Y18.7269
G01 X36.5864 Y18.7191
G01 X36.5906 Y18.7106
G01 X36.5953 Y18.7039
G01 X36.6009 Y18.6980
G01 X36.6073 Y18.6930
G01 X36.6144 Y18.6890
G01 X36.6219 Y18.6861
G01 X36.6299 Y18.6843
G01 X36.6380 Y18.6837
G01 X38.0380 Y18.6837
G01 X38.0475 Y18.6845
G01 X38.0566 Y18.6869
G01 X38.0616 Y18.6890
G01 X38.0664 Y18.6916
G01 X38.0741 Y18.6971
G01 X38.0781 Y18.7009
G01 X38.0816 Y18.7050
G01 X38.0868 Y18.7129
G01 X38.0905 Y18.7217
G01 X38.0927 Y18.7309
G01 X38.0933 Y18.7376
G01 X38.0933 Y18.7550
G01 X38.1247 Y18.7663
G01 X38.1605 Y18.7831
G01 X38.1969 Y18.8046
G01 X38.2331 Y18.8312
G01 X38.2624 Y18.8577
G01 X38.8344 Y19.4296
G01 X38.8610 Y19.4588
G01 X38.8879 Y19.4948
G01 X38.9097 Y19.5311
G01 X38.9277 Y19.5693
G01 X38.9415 Y19.6077
G01 X38.9522 Y19.6500
G01 X38.9583 Y19.6905
G01 X38.9605 Y19.7326
G01 X38.9605 Y19.7630
G01 X39.6183 Y20.4207
G01 X39.6467 Y20.4520
G01 X39.6718 Y20.4859
G01 X39.6936 Y20.5222
G01 X39.7126 Y20.5629
G01 X39.7259 Y20.6001
G01 X39.7355 Y20.6384
G01 X39.7423 Y20.6829
G01 X39.7444 Y20.7251
G01 X39.7444 Y21.1826
G01 X40.5935 Y22.0317
G01 X41.2400 Y22.0317
G01 X41.2468 Y22.0321
G01 X41.2521 Y22.0330
G01 X41.2586 Y22.0349
G01 X41.2661 Y22.0382
G01 X41.2729 Y22.0426
G01 X41.2781 Y22.0469
G01 X41.2836 Y22.0530
G01 X41.2874 Y22.0586
G01 X41.2906 Y22.0646
G01 X41.2933 Y22.0723
G01 X41.2947 Y22.0789
G01 X41.2953 Y22.0856
G01 X41.2953 Y22.1922
G01 X41.7921 Y22.1922
G01 X42.4062 Y21.5782
G01 X42.4466 Y21.5416
G01 X42.4904 Y21.5091
G01 X42.5348 Y21.4824
G01 X42.5864 Y21.4577
G01 X42.6377 Y21.4394
G01 X42.6880 Y21.4267
G01 X42.6933 Y21.4257
G01 X42.7459 Y21.4180
G01 X42.7990 Y21.4154
G01 X50.6647 Y21.4154
G01 X50.6647 Y20.3460
G01 X50.6651 Y20.3392
G01 X50.6660 Y20.3339
G01 X50.6679 Y20.3274
G01 X50.6706 Y20.3211
G01 X50.6740 Y20.3153
G01 X50.6790 Y20.3089
G01 X50.6839 Y20.3041
G01 X50.6904 Y20.2993
G01 X50.6964 Y20.2960
G01 X50.7039 Y20.2931
G01 X50.7105 Y20.2915
G01 X50.7173 Y20.2908
G01 X51.2394 Y20.2907
G01 X51.2394 Y18.1161
G01 X50.3159 Y17.1926
G01 X46.4673 Y17.1926
G01 X46.4673 Y17.3370
G01 X46.4669 Y17.3438
G01 X46.4660 Y17.3491
G01 X46.4636 Y17.3569
G01 X46.4601 Y17.3643
G01 X46.4556 Y17.3710
G01 X46.4501 Y17.3771
G01 X46.4438 Y17.3822
G01 X46.4381 Y17.3858
G01 X46.4306 Y17.3891
G01 X46.4228 Y17.3912
G01 X46.4174 Y17.3920
G01 X46.4120 Y17.3923
G01 X45.6106 Y17.3923
G01 X45.6052 Y17.3919
G01 X45.5999 Y17.3910
G01 X45.5947 Y17.3895
G01 X45.5884 Y17.3870
G01 X45.5836 Y17.3844
G01 X45.5780 Y17.3806
G01 X45.5729 Y17.3761
G01 X45.5693 Y17.3721
G01 X45.5646 Y17.3654
G01 X45.5604 Y17.3569
G01 X45.5578 Y17.3478
G01 X45.5567 Y17.3384
G01 X45.5567 Y16.9547
G01 X45.5486 Y16.9434
G01 X45.5208 Y16.8965
G01 X45.4987 Y16.8496
G01 X45.4804 Y16.7983
G01 X45.4671 Y16.7454
G01 X45.4595 Y16.6941
G01 X45.4589 Y16.6887
G01 X45.4565 Y16.6356
G01 X45.4591 Y16.5825
G01 X45.4667 Y16.5313
G01 X45.4677 Y16.5260
G01 X45.4808 Y16.4744
G01 X45.4987 Y16.4244
G01 X45.5214 Y16.3763
G01 X45.5493 Y16.3295
G01 X45.5567 Y16.3193
G01 X45.5567 Y15.9370
G01 X45.5570 Y15.9316
G01 X45.5584 Y15.9236
G01 X45.5614 Y15.9146
G01 X45.5653 Y15.9074
G01 X45.5701 Y15.9009
G01 X45.5769 Y15.8943
G01 X45.5836 Y15.8896
G01 X45.5908 Y15.8859
G01 X45.5986 Y15.8834
G01 X45.6052 Y15.8821
G01 X45.6120 Y15.8817
G01 X46.4120 Y15.8817
G01 X46.4174 Y15.8820
G01 X46.4241 Y15.8830
G01 X46.4319 Y15.8854
G01 X46.4381 Y15.8882
G01 X46.4449 Y15.8926
G01 X46.4511 Y15.8979
G01 X46.4564 Y15.9041
G01 X46.4608 Y15.9109
G01 X46.4641 Y15.9184
G01 X46.4660 Y15.9249
G01 X46.4670 Y15.9316
G01 X46.4673 Y15.9370
G01 X46.4673 Y16.0814
G01 X50.5087 Y16.0814
G01 X37.0148 Y2.5876
G01 X23.9900 Y2.5876
G01 X24.1256 Y2.7242
G01 X26.7027 Y5.3013
G01 X26.7294 Y5.3308
G01 X26.7546 Y5.3650
G01 X26.7736 Y5.3969
G01 X26.7895 Y5.4304
G01 X26.8036 Y5.4690
G01 X26.8137 Y5.5089
G01 X26.8197 Y5.5510
G01 X26.8215 Y5.5880
G01 X26.8197 Y5.6250
G01 X26.8192 Y5.6304
G01 X26.8134 Y5.6684
G01 X26.8040 Y5.7057
G01 X26.7916 Y5.7406
G01 X26.7742 Y5.7779
G01 X26.7524 Y5.8144
G01 X26.7303 Y5.8442
G01 X26.7214 Y5.8542
G01 X26.7214 Y14.4749
G01 X26.7208 Y14.4893
G01 X28.6140 Y16.3826
G01 X28.9675 Y16.7362
G01 X28.9720 Y16.7413
G01 X28.9772 Y16.7492
G01 X28.9809 Y16.7580
G01 X28.9831 Y16.7672
G01 X28.9837 Y16.7767
G01 X28.9826 Y16.7861
G01 X28.9800 Y16.7952
G01 X28.9758 Y16.8037
G01 X28.9703 Y16.8114
G01 X28.7534 Y17.0284
G01 X28.7492 Y17.0318
G01 X28.7447 Y17.0348
G01 X28.7362 Y17.0390
G01 X28.7271 Y17.0416
G01 X28.7217 Y17.0424
G01 X28.7163 Y17.0427
G01 X28.7109 Y17.0424
G01 X28.7055 Y17.0416
G01 X28.7002 Y17.0403
G01 X28.6951 Y17.0385
G01 X28.6902 Y17.0362
G01 X28.6856 Y17.0334
G01 X28.6812 Y17.0301
G01 X28.6772 Y17.0265
G01 X26.4303 Y14.7797
G01 X26.4146 Y14.7803
G01 X26.3874 Y14.7790
G01 X26.3577 Y14.7747
G01 X26.3273 Y14.7672
G01 X26.3004 Y14.7576
G01 X26.2720 Y14.7443
G01 X26.2463 Y14.7289
G01 X26.2222 Y14.7110
G01 X26.2010 Y14.6918
G01 X26.1782 Y14.6665
G01 X26.1620 Y14.6446
G01 X26.1466 Y14.6189
G01 X26.1328 Y14.5892
G01 X26.1237 Y14.5636
G01 X26.1167 Y14.5358
G01 X26.1120 Y14.5048
G01 X26.1106 Y14.4749
G01 X26.1106 Y5.8560
G01 X23.5123 Y3.2577
G01 X22.9863 Y2.7335
G01 X22.8873 Y2.6366
G01 X16.5211 Y2.6366
G01 X10.8732 Y8.2845
G01 X10.5890 Y8.5904
G01 X12.7014 Y8.5904
G01 X12.7667 Y8.5937
G01 X12.8328 Y8.6035
G01 X12.8976 Y8.6197
G01 X12.9579 Y8.6412
G01 X12.9629 Y8.6433
G01 X13.0208 Y8.6708
G01 X13.0781 Y8.7051
G01 X13.1318 Y8.7449
G01 X13.1803 Y8.7888
G01 X15.0139 Y10.6224
G01 X19.3537 Y10.6224
G01 X19.3537 Y10.4030
G01 X19.3543 Y10.3949
G01 X19.3561 Y10.3869
G01 X19.3590 Y10.3794
G01 X19.3630 Y10.3723
G01 X19.3680 Y10.3659
G01 X19.3750 Y10.3594
G01 X19.3817 Y10.3549
G01 X19.3891 Y10.3514
G01 X19.3969 Y10.3490
G01 X19.4022 Y10.3481
G01 X19.4090 Y10.3477
G01 X20.6090 Y10.3477
G01 X20.6185 Y10.3485
G01 X20.6276 Y10.3509
G01 X20.6351 Y10.3542
G01 X20.6408 Y10.3578
G01 X20.6471 Y10.3629
G01 X20.6526 Y10.3690
G01 X20.6571 Y10.3757
G01 X20.6606 Y10.3831
G01 X20.6630 Y10.3909
G01 X20.6642 Y10.3989
G01 X20.6643 Y11.1211
G01 X20.6765 Y11.1702
G01 X20.6860 Y11.2336
G01 X20.6865 Y11.2390
G01 X20.6896 Y11.3030
G01 X20.6865 Y11.3670
G01 X20.6860 Y11.3724
G01 X20.6765 Y11.4358
G01 X20.6643 Y11.4849
G01 X20.6642 Y12.2057
G01 X20.6635 Y12.2125
G01 X20.6619 Y12.2191
G01 X20.6596 Y12.2254
G01 X20.6564 Y12.2314
G01 X20.6526 Y12.2370
G01 X20.6481 Y12.2421
G01 X20.6430 Y12.2466
G01 X20.6374 Y12.2504
G01 X20.6302 Y12.2541
G01 X20.6237 Y12.2563
G01 X20.6158 Y12.2579
G01 X20.6090 Y12.2583
G01 X19.4090 Y12.2583
G01 X19.4036 Y12.2580
G01 X19.3982 Y12.2572
G01 X19.3891 Y12.2546
G01 X19.3817 Y12.2511
G01 X19.3750 Y12.2466
G01 X19.3689 Y12.2411
G01 X19.3638 Y12.2348
G01 X19.3596 Y12.2279
G01 X19.3565 Y12.2203
G01 X19.3545 Y12.2125
G01 X19.3537 Y12.2030
G01 X19.3537 Y11.9836
G01 X14.7320 Y11.9836
G01 X14.6680 Y11.9805
G01 X14.6626 Y11.9800
G01 X14.5992 Y11.9705
G01 X14.5357 Y11.9547
G01 X14.4715 Y11.9318
G01 X14.4136 Y11.9045
G01 X14.4088 Y11.9019
G01 X14.3539 Y11.8689
G01 X14.3024 Y11.8308
G01 X14.2517 Y11.7852
G01 X12.4181 Y9.9516
G01 X10.1893 Y9.9516
G01 X10.1893 Y10.3880
G01 X10.1890 Y10.3934
G01 X10.1873 Y10.4027
G01 X10.1840 Y10.4116
G01 X10.1792 Y10.4198
G01 X10.1731 Y10.4271
G01 X10.1658 Y10.4332
G01 X10.1576 Y10.4380
G01 X10.1487 Y10.4413
G01 X10.1394 Y10.4430
G01 X10.1340 Y10.4433
G01 X6.8840 Y10.4433
G01 X6.8745 Y10.4425
G01 X6.8693 Y10.4413
G01 X6.8641 Y10.4396
G01 X6.8556 Y10.4354
G01 X6.8511 Y10.4324
G01 X6.8469 Y10.4290
G01 X6.8430 Y10.4251
G01 X6.8396 Y10.4209
G01 X6.8346 Y10.4129
G01 X6.8311 Y10.4041
G01 X6.8298 Y10.3988
G01 X6.8290 Y10.3934
G01 X6.8287 Y10.3880
G01 X6.8287 Y9.8191
G01 X4.6381 Y9.8191
G01 X4.6363 Y9.8287
G01 X4.6330 Y9.8376
G01 X4.6282 Y9.8458
G01 X4.6249 Y9.8501
G01 X4.6211 Y9.8541
G01 X4.6170 Y9.8576
G01 X4.6126 Y9.8607
G01 X4.6042 Y9.8651
G01 X4.5951 Y9.8680
G01 X4.5857 Y9.8692
G01 X3.5134 Y9.8693
G01 X2.4346 Y10.9481
G01 X2.4346 Y32.8909
G01 X7.8501 Y38.3064
G01 X30.7579 Y38.3064
G01 X31.3841 Y37.6802
G01 X31.3841 Y37.5756
G01 X31.3152 Y37.4995
G01 X31.2551 Y37.4185
G01 X31.2521 Y37.4140
G01 X31.2003 Y37.3275
G01 X31.1560 Y37.2338
G01 X31.1220 Y37.1389
G01 X31.1204 Y37.1337
G01 X31.0957 Y37.0345
G01 X31.0808 Y36.9334
G01 X31.0758 Y36.8327
G01 X31.0758 Y36.8273
G01 X31.0808 Y36.7266
G01 X31.0960 Y36.6241
G01 X31.1204 Y36.5263
G01 X31.1220 Y36.5211
G01 X31.1560 Y36.4262
G01 X31.2003 Y36.3325
G01 X31.2536 Y36.2437
G01 X31.3152 Y36.1605
G01 X31.3858 Y36.0828
G01 X31.4615 Y36.0142
G01 X31.5458 Y35.9518
G01 X31.6347 Y35.8987
G01 X31.7259 Y35.8556
G01 X31.7756 Y35.8376
G01 X31.7755 Y28.6032
G01 X30.9786 Y27.8063
G01 X30.6260 Y27.8063
G01 X30.6206 Y27.8060
G01 X30.6126 Y27.8046
G01 X30.6048 Y27.8021
G01 X30.5976 Y27.7984
G01 X30.5909 Y27.7937
G01 X30.5850 Y27.7881
G01 X30.5800 Y27.7817
G01 X30.5760 Y27.7746
G01 X30.5731 Y27.7671
G01 X30.5713 Y27.7591
G01 X30.5707 Y27.7510
G01 X30.5707 Y26.6247
G01 X30.5646 Y26.6072
G01 X30.5587 Y26.5829
G01 X30.5552 Y26.5594
G01 X30.5540 Y26.5344
G01 X30.5540 Y24.9462
G01 X30.3748 Y24.7669
G01 X30.3589 Y24.7493
G01 X30.3455 Y24.7314
G01 X30.3311 Y24.7077
G01 X30.3203 Y24.6850
G01 X30.3112 Y24.6588
G01 X30.3058 Y24.6371
G01 X30.3025 Y24.6150
G01 X30.3009 Y24.5887
G01 X30.3009 Y24.4368
G01 X30.3020 Y24.4131
G01 X30.3064 Y24.3843
G01 X30.3119 Y24.3627
G01 X30.3199 Y24.3401
G01 X30.1320 Y24.1521
G01 X30.1263 Y24.1446
G01 X30.1219 Y24.1362
G01 X30.1190 Y24.1271
G01 X30.1178 Y24.1177
G01 X30.1178 Y24.1123
G01 X30.1183 Y24.1069
G01 X30.1194 Y24.1016
G01 X30.1209 Y24.0964
G01 X30.1230 Y24.0914
G01 X30.1256 Y24.0866
G01 X30.1286 Y24.0821
G01 X30.1320 Y24.0779
G01 X30.3460 Y23.8638
G01 X30.3511 Y23.8593
G01 X30.3555 Y23.8562
G01 X30.3615 Y23.8529
G01 X30.3678 Y23.8504
G01 X30.3730 Y23.8489
G01 X30.3797 Y23.8479
G01 X30.3865 Y23.8476
G01 X30.3919 Y23.8480
G01 X30.4012 Y23.8500
G01 X30.4100 Y23.8535
G01 X30.4169 Y23.8577
G01 X30.4242 Y23.8638
G01 X31.1313 Y24.5709
G01 X31.1358 Y24.5760
G01 X31.1396 Y24.5816
G01 X31.1428 Y24.5876
G01 X31.1451 Y24.5939
G01 X31.1467 Y24.6005
G01 X31.1474 Y24.6059
G01 X31.1474 Y24.6127
G01 X31.1469 Y24.6181
G01 X31.1458 Y24.6234
G01 X31.1438 Y24.6299
G01 X31.1410 Y24.6361
G01 X31.1374 Y24.6418
G01 X31.1313 Y24.6491
G01 X31.0430 Y24.7374
G01 X31.0459 Y24.7439
G01 X31.0534 Y24.7650
G01 X31.0596 Y24.7892
G01 X31.0636 Y24.8154
G01 X31.0648 Y24.8390
G01 X31.0648 Y25.9572
G01 X31.0666 Y26.0269
G01 X31.0723 Y26.0910
G01 X31.0815 Y26.1463
G01 X31.0939 Y26.1924
G01 X31.1089 Y26.2290
G01 X31.1257 Y26.2566
G01 X31.1435 Y26.2757
G01 X31.1623 Y26.2882
G01 X31.1838 Y26.2957
G01 X31.4260 Y26.2957
G01 X31.4341 Y26.2963
G01 X31.4407 Y26.2977
G01 X31.4484 Y26.3004
G01 X31.4544 Y26.3036
G01 X31.4611 Y26.3083
G01 X31.4670 Y26.3139
G01 X31.4712 Y26.3192
G01 X31.4754 Y26.3261
G01 X31.4785 Y26.3337
G01 X31.4807 Y26.3429
G01 X31.4813 Y26.3510
G01 X31.4813 Y27.3036
G01 X32.3842 Y28.2066
G01 X32.4058 Y28.2305
G01 X32.4250 Y28.2563
G01 X32.4445 Y28.2884
G01 X32.4594 Y28.3200
G01 X32.4703 Y28.3502
G01 X32.4796 Y28.3867
G01 X32.4847 Y28.4212
G01 X32.4864 Y28.4560
G01 X32.4865 Y35.8376
G01 X32.5361 Y35.8556
G01 X32.6297 Y35.9000
G01 X32.7173 Y35.9526
G01 X32.8015 Y36.0151
G01 X32.8772 Y36.0838
G01 X32.9468 Y36.1605
G01 X33.0084 Y36.2437
G01 X33.0610 Y36.3313
G01 X33.1060 Y36.4262
G01 X33.1409 Y36.5237
G01 X33.1660 Y36.6241
G01 X33.1809 Y36.7239
G01 X33.1814 Y36.7293
G01 X33.1863 Y36.8300
G01 X33.1814 Y36.9307
G01 X33.1809 Y36.9361
G01 X33.1665 Y37.0332
G01 X33.1654 Y37.0385
G01 X33.1409 Y37.1363
G01 X33.1069 Y37.2313
G01 X33.1049 Y37.2363
G01 X33.0629 Y37.3250
G01 X33.0604 Y37.3298
G01 X33.0084 Y37.4163
G01 X32.9459 Y37.5005
G01 X32.8772 Y37.5762
G01 X32.8025 Y37.6440
G01 X32.7983 Y37.6474
G01 X32.7184 Y37.7067
G01 X32.6273 Y37.7613
G01 X32.5361 Y37.8044
G01 X32.4953 Y37.8192
G01 X32.4952 Y37.9117
G01 X32.4926 Y37.9648
G01 X32.4846 Y38.0187
G01 X32.4717 Y38.0703
G01 X32.4530 Y38.1229
G01 X32.4297 Y38.1722
G01 X32.4016 Y38.2189
G01 X32.3674 Y38.2648
G01 X32.3325 Y38.3031
G01 X31.3808 Y39.2548
G01 X31.3415 Y39.2906
G01 X31.2989 Y39.3224
G01 X31.2944 Y39.3254
G01 X31.2499 Y39.3520
G01 X31.2006 Y39.3753
G01 X31.1493 Y39.3936
G01 X31.0990 Y39.4063
G01 X31.0425 Y39.4149
G01 X30.9880 Y39.4176
G01 X7.6200 Y39.4176
G01 X7.5629 Y39.4145
G01 X7.5116 Y39.4069
G01 X7.4613 Y39.3944
G01 X7.4074 Y39.3753
G01 X7.3558 Y39.3506
G01 X7.3114 Y39.3239
G01 X7.2697 Y39.2931
G01 X7.2272 Y39.2548
G01 X1.4862 Y33.5138
G01 X1.4479 Y33.4713
G01 X1.4171 Y33.4296
G01 X1.3890 Y33.3829
G01 X1.3648 Y33.3311
G01 X1.3474 Y33.2823
G01 X1.3341 Y33.2294
G01 X1.3261 Y33.1755
G01 X1.3234 Y33.1210
G01 X1.3234 Y10.7180
G01 X1.3261 Y10.6635
G01 X1.3341 Y10.6096
G01 X1.3474 Y10.5567
G01 X1.3657 Y10.5054
G01 X1.3890 Y10.4561
G01 X1.4171 Y10.4094
G01 X1.4496 Y10.3656
G01 X1.4862 Y10.3252
G00 Z2.0000
G00 X2.5790 Y13.3077
G01 F80.00
G01 Z-0.0301
G01 F120.00
G01 X2.8393 Y13.3077
G01 X2.8393 Y12.2693
G01 X2.7789 Y12.2692
G01 X2.7696 Y12.2676
G01 X2.7644 Y12.2661
G01 X2.7594 Y12.2640
G01 X2.7523 Y12.2600
G01 X2.7469 Y12.2559
G01 X2.7411 Y12.2501
G01 X2.7370 Y12.2447
G01 X2.7336 Y12.2389
G01 X2.7305 Y12.2313
G01 X2.7285 Y12.2235
G01 X2.7278 Y12.2167
G01 X2.7277 Y11.0140
G01 X2.7285 Y11.0045
G01 X2.7297 Y10.9993
G01 X2.7314 Y10.9941
G01 X2.7356 Y10.9856
G01 X2.7411 Y10.9779
G01 X2.7449 Y10.9739
G01 X2.7490 Y10.9704
G01 X2.7534 Y10.9673
G01 X2.7594 Y10.9640
G01 X2.7644 Y10.9619
G01 X2.7709 Y10.9600
G01 X2.7762 Y10.9591
G01 X2.7830 Y10.9587
G01 X3.5122 Y10.9587
G01 X3.5199 Y10.9584
G01 X3.5276 Y10.9587
G01 X4.5830 Y10.9587
G01 X4.5925 Y10.9595
G01 X4.6016 Y10.9619
G01 X4.6103 Y10.9659
G01 X4.6148 Y10.9688
G01 X4.6191 Y10.9721
G01 X4.6231 Y10.9759
G01 X4.6274 Y10.9811
G01 X4.6304 Y10.9856
G01 X4.6330 Y10.9904
G01 X4.6351 Y10.9954
G01 X4.6366 Y11.0006
G01 X4.6377 Y11.0059
G01 X4.6383 Y11.0126
G01 X4.6383 Y12.2140
G01 X4.6375 Y12.2235
G01 X4.6355 Y12.2313
G01 X4.6324 Y12.2389
G01 X4.6282 Y12.2458
G01 X4.6240 Y12.2511
G01 X4.6181 Y12.2567
G01 X4.6114 Y12.2614
G01 X4.6042 Y12.2651
G01 X4.5964 Y12.2676
G01 X4.5884 Y12.2690
G01 X4.5830 Y12.2693
G01 X4.2005 Y12.2693
G01 X4.2005 Y13.3077
G01 X4.2817 Y13.3078
G01 X4.2911 Y13.3090
G01 X4.2989 Y13.3114
G01 X4.3051 Y13.3142
G01 X4.3119 Y13.3186
G01 X4.3181 Y13.3239
G01 X4.3234 Y13.3301
G01 X4.3278 Y13.3369
G01 X4.3311 Y13.3444
G01 X4.3332 Y13.3522
G01 X4.3342 Y13.3603
G01 X4.3343 Y14.4630
G01 X4.3335 Y14.4725
G01 X4.3311 Y14.4816
G01 X4.3290 Y14.4866
G01 X4.3264 Y14.4914
G01 X4.3209 Y14.4991
G01 X4.3171 Y14.5031
G01 X4.3130 Y14.5066
G01 X4.3074 Y14.5104
G01 X4.3026 Y14.5130
G01 X4.2976 Y14.5151
G01 X4.2924 Y14.5166
G01 X4.2871 Y14.5177
G01 X4.2804 Y14.5183
G01 X3.7553 Y14.5183
G01 X3.7055 Y14.5418
G01 X3.6456 Y14.5633
G01 X3.6400 Y14.5650
G01 X3.5809 Y14.5798
G01 X3.5751 Y14.5810
G01 X3.5121 Y14.5903
G01 X3.4454 Y14.5936
G01 X3.4263 Y14.5935
G01 X3.3623 Y14.5903
G01 X3.2949 Y14.5803
G01 X3.2289 Y14.5635
G01 X3.1685 Y14.5418
G01 X3.1187 Y14.5183
G01 X2.5776 Y14.5183
G01 X2.5695 Y14.5175
G01 X2.5617 Y14.5155
G01 X2.5541 Y14.5124
G01 X2.5483 Y14.5090
G01 X2.5429 Y14.5049
G01 X2.5380 Y14.5001
G01 X2.5338 Y14.4948
G01 X2.5302 Y14.4891
G01 X2.5274 Y14.4829
G01 X2.5254 Y14.4764
G01 X2.5241 Y14.4698
G01 X2.5237 Y14.4644
G01 X2.5237 Y13.3616
G01 X2.5241 Y13.3562
G01 X2.5250 Y13.3509
G01 X2.5265 Y13.3457
G01 X2.5284 Y13.3406
G01 X2.5309 Y13.3357
G01 X2.5338 Y13.3312
G01 X2.5371 Y13.3269
G01 X2.5409 Y13.3229
G01 X2.5483 Y13.3170
G01 X2.5529 Y13.3142
G01 X2.5578 Y13.3119
G01 X2.5629 Y13.3101
G01 X2.5682 Y13.3088
G01 X2.5736 Y13.3080
G01 X2.5790 Y13.3077
G00 Z2.0000
G00 X4.4777 Y15.8077
G01 F80.00
G01 Z-0.0301
G01 F120.00
G01 X4.3343 Y15.8077
G01 X4.3342 Y15.7589
G01 X4.3335 Y15.7535
G01 X4.3323 Y15.7483
G01 X4.3290 Y15.7394
G01 X4.3257 Y15.7334
G01 X4.3217 Y15.7279
G01 X4.3171 Y15.7229
G01 X4.3119 Y15.7186
G01 X4.3063 Y15.7149
G01 X4.3002 Y15.7119
G01 X4.2937 Y15.7097
G01 X4.2885 Y15.7085
G01 X4.2790 Y15.7077
G01 X3.9343 Y15.7077
G01 X3.9343 Y15.5643
G01 X4.4777 Y15.5643
G01 X4.4777 Y15.8077
G00 Z2.0000
G00 X4.4777 Y17.0617
G01 F80.00
G01 Z-0.0301
G01 F120.00
G01 X3.9343 Y17.0617
G01 X3.9343 Y16.9183
G01 X4.2790 Y16.9183
G01 X4.2885 Y16.9175
G01 X4.2951 Y16.9159
G01 X4.3014 Y16.9136
G01 X4.3074 Y16.9104
G01 X4.3130 Y16.9066
G01 X4.3181 Y16.9021
G01 X4.3226 Y16.8970
G01 X4.3257 Y16.8926
G01 X4.3290 Y16.8866
G01 X4.3323 Y16.8777
G01 X4.3335 Y16.8725
G01 X4.3342 Y16.8671
G01 X4.3343 Y16.8183
G01 X4.4777 Y16.8183
G01 X4.4777 Y17.0617
G00 Z2.0000
G00 X4.1177 Y18.9257
G01 F80.00
G01 Z-0.0301
G01 F120.00
G01 X4.0243 Y18.9257
G01 X4.0243 Y18.5323
G01 X4.1177 Y18.5323
G01 X4.1177 Y18.9257
G00 Z2.0000
G00 X4.1177 Y20.3297
G01 F80.00
G01 Z-0.0301
G01 F120.00
G01 X4.0243 Y20.3297
G01 X4.0243 Y19.9363
G01 X4.1177 Y19.9363
G01 X4.1177 Y20.3297
G00 Z2.0000
G00 X7.7967 Y21.8550
G01 F80.00
G01 Z-0.0301
G01 F120.00
G01 X7.7968 Y20.0509
G01 X7.7980 Y20.0429
G01 X7.8004 Y20.0351
G01 X7.8039 Y20.0277
G01 X7.8084 Y20.0210
G01 X7.8139 Y20.0149
G01 X7.8202 Y20.0098
G01 X7.8271 Y20.0056
G01 X7.8347 Y20.0025
G01 X7.8425 Y20.0005
G01 X7.8506 Y19.9997
G01 X7.9534 Y19.9997
G01 X7.9534 Y15.1130
G01 X7.9561 Y15.0585
G01 X7.9637 Y15.0073
G01 X7.9766 Y14.9543
G01 X7.9787 Y14.9478
G01 X7.9788 Y14.0339
G01 X7.9804 Y14.0246
G01 X7.9834 Y14.0156
G01 X7.9880 Y14.0073
G01 X7.9939 Y13.9999
G01 X8.0011 Y13.9936
G01 X8.0091 Y13.9886
G01 X8.0179 Y13.9851
G01 X8.0272 Y13.9831
G01 X8.0340 Y13.9827
G01 X8.9867 Y13.9828
G01 X8.9961 Y13.9840
G01 X9.0052 Y13.9869
G01 X9.0136 Y13.9913
G01 X9.0211 Y13.9970
G01 X9.0276 Y14.0040
G01 X9.0328 Y14.0119
G01 X9.0365 Y14.0207
G01 X9.0387 Y14.0299
G01 X9.0393 Y14.0380
G01 X9.0393 Y14.9478
G01 X9.0414 Y14.9543
G01 X9.0543 Y15.0073
G01 X9.0619 Y15.0585
G01 X9.0646 Y15.1130
G01 X9.0646 Y20.0011
G01 X9.0732 Y20.0039
G01 X9.0816 Y20.0083
G01 X9.0891 Y20.0140
G01 X9.0947 Y20.0199
G01 X9.1001 Y20.0277
G01 X9.1036 Y20.0351
G01 X9.1062 Y20.0442
G01 X9.1073 Y20.0536
G01 X9.1073 Y21.8550
G01 X9.1069 Y21.8618
G01 X9.1053 Y21.8697
G01 X9.1026 Y21.8774
G01 X9.0994 Y21.8834
G01 X9.0956 Y21.8890
G01 X9.0911 Y21.8941
G01 X9.0849 Y21.8994
G01 X9.0793 Y21.9031
G01 X9.0744 Y21.9056
G01 X9.0693 Y21.9075
G01 X9.0628 Y21.9092
G01 X9.0574 Y21.9100
G01 X9.0076 Y21.9103
G01 X9.0076 Y22.6791
G01 X9.2679 Y22.9394
G01 X13.4859 Y22.9394
G01 X14.8092 Y21.6162
G01 X14.8475 Y21.5813
G01 X14.8517 Y21.5779
G01 X14.8956 Y21.5456
G01 X14.9401 Y21.5190
G01 X14.9894 Y21.4957
G01 X15.0407 Y21.4774
G01 X15.0910 Y21.4647
G01 X15.1475 Y21.4561
G01 X15.2020 Y21.4534
G01 X23.9988 Y21.4534
G01 X24.0533 Y21.4561
G01 X24.1045 Y21.4637
G01 X24.1109 Y21.4650
G01 X25.1463 Y20.4295
G01 X25.1675 Y20.4103
G01 X25.1949 Y20.3901
G01 X25.2183 Y20.3761
G01 X25.2454 Y20.3633
G01 X25.2763 Y20.3525
G01 X25.3027 Y20.3459
G01 X25.3310 Y20.3417
G01 X25.3650 Y20.3401
G01 X25.3922 Y20.3415
G01 X25.4206 Y20.3457
G01 X25.4523 Y20.3536
G01 X25.4779 Y20.3628
G01 X25.4904 Y20.3685
G01 X25.6584 Y20.2004
G01 X25.6639 Y20.1792
G01 X25.6699 Y20.1628
G01 X25.6772 Y20.1471
G01 X25.6888 Y20.1273
G01 X25.7008 Y20.1111
G01 X25.7143 Y20.0962
G01 X25.8629 Y19.9476
G01 X25.8629 Y19.8692
G01 X25.1417 Y19.1478
G01 X25.1356 Y19.1405
G01 X25.1308 Y19.1323
G01 X25.1283 Y19.1260
G01 X25.1263 Y19.1182
G01 X25.1255 Y19.1101
G01 X25.1259 Y19.1019
G01 X25.1275 Y19.0940
G01 X25.1302 Y19.0863
G01 X25.1341 Y19.0791
G01 X25.1381 Y19.0736
G01 X25.1417 Y19.0696
G01 X25.3538 Y18.8575
G01 X25.3589 Y18.8530
G01 X25.3668 Y18.8478
G01 X25.3717 Y18.8455
G01 X25.3768 Y18.8437
G01 X25.3861 Y18.8417
G01 X25.3915 Y18.8413
G01 X25.3970 Y18.8414
G01 X25.4063 Y18.8430
G01 X25.4153 Y18.8460
G01 X25.4202 Y18.8485
G01 X25.4247 Y18.8514
G01 X25.4320 Y18.8575
G01 X26.2154 Y19.6408
G01 X26.2271 Y19.6538
G01 X26.2391 Y19.6700
G01 X26.2494 Y19.6873
G01 X26.2569 Y19.7030
G01 X26.2590 Y19.7080
G01 X26.2656 Y19.7271
G01 X26.2697 Y19.7440
G01 X26.2725 Y19.7626
G01 X26.2737 Y19.7841
G01 X26.2737 Y20.0340
G01 X26.2727 Y20.0527
G01 X26.2702 Y20.0699
G01 X26.2652 Y20.0909
G01 X26.2581 Y20.1112
G01 X26.2494 Y20.1294
G01 X26.2391 Y20.1467
G01 X26.2271 Y20.1629
G01 X26.2136 Y20.1778
G01 X26.1228 Y20.2686
G01 X26.1253 Y20.2762
G01 X26.1266 Y20.2828
G01 X26.1270 Y20.2896
G01 X26.1266 Y20.2964
G01 X26.1253 Y20.3030
G01 X26.1233 Y20.3095
G01 X26.1205 Y20.3157
G01 X26.1161 Y20.3225
G01 X26.1108 Y20.3287
G01 X26.0048 Y20.4348
G01 X24.5428 Y21.8969
G01 X24.5441 Y21.9033
G01 X24.5519 Y21.9573
G01 X24.5544 Y22.0090
G01 X24.5513 Y22.0661
G01 X24.5437 Y22.1174
G01 X24.5304 Y22.1703
G01 X24.5121 Y22.2216
G01 X24.4874 Y22.2732
G01 X24.4607 Y22.3176
G01 X24.4282 Y22.3614
G01 X24.3916 Y22.4018
G01 X24.3512 Y22.4384
G01 X24.3074 Y22.4709
G01 X24.2607 Y22.4990
G01 X24.2114 Y22.5223
G01 X24.1614 Y22.5402
G01 X24.1098 Y22.5533
G01 X24.1045 Y22.5543
G01 X24.0533 Y22.5619
G01 X23.9988 Y22.5646
G01 X15.4321 Y22.5646
G01 X14.1088 Y23.8878
G01 X14.0705 Y23.9227
G01 X14.0663 Y23.9261
G01 X14.0224 Y23.9584
G01 X13.9779 Y23.9850
G01 X13.9286 Y24.0083
G01 X13.8747 Y24.0274
G01 X13.8244 Y24.0399
G01 X13.7718 Y24.0477
G01 X13.7160 Y24.0506
G01 X9.0378 Y24.0506
G01 X8.9833 Y24.0479
G01 X8.9294 Y24.0399
G01 X8.8765 Y24.0266
G01 X8.8277 Y24.0092
G01 X8.7759 Y23.9850
G01 X8.7292 Y23.9569
G01 X8.6854 Y23.9244
G01 X8.6459 Y23.8888
G01 X8.0582 Y23.3011
G01 X8.0226 Y23.2616
G01 X7.9916 Y23.2201
G01 X7.9634 Y23.1734
G01 X7.9608 Y23.1687
G01 X7.9387 Y23.1218
G01 X7.9204 Y23.0705
G01 X7.9071 Y23.0176
G01 X7.8989 Y22.9609
G01 X7.8964 Y22.9092
G01 X7.8964 Y21.9103
G01 X7.8466 Y21.9100
G01 X7.8412 Y21.9092
G01 X7.8359 Y21.9079
G01 X7.8296 Y21.9056
G01 X7.8247 Y21.9031
G01 X7.8180 Y21.8986
G01 X7.8129 Y21.8941
G01 X7.8084 Y21.8890
G01 X7.8046 Y21.8834
G01 X7.8009 Y21.8762
G01 X7.7987 Y21.8697
G01 X7.7971 Y21.8618
G01 X7.7967 Y21.8550
G00 Z2.0000
G00 X10.0827 Y18.9340
G01 F80.00
G01 Z-0.0301
G01 F120.00
G01 X10.0828 Y17.1313
G01 X10.0835 Y17.1245
G01 X10.0851 Y17.1179
G01 X10.0874 Y17.1116
G01 X10.0913 Y17.1044
G01 X10.0961 Y17.0979
G01 X10.1009 Y17.0930
G01 X10.1062 Y17.0888
G01 X10.1119 Y17.0852
G01 X10.1168 Y17.0829
G01 X10.1219 Y17.0811
G01 X10.1272 Y17.0798
G01 X10.1326 Y17.0790
G01 X10.1824 Y17.0787
G01 X10.1825 Y15.7326
G01 X10.1855 Y15.6769
G01 X10.1931 Y15.6256
G01 X10.2056 Y15.5753
G01 X10.2247 Y15.5214
G01 X10.2474 Y15.4733
G01 X10.2534 Y15.4630
G01 X10.2535 Y15.1103
G01 X10.2561 Y15.0585
G01 X10.2637 Y15.0073
G01 X10.2766 Y14.9543
G01 X10.2787 Y14.9478
G01 X10.2787 Y14.0380
G01 X10.2791 Y14.0312
G01 X10.2804 Y14.0246
G01 X10.2829 Y14.0168
G01 X10.2873 Y14.0084
G01 X10.2930 Y14.0009
G01 X10.2989 Y13.9953
G01 X10.3067 Y13.9899
G01 X10.3141 Y13.9864
G01 X10.3219 Y13.9840
G01 X10.3313 Y13.9828
G01 X11.2840 Y13.9827
G01 X11.2908 Y13.9831
G01 X11.2974 Y13.9844
G01 X11.3064 Y13.9874
G01 X11.3136 Y13.9913
G01 X11.3201 Y13.9961
G01 X11.3267 Y14.0029
G01 X11.3314 Y14.0096
G01 X11.3356 Y14.0181
G01 X11.3380 Y14.0259
G01 X11.3392 Y14.0353
G01 X11.3393 Y14.9478
G01 X11.3414 Y14.9543
G01 X11.3543 Y15.0073
G01 X11.3619 Y15.0585
G01 X11.3645 Y15.1116
G01 X11.3646 Y15.6630
G01 X11.3619 Y15.7175
G01 X11.3543 Y15.7687
G01 X11.3414 Y15.8217
G01 X11.3393 Y15.8282
G01 X11.3393 Y16.1880
G01 X11.3389 Y16.1948
G01 X11.3369 Y16.2041
G01 X11.3340 Y16.2116
G01 X11.3300 Y16.2187
G01 X11.3241 Y16.2261
G01 X11.3180 Y16.2316
G01 X11.3101 Y16.2368
G01 X11.3026 Y16.2401
G01 X11.2936 Y16.2425
G01 X11.2936 Y17.0787
G01 X11.3421 Y17.0788
G01 X11.3475 Y17.0795
G01 X11.3527 Y17.0807
G01 X11.3579 Y17.0824
G01 X11.3629 Y17.0846
G01 X11.3687 Y17.0880
G01 X11.3741 Y17.0921
G01 X11.3799 Y17.0979
G01 X11.3840 Y17.1033
G01 X11.3880 Y17.1104
G01 X11.3905 Y17.1167
G01 X11.3922 Y17.1232
G01 X11.3932 Y17.1299
G01 X11.3933 Y18.3251
G01 X11.3971 Y18.3410
G01 X11.4047 Y18.3922
G01 X11.4076 Y18.4480
G01 X11.4076 Y19.9997
G01 X11.4574 Y20.0000
G01 X11.4628 Y20.0008
G01 X11.4681 Y20.0021
G01 X11.4732 Y20.0039
G01 X11.4781 Y20.0062
G01 X11.4838 Y20.0098
G01 X11.4891 Y20.0140
G01 X11.4947 Y20.0199
G01 X11.4987 Y20.0254
G01 X11.5020 Y20.0314
G01 X11.5045 Y20.0377
G01 X11.5062 Y20.0442
G01 X11.5072 Y20.0523
G01 X11.5073 Y21.8564
G01 X11.5067 Y21.8631
G01 X11.5049 Y21.8711
G01 X11.5020 Y21.8786
G01 X11.4980 Y21.8857
G01 X11.4930 Y21.8921
G01 X11.4881 Y21.8969
G01 X11.4816 Y21.9017
G01 X11.4756 Y21.9050
G01 X11.4706 Y21.9071
G01 X11.4641 Y21.9090
G01 X11.4588 Y21.9099
G01 X11.4520 Y21.9103
G01 X10.2506 Y21.9103
G01 X10.2425 Y21.9095
G01 X10.2347 Y21.9075
G01 X10.2284 Y21.9050
G01 X10.2213 Y21.9010
G01 X10.2159 Y21.8969
G01 X10.2101 Y21.8911
G01 X10.2053 Y21.8846
G01 X10.2020 Y21.8786
G01 X10.1999 Y21.8736
G01 X10.1980 Y21.8671
G01 X10.1970 Y21.8604
G01 X10.1967 Y21.8550
G01 X10.1967 Y20.0536
G01 X10.1973 Y20.0469
G01 X10.1991 Y20.0389
G01 X10.2014 Y20.0326
G01 X10.2046 Y20.0266
G01 X10.2084 Y20.0210
G01 X10.2139 Y20.0149
G01 X10.2191 Y20.0106
G01 X10.2259 Y20.0062
G01 X10.2308 Y20.0039
G01 X10.2359 Y20.0021
G01 X10.2412 Y20.0008
G01 X10.2466 Y20.0000
G01 X10.2964 Y19.9997
G01 X10.2964 Y18.9893
G01 X10.1380 Y18.9893
G01 X10.1312 Y18.9889
G01 X10.1246 Y18.9876
G01 X10.1156 Y18.9846
G01 X10.1073 Y18.9800
G01 X10.1009 Y18.9750
G01 X10.0944 Y18.9680
G01 X10.0892 Y18.9601
G01 X10.0855 Y18.9513
G01 X10.0835 Y18.9435
G01 X10.0827 Y18.9340
G00 Z2.0000
G00 X12.4827 Y17.8517
G01 F80.00
G01 Z-0.0301
G01 F120.00
G01 X12.3393 Y17.8517
G01 X12.3393 Y16.9353
G01 X12.9557 Y16.9353
G01 X12.9557 Y17.0787
G01 X12.5339 Y17.0788
G01 X12.5272 Y17.0798
G01 X12.5194 Y17.0819
G01 X12.5131 Y17.0846
G01 X12.5073 Y17.0880
G01 X12.5019 Y17.0921
G01 X12.4961 Y17.0979
G01 X12.4920 Y17.1033
G01 X12.4886 Y17.1091
G01 X12.4859 Y17.1154
G01 X12.4844 Y17.1206
G01 X12.4831 Y17.1272
G01 X12.4827 Y17.1340
G01 X12.4827 Y17.8517
G00 Z2.0000
G00 X12.9557 Y19.1327
G01 F80.00
G01 Z-0.0301
G01 F120.00
G01 X12.3393 Y19.1327
G01 X12.3393 Y18.2163
G01 X12.4827 Y18.2163
G01 X12.4827 Y18.9354
G01 X12.4835 Y18.9435
G01 X12.4855 Y18.9513
G01 X12.4880 Y18.9576
G01 X12.4920 Y18.9647
G01 X12.4961 Y18.9701
G01 X12.5009 Y18.9750
G01 X12.5062 Y18.9792
G01 X12.5107 Y18.9821
G01 X12.5168 Y18.9851
G01 X12.5233 Y18.9873
G01 X12.5299 Y18.9887
G01 X12.5353 Y18.9892
G01 X12.9557 Y18.9893
G01 X12.9557 Y19.1327
G00 Z2.0000
G00 X13.9367 Y19.1327
G01 F80.00
G01 Z-0.0301
G01 F120.00
G01 X13.3203 Y19.1327
G01 X13.3203 Y18.9893
G01 X13.7421 Y18.9892
G01 X13.7488 Y18.9882
G01 X13.7566 Y18.9861
G01 X13.7629 Y18.9834
G01 X13.7687 Y18.9800
G01 X13.7741 Y18.9759
G01 X13.7799 Y18.9701
G01 X13.7840 Y18.9647
G01 X13.7874 Y18.9589
G01 X13.7901 Y18.9526
G01 X13.7916 Y18.9474
G01 X13.7929 Y18.9408
G01 X13.7933 Y18.9340
G01 X13.7933 Y18.2163
G01 X13.9367 Y18.2163
G01 X13.9367 Y19.1327
G00 Z2.0000
G00 X13.9367 Y17.8517
G01 F80.00
G01 Z-0.0301
G01 F120.00
G01 X13.7933 Y17.8517
G01 X13.7933 Y17.1326
G01 X13.7925 Y17.1245
G01 X13.7905 Y17.1167
G01 X13.7880 Y17.1104
G01 X13.7840 Y17.1033
G01 X13.7799 Y17.0979
G01 X13.7751 Y17.0930
G01 X13.7698 Y17.0888
G01 X13.7653 Y17.0859
G01 X13.7592 Y17.0829
G01 X13.7527 Y17.0807
G01 X13.7461 Y17.0793
G01 X13.7407 Y17.0788
G01 X13.3203 Y17.0787
G01 X13.3203 Y16.9353
G01 X13.9367 Y16.9353
G01 X13.9367 Y17.8517
G00 Z2.0000
G00 X15.4967 Y17.4087
G01 F80.00
G01 Z-0.0301
G01 F120.00
G01 X15.4033 Y17.4087
G01 X15.4033 Y17.0153
G01 X15.4967 Y17.0153
G01 X15.4967 Y17.4087
G00 Z2.0000
G00 X15.4967 Y16.0047
G01 F80.00
G01 Z-0.0301
G01 F120.00
G01 X15.4033 Y16.0047
G01 X15.4033 Y15.6113
G01 X15.4967 Y15.6113
G01 X15.4967 Y16.0047
G00 Z2.0000
G00 X15.4587 Y14.8687
G01 F80.00
G01 Z-0.0301
G01 F120.00
G01 X15.3653 Y14.8687
G01 X15.3653 Y14.4753
G01 X15.4587 Y14.4753
G01 X15.4587 Y14.8687
G00 Z2.0000
G00 X16.5627 Y14.8687
G01 F80.00
G01 Z-0.0301
G01 F120.00
G01 X16.4693 Y14.8687
G01 X16.4693 Y14.4753
G01 X16.5627 Y14.4753
G01 X16.5627 Y14.8687
G00 Z2.0000
G00 X17.2020 Y15.7547
G01 F80.00
G01 Z-0.0301
G01 F120.00
G01 X18.0020 Y15.7547
G01 X18.0115 Y15.7555
G01 X18.0181 Y15.7571
G01 X18.0256 Y15.7600
G01 X18.0316 Y15.7633
G01 X18.0381 Y15.7681
G01 X18.0430 Y15.7729
G01 X18.0480 Y15.7793
G01 X18.0520 Y15.7864
G01 X18.0549 Y15.7939
G01 X18.0565 Y15.8005
G01 X18.0573 Y15.8086
G01 X18.0573 Y15.9114
G01 X20.5180 Y15.9117
G01 X20.5248 Y15.9121
G01 X20.5314 Y15.9134
G01 X20.5392 Y15.9159
G01 X20.5464 Y15.9196
G01 X20.5531 Y15.9243
G01 X20.5581 Y15.9289
G01 X20.5632 Y15.9352
G01 X20.5674 Y15.9421
G01 X20.5705 Y15.9497
G01 X20.5725 Y15.9575
G01 X20.5733 Y15.9670
G01 X20.5733 Y16.2374
G01 X20.5818 Y16.2557
G01 X20.6000 Y16.3070
G01 X20.6129 Y16.3586
G01 X20.6209 Y16.4125
G01 X20.6236 Y16.4670
G01 X20.6236 Y16.8371
G01 X21.0109 Y17.2244
G01 X23.2410 Y17.2244
G01 X23.2941 Y17.2270
G01 X23.3494 Y17.2351
G01 X23.4023 Y17.2484
G01 X23.4536 Y17.2667
G01 X23.5017 Y17.2894
G01 X23.5496 Y17.3181
G01 X23.5924 Y17.3497
G01 X23.6329 Y17.3862
G01 X23.6433 Y17.3975
G01 X24.9041 Y16.1366
G01 X24.9227 Y16.1198
G01 X24.9451 Y16.1034
G01 X24.9643 Y16.0920
G01 X24.9845 Y16.0823
G01 X25.0106 Y16.0728
G01 X25.0375 Y16.0662
G01 X25.0597 Y16.0630
G01 X25.0833 Y16.0618
G01 X25.2262 Y16.0618
G01 X25.2512 Y16.0630
G01 X25.2774 Y16.0670
G01 X25.3003 Y16.0728
G01 X25.3252 Y16.0818
G01 X25.3478 Y16.0926
G01 X25.3670 Y16.1041
G01 X25.3782 Y16.1123
G01 X25.3891 Y16.1130
G01 X25.4063 Y16.1155
G01 X25.4259 Y16.1203
G01 X25.4462 Y16.1275
G01 X25.4632 Y16.1355
G01 X25.4817 Y16.1464
G01 X25.4979 Y16.1584
G01 X25.5118 Y16.1710
G01 X25.5448 Y16.2039
G01 X25.5605 Y16.2063
G01 X25.5800 Y16.2112
G01 X25.5990 Y16.2180
G01 X25.6148 Y16.2254
G01 X25.6196 Y16.2279
G01 X25.6367 Y16.2385
G01 X25.6507 Y16.2489
G01 X25.6647 Y16.2615
G01 X27.5533 Y18.1504
G01 X27.5578 Y18.1555
G01 X27.5616 Y18.1611
G01 X27.5653 Y18.1683
G01 X27.5675 Y18.1748
G01 X27.5689 Y18.1814
G01 X27.5695 Y18.1881
G01 X27.5692 Y18.1949
G01 X27.5682 Y18.2016
G01 X27.5663 Y18.2081
G01 X27.5630 Y18.2156
G01 X27.5594 Y18.2213
G01 X27.5543 Y18.2276
G01 X27.3412 Y18.4407
G01 X27.3372 Y18.4443
G01 X27.3294 Y18.4497
G01 X27.3207 Y18.4537
G01 X27.3129 Y18.4558
G01 X27.3035 Y18.4569
G01 X27.2953 Y18.4565
G01 X27.2860 Y18.4545
G01 X27.2772 Y18.4510
G01 X27.2692 Y18.4460
G01 X27.2630 Y18.4407
G01 X25.4336 Y16.6115
G01 X25.4180 Y16.6091
G01 X25.3998 Y16.6046
G01 X25.3770 Y16.5963
G01 X25.3613 Y16.5888
G01 X25.3440 Y16.5785
G01 X25.3278 Y16.5665
G01 X25.3162 Y16.5560
G01 X25.3003 Y16.5616
G01 X25.2787 Y16.5671
G01 X25.2526 Y16.5712
G01 X25.2276 Y16.5726
G01 X25.1905 Y16.5726
G01 X23.8026 Y17.9606
G01 X23.7830 Y17.9783
G01 X23.7639 Y17.9924
G01 X23.7507 Y18.0004
G01 X23.7310 Y18.0419
G01 X23.7029 Y18.0886
G01 X23.6704 Y18.1324
G01 X23.6338 Y18.1728
G01 X23.5934 Y18.2094
G01 X23.5496 Y18.2419
G01 X23.5029 Y18.2700
G01 X23.4523 Y18.2938
G01 X23.4023 Y18.3116
G01 X23.3494 Y18.3249
G01 X23.2955 Y18.3329
G01 X23.2410 Y18.3356
G01 X20.7808 Y18.3356
G01 X20.7263 Y18.3329
G01 X20.6711 Y18.3246
G01 X20.6170 Y18.3108
G01 X20.5682 Y18.2933
G01 X20.5213 Y18.2712
G01 X20.4722 Y18.2419
G01 X20.4273 Y18.2086
G01 X20.3880 Y18.1728
G01 X19.6752 Y17.4600
G01 X19.6403 Y17.4217
G01 X19.6061 Y17.3758
G01 X19.5780 Y17.3291
G01 X19.5547 Y17.2798
G01 X19.5368 Y17.2298
G01 X19.5231 Y17.1756
G01 X19.5153 Y17.1230
G01 X19.5125 Y17.0686
G01 X19.5124 Y17.0226
G01 X18.0573 Y17.0226
G01 X18.0573 Y17.2100
G01 X18.0565 Y17.2195
G01 X18.0545 Y17.2273
G01 X18.0514 Y17.2349
G01 X18.0472 Y17.2418
G01 X18.0421 Y17.2481
G01 X18.0371 Y17.2527
G01 X18.0304 Y17.2574
G01 X18.0232 Y17.2611
G01 X18.0154 Y17.2636
G01 X18.0088 Y17.2649
G01 X18.0020 Y17.2653
G01 X17.2020 Y17.2653
G01 X17.1925 Y17.2645
G01 X17.1847 Y17.2625
G01 X17.1771 Y17.2594
G01 X17.1691 Y17.2544
G01 X17.1649 Y17.2510
G01 X17.1601 Y17.2461
G01 X17.1568 Y17.2418
G01 X17.1532 Y17.2361
G01 X17.1504 Y17.2299
G01 X17.1487 Y17.2247
G01 X17.1473 Y17.2181
G01 X17.1468 Y17.2127
G01 X17.1467 Y16.8277
G01 X17.1386 Y16.8164
G01 X17.1108 Y16.7695
G01 X17.0887 Y16.7226
G01 X17.0704 Y16.6713
G01 X17.0571 Y16.6184
G01 X17.0495 Y16.5671
G01 X17.0489 Y16.5617
G01 X17.0465 Y16.5086
G01 X17.0491 Y16.4555
G01 X17.0567 Y16.4043
G01 X17.0577 Y16.3990
G01 X17.0708 Y16.3474
G01 X17.0887 Y16.2974
G01 X17.1114 Y16.2493
G01 X17.1393 Y16.2025
G01 X17.1467 Y16.1923
G01 X17.1467 Y15.8100
G01 X17.1470 Y15.8046
G01 X17.1478 Y15.7992
G01 X17.1504 Y15.7901
G01 X17.1546 Y15.7816
G01 X17.1601 Y15.7739
G01 X17.1669 Y15.7673
G01 X17.1747 Y15.7619
G01 X17.1834 Y15.7579
G01 X17.1925 Y15.7555
G01 X17.2020 Y15.7547
G00 Z2.0000
G00 X17.1086 Y13.6673
G01 F80.00
G01 Z-0.0301
G01 F120.00
G01 X17.1088 Y13.2673
G01 X17.1093 Y13.2619
G01 X17.1104 Y13.2566
G01 X17.1119 Y13.2514
G01 X17.1140 Y13.2464
G01 X17.1166 Y13.2416
G01 X17.1196 Y13.2371
G01 X17.1230 Y13.2329
G01 X17.1279 Y13.2281
G01 X17.1356 Y13.2226
G01 X17.1428 Y13.2189
G01 X17.1506 Y13.2164
G01 X17.1599 Y13.2148
G01 X17.4410 Y13.2147
G01 X17.4581 Y13.2087
G01 X17.4988 Y13.1985
G01 X17.5444 Y13.1917
G01 X17.5876 Y13.1895
G01 X17.7003 Y13.1895
G01 X18.3089 Y12.5809
G01 X18.3400 Y12.5527
G01 X18.3779 Y12.5243
G01 X18.4163 Y12.5013
G01 X18.4567 Y12.4822
G01 X18.5001 Y12.4667
G01 X18.5421 Y12.4563
G01 X18.5837 Y12.4500
G01 X18.6310 Y12.4475
G01 X21.1580 Y12.4475
G01 X21.2026 Y12.4497
G01 X21.2469 Y12.4563
G01 X21.2902 Y12.4671
G01 X21.3311 Y12.4817
G01 X21.3727 Y12.5013
G01 X21.4111 Y12.5243
G01 X21.4470 Y12.5509
G01 X21.4791 Y12.5800
G01 X22.2101 Y13.3109
G01 X22.2401 Y13.3440
G01 X22.2667 Y13.3799
G01 X22.2897 Y13.4183
G01 X22.3077 Y13.4562
G01 X22.3100 Y13.4617
G01 X22.3407 Y13.4618
G01 X22.3461 Y13.4623
G01 X22.3514 Y13.4634
G01 X22.3579 Y13.4654
G01 X22.3653 Y13.4689
G01 X22.3709 Y13.4726
G01 X22.3771 Y13.4779
G01 X22.3824 Y13.4841
G01 X22.3868 Y13.4909
G01 X22.3901 Y13.4984
G01 X22.3922 Y13.5062
G01 X22.3933 Y13.5156
G01 X22.3933 Y13.5615
G01 X23.7960 Y13.5615
G01 X23.8379 Y13.5635
G01 X23.8433 Y13.5640
G01 X23.8875 Y13.5708
G01 X23.9282 Y13.5811
G01 X23.9703 Y13.5962
G01 X24.0131 Y13.6166
G01 X24.0491 Y13.6383
G01 X24.0850 Y13.6649
G01 X24.1181 Y13.6949
G01 X24.1498 Y13.7302
G01 X24.1747 Y13.7639
G01 X24.1964 Y13.7999
G01 X24.2168 Y13.8427
G01 X24.2319 Y13.8848
G01 X24.2432 Y13.9308
G01 X24.2493 Y13.9724
G01 X24.2514 Y14.0143
G01 X24.2494 Y14.0601
G01 X25.8674 Y15.6781
G01 X25.8833 Y15.6957
G01 X25.8967 Y15.7136
G01 X25.8997 Y15.7181
G01 X25.9124 Y15.7397
G01 X25.9219 Y15.7600
G01 X25.9303 Y15.7836
G01 X25.9364 Y15.8079
G01 X25.9397 Y15.8294
G01 X27.9069 Y17.7968
G01 X27.9122 Y17.8030
G01 X27.9166 Y17.8098
G01 X27.9199 Y17.8173
G01 X27.9220 Y17.8251
G01 X27.9230 Y17.8332
G01 X27.9230 Y17.8400
G01 X27.9218 Y17.8480
G01 X27.9194 Y17.8558
G01 X27.9172 Y17.8608
G01 X27.9145 Y17.8655
G01 X27.9114 Y17.8699
G01 X27.9079 Y17.8740
G01 X27.6948 Y18.0871
G01 X27.6897 Y18.0916
G01 X27.6818 Y18.0968
G01 X27.6730 Y18.1005
G01 X27.6638 Y18.1027
G01 X27.6543 Y18.1033
G01 X27.6449 Y18.1022
G01 X27.6358 Y18.0996
G01 X27.6273 Y18.0954
G01 X27.6196 Y18.0899
G01 X25.6379 Y16.1085
G01 X25.6144 Y16.1028
G01 X25.6092 Y16.1013
G01 X25.5882 Y16.0937
G01 X25.5655 Y16.0829
G01 X25.5418 Y16.0685
G01 X25.5239 Y16.0551
G01 X25.5063 Y16.0392
G01 X23.9216 Y14.4546
G01 X23.8849 Y14.4637
G01 X23.8433 Y14.4700
G01 X23.7960 Y14.4725
G01 X22.3933 Y14.4725
G01 X22.3932 Y14.5211
G01 X22.3925 Y14.5265
G01 X22.3913 Y14.5317
G01 X22.3896 Y14.5369
G01 X22.3874 Y14.5419
G01 X22.3840 Y14.5477
G01 X22.3799 Y14.5531
G01 X22.3751 Y14.5580
G01 X22.3698 Y14.5622
G01 X22.3641 Y14.5658
G01 X22.3579 Y14.5686
G01 X22.3501 Y14.5710
G01 X22.3434 Y14.5720
G01 X22.3380 Y14.5723
G01 X21.4380 Y14.5723
G01 X21.4326 Y14.5720
G01 X21.4259 Y14.5710
G01 X21.4168 Y14.5681
G01 X21.4096 Y14.5644
G01 X21.4019 Y14.5589
G01 X21.3961 Y14.5531
G01 X21.3906 Y14.5454
G01 X21.3864 Y14.5369
G01 X21.3840 Y14.5291
G01 X21.3828 Y14.5197
G01 X21.3827 Y13.7719
G01 X20.9693 Y13.3585
G01 X18.8197 Y13.3585
G01 X18.2111 Y13.9671
G01 X18.1800 Y13.9953
G01 X18.1421 Y14.0237
G01 X18.1037 Y14.0467
G01 X18.0633 Y14.0658
G01 X18.0193 Y14.0814
G01 X18.0193 Y14.6714
G01 X18.0187 Y14.6781
G01 X18.0176 Y14.6834
G01 X18.0156 Y14.6899
G01 X18.0134 Y14.6949
G01 X18.0107 Y14.6996
G01 X18.0076 Y14.7040
G01 X18.0041 Y14.7081
G01 X17.9991 Y14.7127
G01 X17.9913 Y14.7181
G01 X17.9826 Y14.7221
G01 X17.9748 Y14.7242
G01 X17.9654 Y14.7253
G01 X17.1640 Y14.7253
G01 X17.1572 Y14.7249
G01 X17.1479 Y14.7229
G01 X17.1391 Y14.7194
G01 X17.1311 Y14.7144
G01 X17.1269 Y14.7110
G01 X17.1230 Y14.7071
G01 X17.1173 Y14.6996
G01 X17.1129 Y14.6912
G01 X17.1100 Y14.6821
G01 X17.1088 Y14.6727
G01 X17.1086 Y13.6673
G00 Z2.0000
G00 X16.5627 Y13.4647
G01 F80.00
G01 Z-0.0301
G01 F120.00
G01 X16.4693 Y13.4647
G01 X16.4693 Y13.0713
G01 X16.5627 Y13.0713
G01 X16.5627 Y13.4647
G00 Z2.0000
G00 X15.4587 Y13.4647
G01 F80.00
G01 Z-0.0301
G01 F120.00
G01 X15.3653 Y13.4647
G01 X15.3653 Y13.0713
G01 X15.4587 Y13.0713
G01 X15.4587 Y13.4647
G00 Z2.0000
G00 X16.3117 Y8.1107
G01 F80.00
G01 Z-0.0301
G01 F120.00
G01 X15.5283 Y8.1107
G01 X15.5283 Y7.9673
G01 X16.1130 Y7.9673
G01 X16.1198 Y7.9669
G01 X16.1251 Y7.9660
G01 X16.1303 Y7.9645
G01 X16.1354 Y7.9626
G01 X16.1426 Y7.9587
G01 X16.1481 Y7.9547
G01 X16.1531 Y7.9501
G01 X16.1582 Y7.9438
G01 X16.1624 Y7.9369
G01 X16.1651 Y7.9306
G01 X16.1670 Y7.9241
G01 X16.1680 Y7.9174
G01 X16.1683 Y7.9120
G01 X16.1683 Y7.6173
G01 X16.3117 Y7.6173
G01 X16.3117 Y8.1107
G00 Z2.0000
G00 X16.3117 Y6.6067
G01 F80.00
G01 Z-0.0301
G01 F120.00
G01 X16.1683 Y6.6067
G01 X16.1682 Y6.3079
G01 X16.1672 Y6.3012
G01 X16.1655 Y6.2947
G01 X16.1636 Y6.2896
G01 X16.1604 Y6.2836
G01 X16.1574 Y6.2791
G01 X16.1531 Y6.2739
G01 X16.1481 Y6.2693
G01 X16.1426 Y6.2653
G01 X16.1366 Y6.2620
G01 X16.1291 Y6.2591
G01 X16.1211 Y6.2573
G01 X16.1144 Y6.2567
G01 X15.5283 Y6.2567
G01 X15.5283 Y6.1133
G01 X16.3117 Y6.1133
G01 X16.3117 Y6.6067
G00 Z2.0000
G00 X14.5177 Y8.1107
G01 F80.00
G01 Z-0.0301
G01 F120.00
G01 X13.7343 Y8.1107
G01 X13.7343 Y7.6173
G01 X13.8777 Y7.6173
G01 X13.8778 Y7.9161
G01 X13.8785 Y7.9215
G01 X13.8801 Y7.9281
G01 X13.8824 Y7.9344
G01 X13.8856 Y7.9404
G01 X13.8894 Y7.9460
G01 X13.8939 Y7.9511
G01 X13.8990 Y7.9556
G01 X13.9034 Y7.9587
G01 X13.9094 Y7.9620
G01 X13.9169 Y7.9649
G01 X13.9249 Y7.9667
G01 X13.9316 Y7.9673
G01 X14.5177 Y7.9673
G01 X14.5177 Y8.1107
G00 Z2.0000
G00 X21.8253 Y8.6596
G01 F80.00
G01 Z-0.0301
G01 F120.00
G01 X21.8253 Y7.9673
G01 X21.7316 Y7.9673
G01 X21.7222 Y7.9662
G01 X21.7144 Y7.9641
G01 X21.7069 Y7.9608
G01 X21.7001 Y7.9564
G01 X21.6939 Y7.9511
G01 X21.6886 Y7.9449
G01 X21.6842 Y7.9381
G01 X21.6809 Y7.9306
G01 X21.6788 Y7.9228
G01 X21.6778 Y7.9147
G01 X21.6777 Y6.3120
G01 X21.6785 Y6.3025
G01 X21.6797 Y6.2973
G01 X21.6814 Y6.2921
G01 X21.6856 Y6.2836
G01 X21.6886 Y6.2791
G01 X21.6920 Y6.2749
G01 X21.6959 Y6.2710
G01 X21.7012 Y6.2668
G01 X21.7057 Y6.2639
G01 X21.7106 Y6.2614
G01 X21.7157 Y6.2595
G01 X21.7209 Y6.2580
G01 X21.7262 Y6.2571
G01 X21.7330 Y6.2567
G01 X23.9130 Y6.2567
G01 X23.9184 Y6.2570
G01 X23.9238 Y6.2578
G01 X23.9329 Y6.2604
G01 X23.9414 Y6.2646
G01 X23.9459 Y6.2676
G01 X23.9501 Y6.2710
G01 X23.9540 Y6.2749
G01 X23.9574 Y6.2791
G01 X23.9611 Y6.2847
G01 X23.9636 Y6.2896
G01 X23.9655 Y6.2947
G01 X23.9670 Y6.2999
G01 X23.9680 Y6.3066
G01 X23.9683 Y6.3120
G01 X23.9683 Y7.9120
G01 X23.9677 Y7.9201
G01 X23.9659 Y7.9281
G01 X23.9630 Y7.9356
G01 X23.9590 Y7.9427
G01 X23.9540 Y7.9491
G01 X23.9481 Y7.9547
G01 X23.9414 Y7.9594
G01 X23.9342 Y7.9631
G01 X23.9264 Y7.9656
G01 X23.9171 Y7.9672
G01 X23.4367 Y7.9673
G01 X23.4367 Y8.9920
G01 X23.4330 Y9.0683
G01 X23.4325 Y9.0737
G01 X23.4212 Y9.1492
G01 X23.4027 Y9.2233
G01 X23.4011 Y9.2285
G01 X23.3742 Y9.3028
G01 X23.3415 Y9.3718
G01 X23.3009 Y9.4396
G01 X23.2538 Y9.5031
G01 X23.2147 Y9.5464
G01 X23.2147 Y11.2915
G01 X24.2729 Y11.2915
G01 X24.2771 Y11.2859
G01 X24.2819 Y11.2810
G01 X24.2872 Y11.2768
G01 X24.2929 Y11.2732
G01 X24.2991 Y11.2704
G01 X24.3056 Y11.2684
G01 X24.3122 Y11.2671
G01 X24.3190 Y11.2667
G01 X25.7204 Y11.2667
G01 X25.7258 Y11.2671
G01 X25.7324 Y11.2684
G01 X25.7389 Y11.2704
G01 X25.7451 Y11.2732
G01 X25.7508 Y11.2768
G01 X25.7551 Y11.2801
G01 X25.7591 Y11.2839
G01 X25.7634 Y11.2891
G01 X25.7678 Y11.2959
G01 X25.7715 Y11.3047
G01 X25.7735 Y11.3125
G01 X25.7743 Y11.3220
G01 X25.7743 Y12.1220
G01 X25.7735 Y12.1315
G01 X25.7711 Y12.1406
G01 X25.7684 Y12.1469
G01 X25.7642 Y12.1538
G01 X25.7591 Y12.1601
G01 X25.7541 Y12.1647
G01 X25.7474 Y12.1694
G01 X25.7402 Y12.1731
G01 X25.7337 Y12.1753
G01 X25.7258 Y12.1769
G01 X25.7190 Y12.1773
G01 X25.4495 Y12.1773
G01 X25.4495 Y13.4107
G01 X25.5783 Y13.5396
G01 X25.6058 Y13.5699
G01 X25.6317 Y13.6050
G01 X25.6539 Y13.6425
G01 X25.6707 Y13.6783
G01 X25.6841 Y13.7155
G01 X25.6952 Y13.7590
G01 X25.7016 Y13.8035
G01 X25.7035 Y13.8430
G01 X25.7016 Y13.8825
G01 X25.6957 Y13.9243
G01 X25.6850 Y13.9680
G01 X25.6712 Y14.0065
G01 X25.6527 Y14.0459
G01 X25.6309 Y14.0822
G01 X25.6066 Y14.1151
G01 X25.5856 Y14.1402
G01 X25.5607 Y14.1747
G01 X25.5565 Y14.1815
G01 X27.2743 Y15.8993
G01 X27.2911 Y15.9179
G01 X27.3053 Y15.9369
G01 X27.3189 Y15.9595
G01 X27.3306 Y15.9847
G01 X27.3381 Y16.0058
G01 X27.3436 Y16.0274
G01 X27.3480 Y16.0562
G01 X27.3491 Y16.0799
G01 X27.3491 Y16.4961
G01 X27.3480 Y16.5198
G01 X27.3467 Y16.5295
G01 X28.2604 Y17.4433
G01 X28.2640 Y17.4473
G01 X28.2673 Y17.4517
G01 X28.2701 Y17.4563
G01 X28.2724 Y17.4612
G01 X28.2749 Y17.4690
G01 X28.2762 Y17.4756
G01 X28.2766 Y17.4838
G01 X28.2760 Y17.4905
G01 X28.2746 Y17.4971
G01 X28.2719 Y17.5048
G01 X28.2680 Y17.5120
G01 X28.2640 Y17.5175
G01 X28.2604 Y17.5215
G01 X28.0483 Y17.7336
G01 X28.0443 Y17.7372
G01 X28.0399 Y17.7405
G01 X28.0328 Y17.7445
G01 X28.0239 Y17.7478
G01 X28.0146 Y17.7495
G01 X28.0051 Y17.7497
G01 X27.9958 Y17.7481
G01 X27.9868 Y17.7451
G01 X27.9785 Y17.7405
G01 X27.9711 Y17.7346
G01 X26.9485 Y16.7121
G01 X26.9367 Y16.6992
G01 X26.9328 Y16.6944
G01 X26.9131 Y16.6767
G01 X26.8971 Y16.6592
G01 X26.8799 Y16.6357
G01 X26.8685 Y16.6165
G01 X26.8577 Y16.5938
G01 X26.8486 Y16.5676
G01 X26.8432 Y16.5459
G01 X26.8397 Y16.5225
G01 X26.8383 Y16.4961
G01 X26.8383 Y16.1857
G01 X25.0905 Y14.4378
G01 X25.0756 Y14.4212
G01 X25.0606 Y14.4011
G01 X25.0478 Y14.3796
G01 X25.0365 Y14.3557
G01 X25.0286 Y14.3333
G01 X25.0225 Y14.3090
G01 X25.0188 Y14.2842
G01 X25.0171 Y14.2504
G01 X25.0154 Y14.2404
G01 X25.0126 Y14.2295
G01 X25.0081 Y14.2173
G01 X25.0021 Y14.2039
G01 X24.9944 Y14.1895
G01 X24.9853 Y14.1747
G01 X24.9604 Y14.1402
G01 X24.9556 Y14.1344
G01 X24.7137 Y13.8924
G01 X24.6862 Y13.8621
G01 X24.6603 Y13.8270
G01 X24.6393 Y13.7919
G01 X24.6224 Y13.7562
G01 X24.6070 Y13.7140
G01 X24.5963 Y13.6703
G01 X24.5906 Y13.6312
G01 X24.5886 Y13.5917
G01 X24.5885 Y12.1773
G01 X24.3149 Y12.1772
G01 X24.3082 Y12.1762
G01 X24.3029 Y12.1749
G01 X24.2966 Y12.1726
G01 X24.2906 Y12.1694
G01 X24.2850 Y12.1656
G01 X24.2809 Y12.1621
G01 X24.2763 Y12.1571
G01 X24.2729 Y12.1525
G01 X23.0643 Y12.1525
G01 X23.0642 Y12.2071
G01 X23.0635 Y12.2125
G01 X23.0623 Y12.2177
G01 X23.0590 Y12.2266
G01 X23.0557 Y12.2326
G01 X23.0509 Y12.2391
G01 X23.0461 Y12.2440
G01 X23.0408 Y12.2482
G01 X23.0339 Y12.2524
G01 X23.0276 Y12.2551
G01 X23.0211 Y12.2570
G01 X23.0131 Y12.2582
G01 X21.8076 Y12.2583
G01 X21.8009 Y12.2577
G01 X21.7943 Y12.2563
G01 X21.7878 Y12.2541
G01 X21.7817 Y12.2511
G01 X21.7772 Y12.2482
G01 X21.7719 Y12.2440
G01 X21.7671 Y12.2391
G01 X21.7630 Y12.2337
G01 X21.7590 Y12.2266
G01 X21.7561 Y12.2191
G01 X21.7543 Y12.2111
G01 X21.7537 Y12.2044
G01 X21.7537 Y11.7704
G01 X21.7384 Y11.7495
G01 X21.6991 Y11.6840
G01 X21.6641 Y11.6101
G01 X21.6380 Y11.5369
G01 X21.6194 Y11.4628
G01 X21.6183 Y11.4575
G01 X21.6070 Y11.3793
G01 X21.6033 Y11.3030
G01 X21.6033 Y9.2126
G01 X21.6072 Y9.1350
G01 X21.6188 Y9.0568
G01 X21.6380 Y8.9801
G01 X21.6647 Y8.9057
G01 X21.6985 Y8.8342
G01 X21.7391 Y8.7664
G01 X21.7862 Y8.7029
G01 X21.8253 Y8.6596
G00 Z2.0000
G00 X24.5137 Y9.6167
G01 F80.00
G01 Z-0.0301
G01 F120.00
G01 X24.1203 Y9.6167
G01 X24.1203 Y9.5233
G01 X24.5137 Y9.5233
G01 X24.5137 Y9.6167
G00 Z2.0000
G00 X24.5137 Y10.7207
G01 F80.00
G01 Z-0.0301
G01 F120.00
G01 X24.1203 Y10.7207
G01 X24.1203 Y10.6273
