(G-CODE GENERATED BY FLATCAM v8.994 - www.flatcam.org - Version Date: 2020/11/7)

(Name: PCB2.GTL_iso_combined_cnc)
(Type: G-code from Geometry)
(Units: MM)

(Created on Monday, 13 March 2023 at 10:07)

(This preprocessor is the default preprocessor used by FlatCAM.)
(It is made to work with MACH3 compatible motion controllers.)

(TOOL DIAMETER: 0.1106 mm)
(Feedrate_XY: 80.0 mm/min)
(Feedrate_Z: 60.0 mm/min)
(Feedrate rapids 1500.0 mm/min)

(Z_Cut: -0.0301 mm)
(Z_Move: 2.0 mm)
(Z Start: None mm)
(Z End: 15.0 mm)
(X,Y End: None mm)
(Steps per circle: 64)
(Preprocessor Geometry: default)

(X range:   -0.0553 ...   13.3194  mm)
(Y range:   -0.0553 ...   15.9843  mm)

(Spindle Speed: 10000.0 RPM)
G21
G90
G94

G01 F80.00

M5
G00 Z15.0000
G00 X0.0000 Y0.0000
T2
M6    
(MSG, Change to Tool Dia = 0.1106)
M0
G00 Z15.0000

M03 S10000.0
G01 F80.00
G00 X-0.0552 Y4.4715
G01 F60.00
G01 Z-0.0301
G01 F80.00
G01 X-0.0543 Y4.4540
G01 X-0.0514 Y4.4341
G01 X-0.0465 Y4.4146
G01 X-0.0397 Y4.3956
G01 X-0.0310 Y4.3774
G01 X-0.0207 Y4.3601
G01 X-0.0087 Y4.3439
G01 X0.0049 Y4.3290
G01 X1.3649 Y2.9689
G01 X1.3789 Y2.9563
G01 X1.3929 Y2.9459
G01 X1.4124 Y2.9340
G01 X1.4331 Y2.9244
G01 X1.4496 Y2.9185
G01 X1.4665 Y2.9142
G01 X1.4890 Y2.9107
G01 X1.5092 Y2.9097
G01 X6.1941 Y2.9098
G01 X6.2035 Y2.9106
G01 X6.2127 Y2.9130
G01 X6.2201 Y2.9163
G01 X6.2281 Y2.9215
G01 X6.2350 Y2.9279
G01 X6.2401 Y2.9344
G01 X6.2446 Y2.9427
G01 X6.2477 Y2.9516
G01 X6.2490 Y2.9583
G01 X6.2494 Y2.9651
G01 X6.2494 Y3.2651
G01 X6.2490 Y3.2718
G01 X6.2470 Y3.2811
G01 X6.2435 Y3.2899
G01 X6.2385 Y3.2980
G01 X6.2322 Y3.3051
G01 X6.2248 Y3.3111
G01 X6.2165 Y3.3156
G01 X6.2075 Y3.3187
G01 X6.1981 Y3.3202
G01 X1.5942 Y3.3204
G01 X0.3554 Y4.5592
G01 X0.3554 Y5.7381
G01 X0.3543 Y5.7596
G01 X0.3515 Y5.7781
G01 X0.3473 Y5.7951
G01 X0.3408 Y5.8141
G01 X0.3387 Y5.8191
G01 X0.3312 Y5.8349
G01 X0.3208 Y5.8522
G01 X0.3088 Y5.8684
G01 X0.2972 Y5.8813
G01 X0.2824 Y5.8951
G01 X0.2782 Y5.8985
G01 X0.2642 Y5.9088
G01 X0.2469 Y5.9192
G01 X0.2287 Y5.9278
G01 X0.2123 Y5.9338
G01 X0.1888 Y5.9398
G01 X0.1702 Y5.9425
G01 X0.1501 Y5.9434
G01 X0.1299 Y5.9425
G01 X0.1100 Y5.9395
G01 X0.0905 Y5.9346
G01 X0.0715 Y5.9278
G01 X0.0533 Y5.9192
G01 X0.0360 Y5.9088
G01 X0.0198 Y5.8968
G01 X0.0049 Y5.8833
G01 X-0.0087 Y5.8684
G01 X-0.0207 Y5.8522
G01 X-0.0310 Y5.8349
G01 X-0.0397 Y5.8167
G01 X-0.0465 Y5.7977
G01 X-0.0516 Y5.7768
G01 X-0.0543 Y5.7582
G01 X-0.0553 Y5.7381
G01 X-0.0552 Y4.4715
G00 Z2.0000
G00 X0.4988 Y4.7010
G01 F60.00
G01 Z-0.0301
G01 F80.00
G01 X0.4997 Y4.6835
G01 X0.5026 Y4.6636
G01 X0.5075 Y4.6441
G01 X0.5143 Y4.6251
G01 X0.5230 Y4.6069
G01 X0.5333 Y4.5896
G01 X0.5453 Y4.5734
G01 X0.5579 Y4.5594
G01 X1.6484 Y3.4689
G01 X1.6624 Y3.4563
G01 X1.6764 Y3.4459
G01 X1.6959 Y3.4340
G01 X1.7166 Y3.4244
G01 X1.7331 Y3.4185
G01 X1.7513 Y3.4139
G01 X1.7725 Y3.4107
G01 X1.7927 Y3.4097
G01 X6.1941 Y3.4098
G01 X6.2035 Y3.4106
G01 X6.2127 Y3.4130
G01 X6.2213 Y3.4170
G01 X6.2292 Y3.4223
G01 X6.2350 Y3.4279
G01 X6.2408 Y3.4355
G01 X6.2452 Y3.4439
G01 X6.2480 Y3.4530
G01 X6.2490 Y3.4583
G01 X6.2494 Y3.4651
G01 X6.2494 Y3.7651
G01 X6.2488 Y3.7732
G01 X6.2466 Y3.7824
G01 X6.2428 Y3.7911
G01 X6.2377 Y3.7991
G01 X6.2312 Y3.8060
G01 X6.2237 Y3.8118
G01 X6.2165 Y3.8156
G01 X6.2075 Y3.8187
G01 X6.1981 Y3.8202
G01 X1.8777 Y3.8204
G01 X0.9094 Y4.7887
G01 X0.9094 Y5.7381
G01 X0.9081 Y5.7609
G01 X0.9055 Y5.7781
G01 X0.9010 Y5.7964
G01 X0.8927 Y5.8191
G01 X0.8852 Y5.8349
G01 X0.8748 Y5.8522
G01 X0.8628 Y5.8684
G01 X0.8512 Y5.8813
G01 X0.8364 Y5.8951
G01 X0.8322 Y5.8985
G01 X0.8182 Y5.9088
G01 X0.8009 Y5.9192
G01 X0.7801 Y5.9288
G01 X0.7637 Y5.9346
G01 X0.7441 Y5.9395
G01 X0.7242 Y5.9425
G01 X0.7041 Y5.9434
G01 X0.6839 Y5.9425
G01 X0.6640 Y5.9395
G01 X0.6445 Y5.9346
G01 X0.6255 Y5.9278
G01 X0.6073 Y5.9192
G01 X0.5900 Y5.9088
G01 X0.5738 Y5.8968
G01 X0.5589 Y5.8833
G01 X0.5453 Y5.8684
G01 X0.5333 Y5.8522
G01 X0.5230 Y5.8349
G01 X0.5143 Y5.8167
G01 X0.5075 Y5.7977
G01 X0.5026 Y5.7781
G01 X0.4997 Y5.7582
G01 X0.4987 Y5.7381
G01 X0.4988 Y4.7010
G00 Z2.0000
G00 X1.0528 Y4.9304
G01 F60.00
G01 Z-0.0301
G01 F80.00
G01 X1.0537 Y4.9129
G01 X1.0566 Y4.8930
G01 X1.0615 Y4.8735
G01 X1.0683 Y4.8545
G01 X1.0770 Y4.8363
G01 X1.0873 Y4.8190
G01 X1.0993 Y4.8028
G01 X1.1119 Y4.7888
G01 X1.9318 Y3.9689
G01 X1.9458 Y3.9563
G01 X1.9598 Y3.9459
G01 X1.9793 Y3.9340
G01 X2.0000 Y3.9244
G01 X2.0165 Y3.9185
G01 X2.0360 Y3.9136
G01 X2.0559 Y3.9107
G01 X2.0761 Y3.9097
G01 X6.1941 Y3.9098
G01 X6.2035 Y3.9106
G01 X6.2127 Y3.9130
G01 X6.2213 Y3.9170
G01 X6.2292 Y3.9223
G01 X6.2359 Y3.9290
G01 X6.2415 Y3.9366
G01 X6.2457 Y3.9452
G01 X6.2483 Y3.9543
G01 X6.2491 Y3.9597
G01 X6.2494 Y3.9651
G01 X6.2494 Y4.2651
G01 X6.2490 Y4.2718
G01 X6.2470 Y4.2811
G01 X6.2435 Y4.2899
G01 X6.2385 Y4.2980
G01 X6.2322 Y4.3051
G01 X6.2259 Y4.3103
G01 X6.2177 Y4.3151
G01 X6.2088 Y4.3184
G01 X6.1995 Y4.3201
G01 X6.1941 Y4.3204
G01 X5.6941 Y4.3204
G01 X2.1611 Y4.3204
G01 X1.4634 Y5.0181
G01 X1.4634 Y5.6111
G01 X1.4625 Y5.6312
G01 X1.4595 Y5.6511
G01 X1.4546 Y5.6707
G01 X1.4488 Y5.6871
G01 X1.4392 Y5.7079
G01 X1.4273 Y5.7274
G01 X1.4168 Y5.7414
G01 X1.4033 Y5.7563
G01 X1.3884 Y5.7698
G01 X1.3744 Y5.7803
G01 X1.3549 Y5.7922
G01 X1.3341 Y5.8018
G01 X1.3177 Y5.8076
G01 X1.2981 Y5.8125
G01 X1.2782 Y5.8155
G01 X1.2581 Y5.8164
G01 X1.2379 Y5.8155
G01 X1.2180 Y5.8125
G01 X1.1985 Y5.8076
G01 X1.1795 Y5.8008
G01 X1.1613 Y5.7922
G01 X1.1463 Y5.7833
G01 X1.1418 Y5.7803
G01 X1.1257 Y5.7681
G01 X1.1119 Y5.7553
G01 X1.0976 Y5.7392
G01 X1.0873 Y5.7252
G01 X1.0770 Y5.7079
G01 X1.0683 Y5.6897
G01 X1.0612 Y5.6694
G01 X1.0566 Y5.6511
G01 X1.0540 Y5.6339
G01 X1.0527 Y5.6111
G01 X1.0528 Y4.9304
G00 Z2.0000
G00 X1.6878 Y5.0789
G01 F60.00
G01 Z-0.0301
G01 F80.00
G01 X1.6887 Y5.0614
G01 X1.6916 Y5.0415
G01 X1.6965 Y5.0220
G01 X1.7033 Y5.0030
G01 X1.7120 Y4.9848
G01 X1.7223 Y4.9675
G01 X1.7343 Y4.9513
G01 X1.7469 Y4.9373
G01 X2.2144 Y4.4699
G01 X2.2272 Y4.4581
G01 X2.2433 Y4.4459
G01 X2.2478 Y4.4429
G01 X2.2628 Y4.4340
G01 X2.2797 Y4.4259
G01 X2.3026 Y4.4178
G01 X2.3195 Y4.4136
G01 X2.3368 Y4.4110
G01 X2.3596 Y4.4097
G01 X6.1941 Y4.4098
G01 X6.2035 Y4.4106
G01 X6.2127 Y4.4130
G01 X6.2177 Y4.4151
G01 X6.2225 Y4.4176
G01 X6.2302 Y4.4232
G01 X6.2368 Y4.4300
G01 X6.2422 Y4.4378
G01 X6.2446 Y4.4427
G01 X6.2466 Y4.4477
G01 X6.2488 Y4.4570
G01 X6.2494 Y4.4651
G01 X6.2494 Y4.7651
G01 X6.2490 Y4.7718
G01 X6.2470 Y4.7811
G01 X6.2435 Y4.7899
G01 X6.2385 Y4.7980
G01 X6.2322 Y4.8051
G01 X6.2259 Y4.8103
G01 X6.2177 Y4.8151
G01 X6.2088 Y4.8184
G01 X6.1995 Y4.8201
G01 X6.1941 Y4.8204
G01 X5.6941 Y4.8204
G01 X2.4446 Y4.8204
G01 X2.0984 Y5.1666
G01 X2.0984 Y5.2328
G01 X2.0973 Y5.2516
G01 X2.0939 Y5.2728
G01 X2.0896 Y5.2897
G01 X2.0838 Y5.3061
G01 X2.0754 Y5.3245
G01 X2.0638 Y5.3442
G01 X2.0510 Y5.3614
G01 X2.0383 Y5.3753
G01 X2.0234 Y5.3888
G01 X2.0072 Y5.4008
G01 X1.9899 Y5.4112
G01 X1.9717 Y5.4198
G01 X1.9527 Y5.4266
G01 X1.9331 Y5.4315
G01 X1.9159 Y5.4341
G01 X1.8917 Y5.4354
G01 X1.8729 Y5.4345
G01 X1.8557 Y5.4320
G01 X1.8335 Y5.4266
G01 X1.8120 Y5.4187
G01 X1.7963 Y5.4112
G01 X1.7813 Y5.4023
G01 X1.7628 Y5.3888
G01 X1.7479 Y5.3753
G01 X1.7361 Y5.3624
G01 X1.7216 Y5.3430
G01 X1.7107 Y5.3245
G01 X1.7033 Y5.3087
G01 X1.6974 Y5.2923
G01 X1.6916 Y5.2701
G01 X1.6888 Y5.2516
G01 X1.6877 Y5.2301
G01 X1.6878 Y5.0789
G00 Z2.0000
G00 X2.3829 Y5.0849
G01 F60.00
G01 Z-0.0301
G01 F80.00
G01 X2.4988 Y4.9689
G01 X2.5128 Y4.9563
G01 X2.5290 Y4.9443
G01 X2.5463 Y4.9340
G01 X2.5620 Y4.9264
G01 X2.5835 Y4.9185
G01 X2.6057 Y4.9132
G01 X2.6229 Y4.9107
G01 X2.6404 Y4.9098
G01 X6.1968 Y4.9098
G01 X6.2062 Y4.9111
G01 X6.2152 Y4.9140
G01 X6.2237 Y4.9184
G01 X6.2312 Y4.9241
G01 X6.2377 Y4.9311
G01 X6.2428 Y4.9390
G01 X6.2466 Y4.9477
G01 X6.2488 Y4.9570
G01 X6.2494 Y4.9651
G01 X6.2493 Y5.2678
G01 X6.2488 Y5.2732
G01 X6.2477 Y5.2785
G01 X6.2461 Y5.2837
G01 X6.2441 Y5.2887
G01 X6.2415 Y5.2935
G01 X6.2385 Y5.2980
G01 X6.2322 Y5.3051
G01 X6.2281 Y5.3087
G01 X6.2237 Y5.3118
G01 X6.2152 Y5.3162
G01 X6.2062 Y5.3190
G01 X6.2008 Y5.3200
G01 X6.1954 Y5.3204
G01 X2.7281 Y5.3204
G01 X2.6733 Y5.3753
G01 X2.6594 Y5.3880
G01 X2.6422 Y5.4008
G01 X2.6261 Y5.4105
G01 X2.6041 Y5.4208
G01 X2.5877 Y5.4266
G01 X2.5708 Y5.4309
G01 X2.5482 Y5.4345
G01 X2.5254 Y5.4354
G01 X2.5079 Y5.4345
G01 X2.4907 Y5.4320
G01 X2.4685 Y5.4266
G01 X2.4470 Y5.4187
G01 X2.4313 Y5.4112
G01 X2.4140 Y5.4008
G01 X2.3957 Y5.3871
G01 X2.3829 Y5.3753
G01 X2.3693 Y5.3604
G01 X2.3559 Y5.3419
G01 X2.3470 Y5.3269
G01 X2.3383 Y5.3087
G01 X2.3315 Y5.2897
G01 X2.3272 Y5.2728
G01 X2.3237 Y5.2502
G01 X2.3227 Y5.2301
G01 X2.3235 Y5.2127
G01 X2.3266 Y5.1900
G01 X2.3315 Y5.1705
G01 X2.3374 Y5.1540
G01 X2.3470 Y5.1333
G01 X2.3573 Y5.1160
G01 X2.3676 Y5.1019
G01 X2.3829 Y5.0849
G00 Z2.0000
G00 X1.8749 Y5.9739
G01 F60.00
G01 Z-0.0301
G01 F80.00
G01 X1.8927 Y5.9572
G01 X1.9089 Y5.9451
G01 X1.9273 Y5.9340
G01 X1.9442 Y5.9259
G01 X1.9645 Y5.9185
G01 X1.9840 Y5.9136
G01 X2.0039 Y5.9107
G01 X2.0227 Y5.9097
G01 X6.1981 Y5.9099
G01 X6.2075 Y5.9114
G01 X6.2165 Y5.9145
G01 X6.2248 Y5.9191
G01 X6.2322 Y5.9250
G01 X6.2385 Y5.9321
G01 X6.2435 Y5.9402
G01 X6.2466 Y5.9477
G01 X6.2488 Y5.9570
G01 X6.2494 Y5.9651
G01 X6.2492 Y6.2691
G01 X6.2477 Y6.2785
G01 X6.2461 Y6.2837
G01 X6.2441 Y6.2887
G01 X6.2415 Y6.2935
G01 X6.2385 Y6.2980
G01 X6.2322 Y6.3051
G01 X6.2281 Y6.3087
G01 X6.2237 Y6.3118
G01 X6.2152 Y6.3162
G01 X6.2062 Y6.3190
G01 X6.2008 Y6.3200
G01 X6.1954 Y6.3204
G01 X2.0604 Y6.3204
G01 X2.0375 Y6.3237
G01 X2.0201 Y6.3244
G01 X2.0013 Y6.3236
G01 X1.9774 Y6.3199
G01 X1.9605 Y6.3156
G01 X1.9415 Y6.3088
G01 X1.9209 Y6.2989
G01 X1.9060 Y6.2898
G01 X1.8919 Y6.2795
G01 X1.8739 Y6.2633
G01 X1.8613 Y6.2494
G01 X1.8509 Y6.2354
G01 X1.8390 Y6.2159
G01 X1.8294 Y6.1951
G01 X1.8235 Y6.1787
G01 X1.8192 Y6.1618
G01 X1.8157 Y6.1392
G01 X1.8147 Y6.1191
G01 X1.8155 Y6.1017
G01 X1.8186 Y6.0790
G01 X1.8235 Y6.0595
G01 X1.8294 Y6.0430
G01 X1.8390 Y6.0223
G01 X1.8493 Y6.0050
G01 X1.8596 Y5.9909
G01 X1.8749 Y5.9739
G00 Z2.0000
G00 X2.0019 Y6.9899
G01 F60.00
G01 Z-0.0301
G01 F80.00
G01 X2.0228 Y6.9689
G01 X2.0368 Y6.9563
G01 X2.0530 Y6.9443
G01 X2.0715 Y6.9333
G01 X2.0910 Y6.9244
G01 X2.1075 Y6.9185
G01 X2.1244 Y6.9142
G01 X2.1469 Y6.9107
G01 X2.1657 Y6.9097
G01 X6.1981 Y6.9099
G01 X6.2075 Y6.9114
G01 X6.2165 Y6.9145
G01 X6.2248 Y6.9191
G01 X6.2322 Y6.9250
G01 X6.2385 Y6.9321
G01 X6.2435 Y6.9402
G01 X6.2466 Y6.9477
G01 X6.2488 Y6.9570
G01 X6.2494 Y6.9651
G01 X6.2492 Y7.2691
G01 X6.2477 Y7.2785
G01 X6.2461 Y7.2837
G01 X6.2441 Y7.2887
G01 X6.2415 Y7.2935
G01 X6.2385 Y7.2980
G01 X6.2322 Y7.3051
G01 X6.2281 Y7.3087
G01 X6.2237 Y7.3118
G01 X6.2152 Y7.3162
G01 X6.2062 Y7.3190
G01 X6.2008 Y7.3200
G01 X6.1954 Y7.3204
G01 X2.2351 Y7.3204
G01 X2.2244 Y7.3253
G01 X2.2080 Y7.3312
G01 X2.1858 Y7.3368
G01 X2.1645 Y7.3397
G01 X2.1471 Y7.3404
G01 X2.1283 Y7.3396
G01 X2.1044 Y7.3359
G01 X2.0875 Y7.3316
G01 X2.0685 Y7.3248
G01 X2.0479 Y7.3149
G01 X2.0330 Y7.3058
G01 X2.0189 Y7.2955
G01 X2.0009 Y7.2793
G01 X1.9883 Y7.2654
G01 X1.9779 Y7.2514
G01 X1.9660 Y7.2319
G01 X1.9564 Y7.2111
G01 X1.9505 Y7.1947
G01 X1.9462 Y7.1778
G01 X1.9427 Y7.1552
G01 X1.9417 Y7.1351
G01 X1.9425 Y7.1177
G01 X1.9456 Y7.0950
G01 X1.9505 Y7.0755
G01 X1.9564 Y7.0590
G01 X1.9660 Y7.0383
G01 X1.9763 Y7.0210
G01 X1.9866 Y7.0069
G01 X2.0019 Y6.9899
G00 Z2.0000
G00 X2.0019 Y7.8099
G01 F60.00
G01 Z-0.0301
G01 F80.00
G01 X2.0459 Y7.7659
G01 X2.0597 Y7.7532
G01 X2.0770 Y7.7403
G01 X2.0931 Y7.7306
G01 X2.1125 Y7.7213
G01 X2.1341 Y7.7138
G01 X2.1510 Y7.7096
G01 X2.1683 Y7.7070
G01 X2.1884 Y7.7058
G01 X4.5401 Y7.7057
G01 X4.5602 Y7.7067
G01 X4.5828 Y7.7102
G01 X4.5997 Y7.7145
G01 X4.6187 Y7.7213
G01 X4.6392 Y7.7313
G01 X4.6542 Y7.7403
G01 X4.6682 Y7.7506
G01 X4.6853 Y7.7659
G01 X4.8291 Y7.9097
G01 X6.1941 Y7.9098
G01 X6.2035 Y7.9106
G01 X6.2114 Y7.9126
G01 X6.2189 Y7.9157
G01 X6.2259 Y7.9199
G01 X6.2322 Y7.9250
G01 X6.2377 Y7.9311
G01 X6.2422 Y7.9378
G01 X6.2457 Y7.9452
G01 X6.2477 Y7.9516
G01 X6.2491 Y7.9597
G01 X6.2494 Y7.9651
G01 X6.2494 Y8.2651
G01 X6.2491 Y8.2705
G01 X6.2483 Y8.2759
G01 X6.2470 Y8.2811
G01 X6.2435 Y8.2899
G01 X6.2385 Y8.2980
G01 X6.2322 Y8.3051
G01 X6.2281 Y8.3087
G01 X6.2237 Y8.3118
G01 X6.2152 Y8.3162
G01 X6.2062 Y8.3190
G01 X6.2008 Y8.3200
G01 X6.1954 Y8.3204
G01 X4.7441 Y8.3204
G01 X4.7253 Y8.3196
G01 X4.7014 Y8.3159
G01 X4.6845 Y8.3116
G01 X4.6655 Y8.3048
G01 X4.6449 Y8.2949
G01 X4.6300 Y8.2858
G01 X4.6159 Y8.2755
G01 X4.5989 Y8.2603
G01 X4.4550 Y8.1165
G01 X2.2739 Y8.1165
G01 X2.2612 Y8.1258
G01 X2.2439 Y8.1362
G01 X2.2257 Y8.1448
G01 X2.2067 Y8.1516
G01 X2.1871 Y8.1565
G01 X2.1672 Y8.1595
G01 X2.1471 Y8.1604
G01 X2.1269 Y8.1595
G01 X2.1044 Y8.1559
G01 X2.0875 Y8.1516
G01 X2.0685 Y8.1448
G01 X2.0503 Y8.1362
G01 X2.0353 Y8.1273
G01 X2.0168 Y8.1138
G01 X2.0019 Y8.1003
G01 X1.9901 Y8.0874
G01 X1.9763 Y8.0692
G01 X1.9647 Y8.0495
G01 X1.9573 Y8.0337
G01 X1.9514 Y8.0173
G01 X1.9456 Y7.9951
G01 X1.9425 Y7.9725
G01 X1.9417 Y7.9551
G01 X1.9426 Y7.9363
G01 X1.9462 Y7.9124
G01 X1.9505 Y7.8955
G01 X1.9564 Y7.8790
G01 X1.9660 Y7.8583
G01 X1.9763 Y7.8410
G01 X1.9866 Y7.8269
G01 X2.0019 Y7.8099
G00 Z2.0000
G00 X3.8765 Y8.9123
G01 F60.00
G01 Z-0.0301
G01 F80.00
G01 X3.8526 Y8.9338
G01 X3.8246 Y8.9546
G01 X3.7946 Y8.9726
G01 X3.7631 Y8.9875
G01 X3.7303 Y8.9992
G01 X3.6964 Y9.0077
G01 X3.6619 Y9.0128
G01 X3.6284 Y9.0145
G01 X1.0041 Y9.0145
G01 X0.9692 Y9.0128
G01 X0.9347 Y9.0077
G01 X0.9009 Y8.9992
G01 X0.8681 Y8.9875
G01 X0.8365 Y8.9726
G01 X0.8066 Y8.9546
G01 X0.7786 Y8.9338
G01 X0.7527 Y8.9104
G01 X0.7293 Y8.8846
G01 X0.7085 Y8.8566
G01 X0.6906 Y8.8266
G01 X0.6757 Y8.7951
G01 X0.6639 Y8.7623
G01 X0.6555 Y8.7284
G01 X0.6503 Y8.6939
G01 X0.6486 Y8.6591
G01 X0.6503 Y8.6242
G01 X0.6555 Y8.5897
G01 X0.6639 Y8.5559
G01 X0.6757 Y8.5231
G01 X0.6894 Y8.4939
G01 X0.7085 Y8.4616
G01 X0.7276 Y8.4357
G01 X0.7311 Y8.4315
G01 X0.7547 Y8.4059
G01 X0.7786 Y8.3843
G01 X0.8066 Y8.3635
G01 X0.8365 Y8.3456
G01 X0.8681 Y8.3307
G01 X0.9009 Y8.3189
G01 X0.9347 Y8.3105
G01 X0.9692 Y8.3053
G01 X1.0027 Y8.3036
G01 X3.5000 Y8.3036
G01 X3.5059 Y8.3004
G01 X3.5351 Y8.2867
G01 X3.5705 Y8.2742
G01 X3.6017 Y8.2665
G01 X3.6335 Y8.2617
G01 X3.6389 Y8.2611
G01 X3.6724 Y8.2596
G01 X3.7086 Y8.2617
G01 X3.7404 Y8.2665
G01 X3.7716 Y8.2742
G01 X3.8071 Y8.2867
G01 X3.8386 Y8.3016
G01 X3.8686 Y8.3195
G01 X3.8986 Y8.3421
G01 X3.9243 Y8.3657
G01 X3.9458 Y8.3896
G01 X3.9608 Y8.4097
G01 X6.1954 Y8.4098
G01 X6.2049 Y8.4108
G01 X6.2140 Y8.4135
G01 X6.2225 Y8.4176
G01 X6.2302 Y8.4232
G01 X6.2368 Y8.4300
G01 X6.2415 Y8.4366
G01 X6.2457 Y8.4452
G01 X6.2483 Y8.4543
G01 X6.2491 Y8.4597
G01 X6.2494 Y8.4651
G01 X6.2494 Y8.7651
G01 X6.2490 Y8.7718
G01 X6.2470 Y8.7811
G01 X6.2441 Y8.7887
G01 X6.2393 Y8.7969
G01 X6.2341 Y8.8032
G01 X6.2281 Y8.8087
G01 X6.2213 Y8.8132
G01 X6.2140 Y8.8167
G01 X6.2049 Y8.8193
G01 X6.1995 Y8.8201
G01 X6.1941 Y8.8204
G01 X3.9608 Y8.8204
G01 X3.9458 Y8.8406
G01 X3.9243 Y8.8645
G01 X3.8765 Y8.9123
G00 Z2.0000
G00 X5.1388 Y7.7651
G01 F60.00
G01 Z-0.0301
G01 F80.00
G01 X5.1388 Y7.4651
G01 X5.1392 Y7.4583
G01 X5.1408 Y7.4503
G01 X5.1435 Y7.4427
G01 X5.1474 Y7.4355
G01 X5.1522 Y7.4290
G01 X5.1580 Y7.4232
G01 X5.1645 Y7.4184
G01 X5.1717 Y7.4145
G01 X5.1793 Y7.4118
G01 X5.1873 Y7.4102
G01 X5.1941 Y7.4098
G01 X5.5555 Y7.4098
G01 X5.5648 Y7.4015
G01 X5.5811 Y7.3896
G01 X5.5973 Y7.3800
G01 X5.6167 Y7.3708
G01 X5.6345 Y7.3645
G01 X5.6540 Y7.3596
G01 X5.6739 Y7.3567
G01 X5.6954 Y7.3557
G01 X5.7142 Y7.3567
G01 X5.7341 Y7.3596
G01 X5.7537 Y7.3645
G01 X5.7714 Y7.3708
G01 X5.7909 Y7.3800
G01 X5.8070 Y7.3896
G01 X5.8233 Y7.4015
G01 X5.8327 Y7.4098
G01 X6.1941 Y7.4098
G01 X6.2035 Y7.4106
G01 X6.2114 Y7.4126
G01 X6.2189 Y7.4157
G01 X6.2248 Y7.4191
G01 X6.2312 Y7.4241
G01 X6.2368 Y7.4300
G01 X6.2415 Y7.4366
G01 X6.2446 Y7.4427
G01 X6.2474 Y7.4503
G01 X6.2490 Y7.4583
G01 X6.2494 Y7.4651
G01 X6.2494 Y7.7651
G01 X6.2491 Y7.7705
G01 X6.2477 Y7.7785
G01 X6.2452 Y7.7862
G01 X6.2415 Y7.7935
G01 X6.2359 Y7.8012
G01 X6.2302 Y7.8069
G01 X6.2237 Y7.8118
G01 X6.2165 Y7.8156
G01 X6.2088 Y7.8184
G01 X6.2008 Y7.8200
G01 X6.1941 Y7.8204
G01 X5.1914 Y7.8203
G01 X5.1860 Y7.8198
G01 X5.1806 Y7.8187
G01 X5.1717 Y7.8156
G01 X5.1668 Y7.8132
G01 X5.1622 Y7.8103
G01 X5.1580 Y7.8069
G01 X5.1540 Y7.8032
G01 X5.1505 Y7.7991
G01 X5.1474 Y7.7947
G01 X5.1447 Y7.7899
G01 X5.1425 Y7.7850
G01 X5.1398 Y7.7759
G01 X5.1390 Y7.7705
G01 X5.1388 Y7.7651
G00 Z2.0000
G00 X5.6941 Y6.8204
G01 F60.00
G01 Z-0.0301
G01 F80.00
G01 X2.0503 Y6.8204
G01 X2.0329 Y6.8197
G01 X2.0102 Y6.8165
G01 X1.9907 Y6.8116
G01 X1.9717 Y6.8048
G01 X1.9535 Y6.7962
G01 X1.9362 Y6.7858
G01 X1.9200 Y6.7738
G01 X1.9051 Y6.7603
G01 X1.8924 Y6.7464
G01 X1.8795 Y6.7292
G01 X1.8692 Y6.7119
G01 X1.8605 Y6.6937
G01 X1.8537 Y6.6747
G01 X1.8488 Y6.6551
G01 X1.8459 Y6.6352
G01 X1.8449 Y6.6151
G01 X1.8457 Y6.5977
G01 X1.8484 Y6.5777
G01 X1.8494 Y6.5724
G01 X1.8542 Y6.5542
G01 X1.8616 Y6.5340
G01 X1.8692 Y6.5183
G01 X1.8795 Y6.5010
G01 X1.8915 Y6.4848
G01 X1.9060 Y6.4689
G01 X1.9200 Y6.4563
G01 X1.9362 Y6.4443
G01 X1.9535 Y6.4340
G01 X1.9717 Y6.4253
G01 X1.9907 Y6.4185
G01 X2.0102 Y6.4136
G01 X2.0301 Y6.4107
G01 X2.0476 Y6.4098
G01 X6.1941 Y6.4098
G01 X6.2008 Y6.4102
G01 X6.2075 Y6.4114
G01 X6.2140 Y6.4135
G01 X6.2201 Y6.4163
G01 X6.2259 Y6.4199
G01 X6.2302 Y6.4232
G01 X6.2350 Y6.4279
G01 X6.2393 Y6.4332
G01 X6.2435 Y6.4402
G01 X6.2466 Y6.4477
G01 X6.2486 Y6.4556
G01 X6.2494 Y6.4637
G01 X6.2494 Y6.7664
G01 X6.2488 Y6.7732
G01 X6.2477 Y6.7785
G01 X6.2457 Y6.7850
G01 X6.2428 Y6.7911
G01 X6.2393 Y6.7969
G01 X6.2350 Y6.8022
G01 X6.2312 Y6.8060
G01 X6.2259 Y6.8103
G01 X6.2189 Y6.8145
G01 X6.2114 Y6.8176
G01 X6.2035 Y6.8196
G01 X6.1954 Y6.8204
G01 X5.6941 Y6.8204
G00 Z2.0000
G00 X5.1388 Y5.7651
G01 F60.00
G01 Z-0.0301
G01 F80.00
G01 X5.1388 Y5.4651
G01 X5.1392 Y5.4583
G01 X5.1408 Y5.4503
G01 X5.1441 Y5.4414
G01 X5.1481 Y5.4344
G01 X5.1540 Y5.4269
G01 X5.1601 Y5.4215
G01 X5.1680 Y5.4163
G01 X5.1754 Y5.4130
G01 X5.1846 Y5.4106
G01 X5.1941 Y5.4098
G01 X6.3713 Y5.4097
G01 X6.3774 Y5.4078
G01 X6.3970 Y5.4032
G01 X6.4142 Y5.4007
G01 X6.4344 Y5.3997
G01 X7.2467 Y5.3997
G01 X7.2106 Y5.3636
G01 X7.1972 Y5.3486
G01 X7.1846 Y5.3312
G01 X7.1757 Y5.3162
G01 X7.1681 Y5.3005
G01 X7.1603 Y5.2790
G01 X7.1549 Y5.2568
G01 X7.1524 Y5.2395
G01 X7.1515 Y5.2221
G01 X7.1524 Y5.1992
G01 X7.1553 Y5.1793
G01 X7.1595 Y5.1624
G01 X7.1670 Y5.1408
G01 X7.1756 Y5.1226
G01 X7.1845 Y5.1076
G01 X7.1876 Y5.1031
G01 X7.1998 Y5.0870
G01 X7.2116 Y5.0742
G01 X7.2254 Y5.0615
G01 X7.2450 Y5.0472
G01 X7.2600 Y5.0383
G01 X7.2782 Y5.0296
G01 X7.2971 Y5.0229
G01 X7.3138 Y5.0186
G01 X7.3138 Y3.8951
G01 X7.3144 Y3.8822
G01 X7.3172 Y3.8641
G01 X7.3200 Y3.8529
G01 X7.3248 Y3.8395
G01 X7.3323 Y3.8242
G01 X7.3383 Y3.8144
G01 X7.3468 Y3.8029
G01 X7.3563 Y3.7923
G01 X7.3648 Y3.7845
G01 X7.3784 Y3.7743
G01 X7.3930 Y3.7657
G01 X7.4035 Y3.7608
G01 X7.4156 Y3.7564
G01 X7.4334 Y3.7521
G01 X7.4448 Y3.7505
G01 X7.4591 Y3.7498
G01 X10.8804 Y3.7498
G01 X10.8933 Y3.7505
G01 X10.9047 Y3.7521
G01 X10.9225 Y3.7564
G01 X10.9347 Y3.7608
G01 X10.9464 Y3.7663
G01 X10.9620 Y3.7758
G01 X10.9713 Y3.7828
G01 X10.9818 Y3.7923
G01 X10.9914 Y3.8029
G01 X10.9983 Y3.8121
G01 X11.0078 Y3.8278
G01 X11.0133 Y3.8395
G01 X11.0177 Y3.8516
G01 X11.0220 Y3.8694
G01 X11.0237 Y3.8808
G01 X11.0244 Y3.8951
G01 X11.0244 Y7.3164
G01 X11.0237 Y7.3293
G01 X11.0220 Y7.3407
G01 X11.0177 Y7.3585
G01 X11.0133 Y7.3707
G01 X11.0078 Y7.3824
G01 X10.9983 Y7.3980
G01 X10.9914 Y7.4073
G01 X10.9818 Y7.4178
G01 X10.9713 Y7.4274
G01 X10.9620 Y7.4343
G01 X10.9464 Y7.4438
G01 X10.9347 Y7.4493
G01 X10.9225 Y7.4537
G01 X10.9047 Y7.4580
G01 X10.8933 Y7.4597
G01 X10.8791 Y7.4604
G01 X7.4591 Y7.4604
G01 X7.4421 Y7.4593
G01 X7.4307 Y7.4576
G01 X7.4169 Y7.4541
G01 X7.4035 Y7.4493
G01 X7.3930 Y7.4444
G01 X7.3784 Y7.4359
G01 X7.3648 Y7.4256
G01 X7.3563 Y7.4178
G01 X7.3468 Y7.4073
G01 X7.3368 Y7.3935
G01 X7.3309 Y7.3836
G01 X7.3248 Y7.3707
G01 X7.3200 Y7.3573
G01 X7.3172 Y7.3461
G01 X7.3144 Y7.3280
G01 X7.3138 Y7.3151
G01 X7.3138 Y5.8104
G01 X6.4874 Y5.8104
G01 X6.4814 Y5.8123
G01 X6.4618 Y5.8170
G01 X6.4445 Y5.8195
G01 X6.4244 Y5.8204
G01 X5.1927 Y5.8204
G01 X5.1873 Y5.8200
G01 X5.1820 Y5.8190
G01 X5.1767 Y5.8176
G01 X5.1717 Y5.8156
G01 X5.1634 Y5.8111
G01 X5.1590 Y5.8078
G01 X5.1550 Y5.8042
G01 X5.1513 Y5.8002
G01 X5.1481 Y5.7958
G01 X5.1453 Y5.7911
G01 X5.1430 Y5.7862
G01 X5.1412 Y5.7811
G01 X5.1398 Y5.7759
G01 X5.1390 Y5.7705
G01 X5.1388 Y5.7651
G00 Z2.0000
G00 X8.3377 Y2.8654
G01 F60.00
G01 Z-0.0301
G01 F80.00
G01 X8.3323 Y2.8650
G01 X8.3270 Y2.8640
G01 X8.3217 Y2.8626
G01 X8.3167 Y2.8606
G01 X8.3084 Y2.8561
G01 X8.3040 Y2.8528
G01 X8.3000 Y2.8492
G01 X8.2939 Y2.8419
G01 X8.2910 Y2.8373
G01 X8.2885 Y2.8325
G01 X8.2854 Y2.8235
G01 X8.2844 Y2.8182
G01 X8.2838 Y2.8128
G01 X8.2838 Y1.8101
G01 X8.2842 Y1.8033
G01 X8.2858 Y1.7953
G01 X8.2885 Y1.7877
G01 X8.2924 Y1.7805
G01 X8.2981 Y1.7729
G01 X8.3040 Y1.7673
G01 X8.3106 Y1.7626
G01 X8.3179 Y1.7590
G01 X8.3256 Y1.7564
G01 X8.3337 Y1.7550
G01 X8.3391 Y1.7548
G01 X8.6391 Y1.7548
G01 X8.6458 Y1.7552
G01 X8.6538 Y1.7568
G01 X8.6627 Y1.7601
G01 X8.6698 Y1.7641
G01 X8.6762 Y1.7691
G01 X8.6818 Y1.7750
G01 X8.6865 Y1.7816
G01 X8.6902 Y1.7889
G01 X8.6927 Y1.7966
G01 X8.6941 Y1.8047
G01 X8.6944 Y1.8101
G01 X8.6944 Y2.2255
G01 X8.7027 Y2.2348
G01 X8.7146 Y2.2511
G01 X8.7242 Y2.2673
G01 X8.7323 Y2.2842
G01 X8.7396 Y2.3045
G01 X8.7439 Y2.3214
G01 X8.7476 Y2.3453
G01 X8.7484 Y2.3641
G01 X8.7484 Y2.9050
G01 X8.9631 Y3.1197
G01 X11.2911 Y3.1197
G01 X11.3112 Y3.1207
G01 X11.3311 Y3.1236
G01 X11.3507 Y3.1285
G01 X11.3697 Y3.1353
G01 X11.3879 Y3.1440
G01 X11.4052 Y3.1543
G01 X11.4214 Y3.1663
G01 X11.4353 Y3.1789
G01 X11.6912 Y3.4348
G01 X11.7055 Y3.4509
G01 X11.7158 Y3.4650
G01 X11.7249 Y3.4799
G01 X11.7348 Y3.5005
G01 X11.7416 Y3.5195
G01 X11.7470 Y3.5417
G01 X11.7495 Y3.5589
G01 X11.7504 Y3.5777
G01 X11.7504 Y4.2141
G01 X11.7495 Y4.2342
G01 X11.7465 Y4.2541
G01 X11.7416 Y4.2737
G01 X11.7348 Y4.2927
G01 X11.7262 Y4.3109
G01 X11.7173 Y4.3259
G01 X11.7038 Y4.3444
G01 X11.6883 Y4.3612
G01 X11.6754 Y4.3728
G01 X11.6614 Y4.3833
G01 X11.6419 Y4.3952
G01 X11.6211 Y4.4048
G01 X11.6047 Y4.4106
G01 X11.5878 Y4.4149
G01 X11.5652 Y4.4185
G01 X11.5424 Y4.4194
G01 X11.5249 Y4.4185
G01 X11.5077 Y4.4160
G01 X11.4855 Y4.4106
G01 X11.4640 Y4.4027
G01 X11.4483 Y4.3952
G01 X11.4333 Y4.3863
G01 X11.4148 Y4.3728
G01 X11.3980 Y4.3573
G01 X11.3863 Y4.3444
G01 X11.3751 Y4.3293
G01 X11.3627 Y4.3085
G01 X11.3553 Y4.2927
G01 X11.3494 Y4.2763
G01 X11.3436 Y4.2541
G01 X11.3405 Y4.2315
G01 X11.3397 Y4.2141
G01 X11.3397 Y3.6641
G01 X11.2060 Y3.5304
G01 X8.8781 Y3.5304
G01 X8.8579 Y3.5295
G01 X8.8367 Y3.5262
G01 X8.8159 Y3.5208
G01 X8.7995 Y3.5148
G01 X8.7837 Y3.5074
G01 X8.7640 Y3.4958
G01 X8.7457 Y3.4821
G01 X8.7329 Y3.4703
G01 X8.3979 Y3.1353
G01 X8.3826 Y3.1182
G01 X8.3709 Y3.1019
G01 X8.3620 Y3.0869
G01 X8.3544 Y3.0711
G01 X8.3465 Y3.0497
G01 X8.3414 Y3.0288
G01 X8.3387 Y3.0102
G01 X8.3377 Y2.9914
G01 X8.3377 Y2.8654
G00 Z2.0000
G00 X8.8391 Y1.7548
G01 F60.00
G01 Z-0.0301
G01 F80.00
G01 X9.1391 Y1.7548
G01 X9.1458 Y1.7552
G01 X9.1538 Y1.7568
G01 X9.1615 Y1.7595
G01 X9.1687 Y1.7634
G01 X9.1752 Y1.7682
G01 X9.1809 Y1.7740
G01 X9.1858 Y1.7805
G01 X9.1896 Y1.7877
G01 X9.1924 Y1.7953
G01 X9.1938 Y1.8020
G01 X9.1944 Y1.8101
G01 X9.1944 Y2.8114
G01 X9.1933 Y2.8209
G01 X9.1911 Y2.8287
G01 X9.1872 Y2.8373
G01 X9.1827 Y2.8441
G01 X9.1762 Y2.8510
G01 X9.1698 Y2.8561
G01 X9.1627 Y2.8601
G01 X9.1538 Y2.8634
G01 X9.1472 Y2.8648
G01 X9.1391 Y2.8654
G01 X8.8391 Y2.8654
G01 X8.8337 Y2.8651
G01 X8.8256 Y2.8637
G01 X8.8179 Y2.8612
G01 X8.8106 Y2.8575
G01 X8.8040 Y2.8528
G01 X8.7972 Y2.8462
G01 X8.7924 Y2.8397
G01 X8.7885 Y2.8325
G01 X8.7858 Y2.8248
G01 X8.7844 Y2.8182
G01 X8.7838 Y2.8101
G01 X8.7838 Y1.8074
G01 X8.7851 Y1.7980
G01 X8.7866 Y1.7927
G01 X8.7885 Y1.7877
G01 X8.7910 Y1.7828
G01 X8.7939 Y1.7782
G01 X8.7972 Y1.7740
G01 X8.8009 Y1.7700
G01 X8.8051 Y1.7665
G01 X8.8095 Y1.7634
G01 X8.8142 Y1.7607
G01 X8.8192 Y1.7585
G01 X8.8283 Y1.7558
G01 X8.8337 Y1.7550
G01 X8.8391 Y1.7548
G00 Z2.0000
G00 X9.3391 Y1.7548
G01 F60.00
G01 Z-0.0301
G01 F80.00
G01 X9.6391 Y1.7548
G01 X9.6458 Y1.7552
G01 X9.6538 Y1.7568
G01 X9.6615 Y1.7595
G01 X9.6687 Y1.7634
G01 X9.6752 Y1.7682
G01 X9.6809 Y1.7740
G01 X9.6858 Y1.7805
G01 X9.6896 Y1.7877
G01 X9.6924 Y1.7953
G01 X9.6938 Y1.8020
G01 X9.6944 Y1.8101
G01 X9.6944 Y2.8114
G01 X9.6933 Y2.8209
G01 X9.6911 Y2.8287
G01 X9.6872 Y2.8373
G01 X9.6827 Y2.8441
G01 X9.6762 Y2.8510
G01 X9.6698 Y2.8561
G01 X9.6627 Y2.8601
G01 X9.6538 Y2.8634
G01 X9.6472 Y2.8648
G01 X9.6391 Y2.8654
G01 X9.3391 Y2.8654
G01 X9.3337 Y2.8651
G01 X9.3256 Y2.8637
G01 X9.3179 Y2.8612
G01 X9.3106 Y2.8575
G01 X9.3040 Y2.8528
G01 X9.2972 Y2.8462
G01 X9.2924 Y2.8397
G01 X9.2885 Y2.8325
G01 X9.2858 Y2.8248
G01 X9.2844 Y2.8182
G01 X9.2838 Y2.8101
G01 X9.2838 Y1.8074
G01 X9.2851 Y1.7980
G01 X9.2866 Y1.7927
G01 X9.2885 Y1.7877
G01 X9.2910 Y1.7828
G01 X9.2939 Y1.7782
G01 X9.2972 Y1.7740
G01 X9.3009 Y1.7700
G01 X9.3051 Y1.7665
G01 X9.3095 Y1.7634
G01 X9.3142 Y1.7607
G01 X9.3192 Y1.7585
G01 X9.3283 Y1.7558
G01 X9.3337 Y1.7550
G01 X9.3391 Y1.7548
G00 Z2.0000
G00 X9.8391 Y1.7548
G01 F60.00
G01 Z-0.0301
G01 F80.00
G01 X10.1391 Y1.7548
G01 X10.1458 Y1.7552
G01 X10.1538 Y1.7568
G01 X10.1615 Y1.7595
G01 X10.1687 Y1.7634
G01 X10.1752 Y1.7682
G01 X10.1809 Y1.7740
G01 X10.1858 Y1.7805
G01 X10.1896 Y1.7877
G01 X10.1924 Y1.7953
G01 X10.1938 Y1.8020
G01 X10.1944 Y1.8101
G01 X10.1944 Y2.8114
G01 X10.1933 Y2.8209
G01 X10.1911 Y2.8287
G01 X10.1872 Y2.8373
G01 X10.1827 Y2.8441
G01 X10.1762 Y2.8510
G01 X10.1698 Y2.8561
G01 X10.1627 Y2.8601
G01 X10.1538 Y2.8634
G01 X10.1472 Y2.8648
G01 X10.1391 Y2.8654
G01 X9.8391 Y2.8654
G01 X9.8337 Y2.8651
G01 X9.8256 Y2.8637
G01 X9.8179 Y2.8612
G01 X9.8106 Y2.8575
G01 X9.8040 Y2.8528
G01 X9.7972 Y2.8462
G01 X9.7924 Y2.8397
G01 X9.7885 Y2.8325
G01 X9.7858 Y2.8248
G01 X9.7844 Y2.8182
G01 X9.7838 Y2.8101
G01 X9.7838 Y1.8074
G01 X9.7851 Y1.7980
G01 X9.7866 Y1.7927
G01 X9.7885 Y1.7877
G01 X9.7910 Y1.7828
G01 X9.7939 Y1.7782
G01 X9.7972 Y1.7740
G01 X9.8009 Y1.7700
G01 X9.8051 Y1.7665
G01 X9.8095 Y1.7634
G01 X9.8142 Y1.7607
G01 X9.8192 Y1.7585
G01 X9.8283 Y1.7558
G01 X9.8337 Y1.7550
G01 X9.8391 Y1.7548
G00 Z2.0000
G00 X10.3391 Y1.7548
G01 F60.00
G01 Z-0.0301
G01 F80.00
G01 X10.6391 Y1.7548
G01 X10.6458 Y1.7552
G01 X10.6538 Y1.7568
G01 X10.6615 Y1.7595
G01 X10.6687 Y1.7634
G01 X10.6752 Y1.7682
G01 X10.6809 Y1.7740
G01 X10.6858 Y1.7805
G01 X10.6896 Y1.7877
G01 X10.6924 Y1.7953
G01 X10.6938 Y1.8020
G01 X10.6944 Y1.8101
G01 X10.6944 Y2.8114
G01 X10.6933 Y2.8209
G01 X10.6911 Y2.8287
G01 X10.6872 Y2.8373
G01 X10.6827 Y2.8441
G01 X10.6762 Y2.8510
G01 X10.6698 Y2.8561
G01 X10.6627 Y2.8601
G01 X10.6538 Y2.8634
G01 X10.6472 Y2.8648
G01 X10.6391 Y2.8654
G01 X10.3391 Y2.8654
G01 X10.3337 Y2.8651
G01 X10.3256 Y2.8637
G01 X10.3179 Y2.8612
G01 X10.3106 Y2.8575
G01 X10.3040 Y2.8528
G01 X10.2972 Y2.8462
G01 X10.2924 Y2.8397
G01 X10.2885 Y2.8325
G01 X10.2858 Y2.8248
G01 X10.2844 Y2.8182
G01 X10.2838 Y2.8101
G01 X10.2838 Y1.8074
G01 X10.2851 Y1.7980
G01 X10.2866 Y1.7927
G01 X10.2885 Y1.7877
G01 X10.2910 Y1.7828
G01 X10.2939 Y1.7782
G01 X10.2972 Y1.7740
G01 X10.3009 Y1.7700
G01 X10.3051 Y1.7665
G01 X10.3095 Y1.7634
G01 X10.3142 Y1.7607
G01 X10.3192 Y1.7585
G01 X10.3283 Y1.7558
G01 X10.3337 Y1.7550
G01 X10.3391 Y1.7548
G00 Z2.0000
G00 X10.8391 Y1.7548
G01 F60.00
G01 Z-0.0301
G01 F80.00
G01 X11.1391 Y1.7548
G01 X11.1458 Y1.7552
G01 X11.1538 Y1.7568
G01 X11.1615 Y1.7595
G01 X11.1687 Y1.7634
G01 X11.1752 Y1.7682
G01 X11.1809 Y1.7740
G01 X11.1858 Y1.7805
G01 X11.1896 Y1.7877
G01 X11.1924 Y1.7953
G01 X11.1938 Y1.8020
G01 X11.1944 Y1.8101
G01 X11.1944 Y2.8114
G01 X11.1933 Y2.8209
G01 X11.1911 Y2.8287
G01 X11.1872 Y2.8373
G01 X11.1827 Y2.8441
G01 X11.1762 Y2.8510
G01 X11.1698 Y2.8561
G01 X11.1627 Y2.8601
G01 X11.1538 Y2.8634
G01 X11.1472 Y2.8648
G01 X11.1391 Y2.8654
G01 X10.8391 Y2.8654
G01 X10.8337 Y2.8651
G01 X10.8256 Y2.8637
G01 X10.8179 Y2.8612
G01 X10.8106 Y2.8575
G01 X10.8040 Y2.8528
G01 X10.7972 Y2.8462
G01 X10.7924 Y2.8397
G01 X10.7885 Y2.8325
G01 X10.7858 Y2.8248
G01 X10.7844 Y2.8182
G01 X10.7838 Y2.8101
G01 X10.7838 Y1.8074
G01 X10.7851 Y1.7980
G01 X10.7866 Y1.7927
G01 X10.7885 Y1.7877
G01 X10.7910 Y1.7828
G01 X10.7939 Y1.7782
G01 X10.7972 Y1.7740
G01 X10.8009 Y1.7700
G01 X10.8051 Y1.7665
G01 X10.8095 Y1.7634
G01 X10.8142 Y1.7607
G01 X10.8192 Y1.7585
G01 X10.8283 Y1.7558
G01 X10.8337 Y1.7550
G01 X10.8391 Y1.7548
G00 Z2.0000
G00 X11.3391 Y1.7548
G01 F60.00
G01 Z-0.0301
G01 F80.00
G01 X11.6391 Y1.7548
G01 X11.6458 Y1.7552
G01 X11.6538 Y1.7568
G01 X11.6615 Y1.7595
G01 X11.6687 Y1.7634
G01 X11.6752 Y1.7682
G01 X11.6809 Y1.7740
G01 X11.6858 Y1.7805
G01 X11.6896 Y1.7877
G01 X11.6924 Y1.7953
G01 X11.6938 Y1.8020
G01 X11.6944 Y1.8101
G01 X11.6944 Y2.8114
G01 X11.6933 Y2.8209
G01 X11.6911 Y2.8287
G01 X11.6872 Y2.8373
G01 X11.6827 Y2.8441
G01 X11.6762 Y2.8510
G01 X11.6698 Y2.8561
G01 X11.6627 Y2.8601
G01 X11.6538 Y2.8634
G01 X11.6472 Y2.8648
G01 X11.6391 Y2.8654
G01 X11.3391 Y2.8654
G01 X11.3337 Y2.8651
G01 X11.3256 Y2.8637
G01 X11.3179 Y2.8612
G01 X11.3106 Y2.8575
G01 X11.3040 Y2.8528
G01 X11.2972 Y2.8462
G01 X11.2924 Y2.8397
G01 X11.2885 Y2.8325
G01 X11.2858 Y2.8248
G01 X11.2844 Y2.8182
G01 X11.2838 Y2.8101
G01 X11.2838 Y1.8074
G01 X11.2851 Y1.7980
G01 X11.2866 Y1.7927
G01 X11.2885 Y1.7877
G01 X11.2910 Y1.7828
G01 X11.2939 Y1.7782
G01 X11.2972 Y1.7740
G01 X11.3009 Y1.7700
G01 X11.3051 Y1.7665
G01 X11.3095 Y1.7634
G01 X11.3142 Y1.7607
G01 X11.3192 Y1.7585
G01 X11.3283 Y1.7558
G01 X11.3337 Y1.7550
G01 X11.3391 Y1.7548
G00 Z2.0000
G00 X11.8391 Y1.7548
G01 F60.00
G01 Z-0.0301
G01 F80.00
G01 X12.1391 Y1.7548
G01 X12.1458 Y1.7552
G01 X12.1538 Y1.7568
G01 X12.1615 Y1.7595
G01 X12.1687 Y1.7634
G01 X12.1752 Y1.7682
G01 X12.1809 Y1.7740
G01 X12.1858 Y1.7805
G01 X12.1896 Y1.7877
G01 X12.1924 Y1.7953
G01 X12.1938 Y1.8020
G01 X12.1944 Y1.8101
G01 X12.1944 Y2.8114
G01 X12.1933 Y2.8209
G01 X12.1911 Y2.8287
G01 X12.1872 Y2.8373
G01 X12.1827 Y2.8441
G01 X12.1762 Y2.8510
G01 X12.1698 Y2.8561
G01 X12.1627 Y2.8601
G01 X12.1538 Y2.8634
G01 X12.1472 Y2.8648
G01 X12.1391 Y2.8654
G01 X11.8391 Y2.8654
G01 X11.8337 Y2.8651
G01 X11.8256 Y2.8637
G01 X11.8179 Y2.8612
G01 X11.8106 Y2.8575
G01 X11.8040 Y2.8528
G01 X11.7972 Y2.8462
G01 X11.7924 Y2.8397
G01 X11.7885 Y2.8325
G01 X11.7858 Y2.8248
G01 X11.7844 Y2.8182
G01 X11.7838 Y2.8101
G01 X11.7838 Y1.8074
G01 X11.7851 Y1.7980
G01 X11.7866 Y1.7927
G01 X11.7885 Y1.7877
G01 X11.7910 Y1.7828
G01 X11.7939 Y1.7782
G01 X11.7972 Y1.7740
G01 X11.8009 Y1.7700
G01 X11.8051 Y1.7665
G01 X11.8095 Y1.7634
G01 X11.8142 Y1.7607
G01 X11.8192 Y1.7585
G01 X11.8283 Y1.7558
G01 X11.8337 Y1.7550
G01 X11.8391 Y1.7548
G00 Z2.0000
G00 X12.2641 Y2.9198
G01 F60.00
G01 Z-0.0301
G01 F80.00
G01 X13.2641 Y2.9198
G01 X13.2735 Y2.9206
G01 X13.2827 Y2.9230
G01 X13.2901 Y2.9263
G01 X13.2970 Y2.9307
G01 X13.3032 Y2.9360
G01 X13.3077 Y2.9411
G01 X13.3115 Y2.9466
G01 X13.3152 Y2.9539
G01 X13.3177 Y2.9616
G01 X13.3191 Y2.9697
G01 X13.3194 Y2.9751
G01 X13.3194 Y3.2751
G01 X13.3186 Y3.2845
G01 X13.3161 Y3.2937
G01 X13.3128 Y3.3011
G01 X13.3085 Y3.3080
G01 X13.3032 Y3.3142
G01 X13.2970 Y3.3195
G01 X13.2901 Y3.3238
G01 X13.2827 Y3.3271
G01 X13.2749 Y3.3293
G01 X13.2654 Y3.3304
G01 X12.2641 Y3.3304
G01 X12.2546 Y3.3296
G01 X12.2454 Y3.3271
G01 X12.2392 Y3.3245
G01 X12.2322 Y3.3203
G01 X12.2259 Y3.3151
G01 X12.2205 Y3.3091
G01 X12.2160 Y3.3023
G01 X12.2130 Y3.2962
G01 X12.2104 Y3.2885
G01 X12.2090 Y3.2805
G01 X12.2088 Y3.2751
G01 X12.2088 Y2.9724
G01 X12.2094 Y2.9670
G01 X12.2104 Y2.9616
G01 X12.2120 Y2.9564
G01 X12.2141 Y2.9514
G01 X12.2189 Y2.9432
G01 X12.2222 Y2.9390
G01 X12.2259 Y2.9350
G01 X12.2301 Y2.9315
G01 X12.2345 Y2.9284
G01 X12.2392 Y2.9257
G01 X12.2442 Y2.9235
G01 X12.2493 Y2.9218
G01 X12.2546 Y2.9206
G01 X12.2641 Y2.9198
G00 Z2.0000
G00 X12.2641 Y3.4198
G01 F60.00
G01 Z-0.0301
G01 F80.00
G01 X13.2641 Y3.4198
G01 X13.2735 Y3.4206
G01 X13.2827 Y3.4230
G01 X13.2901 Y3.4263
G01 X13.2970 Y3.4307
G01 X13.3032 Y3.4360
G01 X13.3077 Y3.4411
G01 X13.3115 Y3.4466
G01 X13.3152 Y3.4539
G01 X13.3177 Y3.4616
G01 X13.3191 Y3.4697
G01 X13.3194 Y3.4751
G01 X13.3194 Y3.7751
G01 X13.3186 Y3.7845
G01 X13.3161 Y3.7937
G01 X13.3128 Y3.8011
G01 X13.3085 Y3.8080
G01 X13.3032 Y3.8142
G01 X13.2970 Y3.8195
G01 X13.2901 Y3.8238
G01 X13.2827 Y3.8271
G01 X13.2749 Y3.8293
G01 X13.2654 Y3.8304
G01 X12.2641 Y3.8304
G01 X12.2546 Y3.8296
G01 X12.2454 Y3.8271
G01 X12.2392 Y3.8245
G01 X12.2322 Y3.8203
G01 X12.2259 Y3.8151
G01 X12.2205 Y3.8091
G01 X12.2160 Y3.8023
G01 X12.2130 Y3.7962
G01 X12.2104 Y3.7885
G01 X12.2090 Y3.7805
G01 X12.2088 Y3.7751
G01 X12.2088 Y3.4724
G01 X12.2094 Y3.4670
G01 X12.2104 Y3.4616
G01 X12.2120 Y3.4564
G01 X12.2141 Y3.4514
G01 X12.2189 Y3.4432
G01 X12.2222 Y3.4390
G01 X12.2259 Y3.4350
G01 X12.2301 Y3.4315
G01 X12.2345 Y3.4284
G01 X12.2392 Y3.4257
G01 X12.2442 Y3.4235
G01 X12.2493 Y3.4218
G01 X12.2546 Y3.4206
G01 X12.2641 Y3.4198
G00 Z2.0000
G00 X12.2641 Y3.9198
G01 F60.00
G01 Z-0.0301
G01 F80.00
G01 X13.2641 Y3.9198
G01 X13.2735 Y3.9206
G01 X13.2827 Y3.9230
G01 X13.2901 Y3.9263
G01 X13.2970 Y3.9307
G01 X13.3032 Y3.9360
G01 X13.3077 Y3.9411
G01 X13.3115 Y3.9466
G01 X13.3152 Y3.9539
G01 X13.3177 Y3.9616
G01 X13.3191 Y3.9697
G01 X13.3194 Y3.9751
G01 X13.3194 Y4.2751
G01 X13.3186 Y4.2845
G01 X13.3161 Y4.2937
G01 X13.3128 Y4.3011
G01 X13.3085 Y4.3080
G01 X13.3032 Y4.3142
G01 X13.2970 Y4.3195
G01 X13.2901 Y4.3238
G01 X13.2827 Y4.3271
G01 X13.2735 Y4.3296
G01 X13.2654 Y4.3304
G01 X12.2641 Y4.3304
G01 X12.2546 Y4.3296
G01 X12.2454 Y4.3271
G01 X12.2380 Y4.3238
G01 X12.2311 Y4.3195
G01 X12.2259 Y4.3151
G01 X12.2205 Y4.3091
G01 X12.2160 Y4.3023
G01 X12.2130 Y4.2962
G01 X12.2104 Y4.2885
G01 X12.2090 Y4.2805
G01 X12.2088 Y4.2751
G01 X12.2088 Y3.9724
G01 X12.2094 Y3.9670
G01 X12.2104 Y3.9616
G01 X12.2120 Y3.9564
G01 X12.2141 Y3.9514
G01 X12.2189 Y3.9432
G01 X12.2222 Y3.9390
G01 X12.2259 Y3.9350
G01 X12.2301 Y3.9315
G01 X12.2345 Y3.9284
G01 X12.2392 Y3.9257
G01 X12.2442 Y3.9235
G01 X12.2493 Y3.9218
G01 X12.2546 Y3.9206
G01 X12.2641 Y3.9198
G00 Z2.0000
G00 X12.2641 Y4.4198
G01 F60.00
G01 Z-0.0301
G01 F80.00
G01 X13.2641 Y4.4198
G01 X13.2735 Y4.4206
G01 X13.2827 Y4.4230
G01 X13.2901 Y4.4263
G01 X13.2970 Y4.4307
G01 X13.3032 Y4.4360
G01 X13.3077 Y4.4411
G01 X13.3115 Y4.4466
G01 X13.3152 Y4.4539
G01 X13.3177 Y4.4616
G01 X13.3191 Y4.4697
G01 X13.3194 Y4.4751
G01 X13.3194 Y4.7751
G01 X13.3186 Y4.7845
G01 X13.3161 Y4.7937
G01 X13.3128 Y4.8011
G01 X13.3085 Y4.8080
G01 X13.3032 Y4.8142
G01 X13.2970 Y4.8195
G01 X13.2901 Y4.8238
G01 X13.2827 Y4.8271
G01 X13.2735 Y4.8296
G01 X13.2654 Y4.8304
G01 X12.2641 Y4.8304
G01 X12.2546 Y4.8296
G01 X12.2454 Y4.8271
G01 X12.2380 Y4.8238
G01 X12.2311 Y4.8195
G01 X12.2259 Y4.8151
G01 X12.2205 Y4.8091
G01 X12.2160 Y4.8023
G01 X12.2130 Y4.7962
G01 X12.2104 Y4.7885
G01 X12.2090 Y4.7805
G01 X12.2088 Y4.7751
G01 X12.2088 Y4.4724
G01 X12.2101 Y4.4630
G01 X12.2116 Y4.4577
G01 X12.2135 Y4.4527
G01 X12.2160 Y4.4478
G01 X12.2189 Y4.4432
G01 X12.2222 Y4.4390
G01 X12.2259 Y4.4350
G01 X12.2301 Y4.4315
G01 X12.2345 Y4.4284
G01 X12.2392 Y4.4257
G01 X12.2442 Y4.4235
G01 X12.2493 Y4.4218
G01 X12.2546 Y4.4206
G01 X12.2641 Y4.4198
G00 Z2.0000
G00 X12.2641 Y4.9198
G01 F60.00
G01 Z-0.0301
G01 F80.00
G01 X13.2641 Y4.9198
G01 X13.2735 Y4.9206
G01 X13.2827 Y4.9230
G01 X13.2901 Y4.9263
G01 X13.2970 Y4.9307
G01 X13.3032 Y4.9360
G01 X13.3077 Y4.9411
G01 X13.3115 Y4.9466
G01 X13.3152 Y4.9539
G01 X13.3177 Y4.9616
G01 X13.3191 Y4.9697
G01 X13.3194 Y4.9751
G01 X13.3194 Y5.2751
G01 X13.3186 Y5.2845
G01 X13.3161 Y5.2937
G01 X13.3128 Y5.3011
G01 X13.3085 Y5.3080
G01 X13.3032 Y5.3142
G01 X13.2970 Y5.3195
G01 X13.2901 Y5.3238
G01 X13.2827 Y5.3271
G01 X13.2735 Y5.3296
G01 X13.2654 Y5.3304
G01 X12.2641 Y5.3304
G01 X12.2546 Y5.3296
G01 X12.2454 Y5.3271
G01 X12.2380 Y5.3238
G01 X12.2311 Y5.3195
G01 X12.2259 Y5.3151
G01 X12.2205 Y5.3091
G01 X12.2160 Y5.3023
G01 X12.2130 Y5.2962
G01 X12.2104 Y5.2885
G01 X12.2090 Y5.2805
G01 X12.2088 Y5.2751
G01 X12.2088 Y4.9724
G01 X12.2101 Y4.9630
G01 X12.2116 Y4.9577
G01 X12.2135 Y4.9527
G01 X12.2160 Y4.9478
G01 X12.2189 Y4.9432
G01 X12.2222 Y4.9390
G01 X12.2259 Y4.9350
G01 X12.2301 Y4.9315
G01 X12.2345 Y4.9284
G01 X12.2392 Y4.9257
G01 X12.2442 Y4.9235
G01 X12.2493 Y4.9218
G01 X12.2546 Y4.9206
G01 X12.2641 Y4.9198
G00 Z2.0000
G00 X12.2641 Y5.4198
G01 F60.00
G01 Z-0.0301
G01 F80.00
G01 X13.2641 Y5.4198
G01 X13.2735 Y5.4206
G01 X13.2827 Y5.4230
G01 X13.2901 Y5.4263
G01 X13.2970 Y5.4307
G01 X13.3032 Y5.4360
G01 X13.3077 Y5.4411
G01 X13.3115 Y5.4466
G01 X13.3152 Y5.4539
G01 X13.3177 Y5.4616
G01 X13.3191 Y5.4697
G01 X13.3194 Y5.4751
G01 X13.3194 Y5.7751
G01 X13.3186 Y5.7845
G01 X13.3161 Y5.7937
G01 X13.3128 Y5.8011
G01 X13.3085 Y5.8080
G01 X13.3032 Y5.8142
G01 X13.2970 Y5.8195
G01 X13.2901 Y5.8238
G01 X13.2827 Y5.8271
G01 X13.2735 Y5.8296
G01 X13.2654 Y5.8304
G01 X12.2641 Y5.8304
G01 X12.2546 Y5.8296
G01 X12.2454 Y5.8271
G01 X12.2380 Y5.8238
G01 X12.2311 Y5.8195
G01 X12.2259 Y5.8151
G01 X12.2205 Y5.8091
G01 X12.2160 Y5.8023
G01 X12.2130 Y5.7962
G01 X12.2104 Y5.7885
G01 X12.2090 Y5.7805
G01 X12.2088 Y5.7751
G01 X12.2088 Y5.4724
G01 X12.2101 Y5.4630
G01 X12.2116 Y5.4577
G01 X12.2135 Y5.4527
G01 X12.2160 Y5.4478
G01 X12.2189 Y5.4432
G01 X12.2222 Y5.4390
G01 X12.2259 Y5.4350
G01 X12.2301 Y5.4315
G01 X12.2345 Y5.4284
G01 X12.2392 Y5.4257
G01 X12.2442 Y5.4235
G01 X12.2493 Y5.4218
G01 X12.2546 Y5.4206
G01 X12.2641 Y5.4198
G00 Z2.0000
G00 X12.2641 Y5.9198
G01 F60.00
G01 Z-0.0301
G01 F80.00
G01 X13.2641 Y5.9198
G01 X13.2735 Y5.9206
G01 X13.2827 Y5.9230
G01 X13.2901 Y5.9263
G01 X13.2970 Y5.9307
G01 X13.3032 Y5.9360
G01 X13.3077 Y5.9411
G01 X13.3115 Y5.9466
G01 X13.3152 Y5.9539
G01 X13.3177 Y5.9616
G01 X13.3191 Y5.9697
G01 X13.3194 Y5.9751
G01 X13.3194 Y6.2751
G01 X13.3186 Y6.2845
G01 X13.3161 Y6.2937
G01 X13.3128 Y6.3011
G01 X13.3085 Y6.3080
G01 X13.3032 Y6.3142
G01 X13.2970 Y6.3195
G01 X13.2901 Y6.3238
G01 X13.2827 Y6.3271
G01 X13.2735 Y6.3296
G01 X13.2654 Y6.3304
G01 X12.2641 Y6.3304
G01 X12.2546 Y6.3296
G01 X12.2454 Y6.3271
G01 X12.2380 Y6.3238
G01 X12.2311 Y6.3195
G01 X12.2259 Y6.3151
G01 X12.2205 Y6.3091
G01 X12.2160 Y6.3023
G01 X12.2130 Y6.2962
G01 X12.2104 Y6.2885
G01 X12.2090 Y6.2805
G01 X12.2088 Y6.2751
G01 X12.2088 Y5.9724
G01 X12.2101 Y5.9630
G01 X12.2116 Y5.9577
G01 X12.2135 Y5.9527
G01 X12.2160 Y5.9478
G01 X12.2189 Y5.9432
G01 X12.2222 Y5.9390
G01 X12.2259 Y5.9350
G01 X12.2301 Y5.9315
G01 X12.2345 Y5.9284
G01 X12.2392 Y5.9257
G01 X12.2442 Y5.9235
G01 X12.2493 Y5.9218
G01 X12.2546 Y5.9206
G01 X12.2641 Y5.9198
G00 Z2.0000
G00 X12.2641 Y6.4198
G01 F60.00
G01 Z-0.0301
G01 F80.00
G01 X13.2641 Y6.4198
G01 X13.2735 Y6.4206
G01 X13.2827 Y6.4230
G01 X13.2901 Y6.4263
G01 X13.2970 Y6.4307
G01 X13.3032 Y6.4360
G01 X13.3077 Y6.4411
G01 X13.3115 Y6.4466
G01 X13.3152 Y6.4539
G01 X13.3177 Y6.4616
G01 X13.3191 Y6.4697
G01 X13.3194 Y6.4751
G01 X13.3194 Y6.7751
G01 X13.3186 Y6.7845
G01 X13.3161 Y6.7937
G01 X13.3128 Y6.8011
G01 X13.3085 Y6.8080
G01 X13.3032 Y6.8142
G01 X13.2970 Y6.8195
G01 X13.2901 Y6.8238
G01 X13.2827 Y6.8271
G01 X13.2735 Y6.8296
G01 X13.2654 Y6.8304
G01 X12.2641 Y6.8304
G01 X12.2546 Y6.8296
G01 X12.2454 Y6.8271
G01 X12.2380 Y6.8238
G01 X12.2311 Y6.8195
G01 X12.2259 Y6.8151
G01 X12.2205 Y6.8091
G01 X12.2160 Y6.8023
G01 X12.2130 Y6.7962
G01 X12.2104 Y6.7885
G01 X12.2090 Y6.7805
G01 X12.2088 Y6.7751
G01 X12.2088 Y6.4724
G01 X12.2101 Y6.4630
G01 X12.2116 Y6.4577
G01 X12.2135 Y6.4527
G01 X12.2160 Y6.4478
G01 X12.2189 Y6.4432
G01 X12.2222 Y6.4390
G01 X12.2259 Y6.4350
G01 X12.2301 Y6.4315
G01 X12.2345 Y6.4284
G01 X12.2392 Y6.4257
G01 X12.2442 Y6.4235
G01 X12.2493 Y6.4218
G01 X12.2546 Y6.4206
G01 X12.2641 Y6.4198
G00 Z2.0000
G00 X12.2641 Y6.9198
G01 F60.00
G01 Z-0.0301
G01 F80.00
G01 X13.2641 Y6.9198
G01 X13.2735 Y6.9206
G01 X13.2827 Y6.9230
G01 X13.2901 Y6.9263
G01 X13.2970 Y6.9307
G01 X13.3032 Y6.9360
G01 X13.3077 Y6.9411
G01 X13.3115 Y6.9466
G01 X13.3152 Y6.9539
G01 X13.3177 Y6.9616
G01 X13.3191 Y6.9697
G01 X13.3194 Y6.9751
G01 X13.3194 Y7.2751
G01 X13.3186 Y7.2845
G01 X13.3161 Y7.2937
G01 X13.3128 Y7.3011
G01 X13.3085 Y7.3080
G01 X13.3032 Y7.3142
G01 X13.2970 Y7.3195
G01 X13.2901 Y7.3238
G01 X13.2827 Y7.3271
G01 X13.2735 Y7.3296
G01 X13.2654 Y7.3304
G01 X12.2641 Y7.3304
G01 X12.2546 Y7.3296
G01 X12.2454 Y7.3271
G01 X12.2380 Y7.3238
G01 X12.2311 Y7.3195
G01 X12.2259 Y7.3151
G01 X12.2205 Y7.3091
G01 X12.2160 Y7.3023
G01 X12.2130 Y7.2962
G01 X12.2104 Y7.2885
G01 X12.2090 Y7.2805
G01 X12.2088 Y7.2751
G01 X12.2088 Y6.9724
G01 X12.2101 Y6.9630
G01 X12.2116 Y6.9577
G01 X12.2135 Y6.9527
G01 X12.2160 Y6.9478
G01 X12.2189 Y6.9432
G01 X12.2222 Y6.9390
G01 X12.2259 Y6.9350
G01 X12.2301 Y6.9315
G01 X12.2345 Y6.9284
G01 X12.2392 Y6.9257
G01 X12.2442 Y6.9235
G01 X12.2493 Y6.9218
G01 X12.2546 Y6.9206
G01 X12.2641 Y6.9198
G00 Z2.0000
G00 X12.2641 Y7.4198
G01 F60.00
G01 Z-0.0301
G01 F80.00
G01 X13.2641 Y7.4198
G01 X13.2735 Y7.4206
G01 X13.2827 Y7.4230
G01 X13.2901 Y7.4263
G01 X13.2970 Y7.4307
G01 X13.3032 Y7.4360
G01 X13.3077 Y7.4411
G01 X13.3115 Y7.4466
G01 X13.3152 Y7.4539
G01 X13.3177 Y7.4616
G01 X13.3191 Y7.4697
G01 X13.3194 Y7.4751
G01 X13.3194 Y7.7751
G01 X13.3186 Y7.7845
G01 X13.3161 Y7.7937
G01 X13.3128 Y7.8011
G01 X13.3085 Y7.8080
G01 X13.3032 Y7.8142
G01 X13.2970 Y7.8195
G01 X13.2901 Y7.8238
G01 X13.2827 Y7.8271
G01 X13.2735 Y7.8296
G01 X13.2654 Y7.8304
G01 X12.2641 Y7.8304
G01 X12.2546 Y7.8296
G01 X12.2454 Y7.8271
G01 X12.2380 Y7.8238
G01 X12.2311 Y7.8195
G01 X12.2259 Y7.8151
G01 X12.2205 Y7.8091
G01 X12.2160 Y7.8023
G01 X12.2130 Y7.7962
G01 X12.2104 Y7.7885
G01 X12.2090 Y7.7805
G01 X12.2088 Y7.7751
G01 X12.2088 Y7.4724
G01 X12.2101 Y7.4630
G01 X12.2116 Y7.4577
G01 X12.2135 Y7.4527
G01 X12.2160 Y7.4478
G01 X12.2189 Y7.4432
G01 X12.2222 Y7.4390
G01 X12.2259 Y7.4350
G01 X12.2301 Y7.4315
G01 X12.2345 Y7.4284
G01 X12.2392 Y7.4257
G01 X12.2442 Y7.4235
G01 X12.2493 Y7.4218
G01 X12.2546 Y7.4206
G01 X12.2641 Y7.4198
G00 Z2.0000
G00 X12.2641 Y7.9198
G01 F60.00
G01 Z-0.0301
G01 F80.00
G01 X13.2641 Y7.9198
G01 X13.2735 Y7.9206
G01 X13.2827 Y7.9230
G01 X13.2901 Y7.9263
G01 X13.2970 Y7.9307
G01 X13.3032 Y7.9360
G01 X13.3077 Y7.9411
G01 X13.3115 Y7.9466
G01 X13.3152 Y7.9539
G01 X13.3177 Y7.9616
G01 X13.3191 Y7.9697
G01 X13.3194 Y7.9751
G01 X13.3194 Y8.2751
G01 X13.3186 Y8.2845
G01 X13.3161 Y8.2937
G01 X13.3128 Y8.3011
G01 X13.3085 Y8.3080
G01 X13.3022 Y8.3151
G01 X13.2959 Y8.3203
G01 X13.2889 Y8.3245
G01 X13.2814 Y8.3276
G01 X13.2735 Y8.3296
G01 X13.2654 Y8.3304
G01 X12.2641 Y8.3304
G01 X12.2546 Y8.3296
G01 X12.2454 Y8.3271
G01 X12.2380 Y8.3238
G01 X12.2311 Y8.3195
G01 X12.2250 Y8.3142
G01 X12.2205 Y8.3091
G01 X12.2160 Y8.3023
G01 X12.2130 Y8.2962
G01 X12.2104 Y8.2885
G01 X12.2090 Y8.2805
G01 X12.2088 Y8.2751
G01 X12.2088 Y7.9724
G01 X12.2101 Y7.9630
G01 X12.2116 Y7.9577
G01 X12.2135 Y7.9527
G01 X12.2160 Y7.9478
G01 X12.2189 Y7.9432
G01 X12.2222 Y7.9390
G01 X12.2259 Y7.9350
G01 X12.2301 Y7.9315
G01 X12.2345 Y7.9284
G01 X12.2392 Y7.9257
G01 X12.2442 Y7.9235
G01 X12.2493 Y7.9218
G01 X12.2546 Y7.9206
G01 X12.2641 Y7.9198
G00 Z2.0000
G00 X12.2641 Y8.4198
G01 F60.00
G01 Z-0.0301
G01 F80.00
G01 X13.2641 Y8.4198
G01 X13.2735 Y8.4206
G01 X13.2827 Y8.4230
G01 X13.2901 Y8.4263
G01 X13.2970 Y8.4307
G01 X13.3032 Y8.4360
G01 X13.3077 Y8.4411
G01 X13.3115 Y8.4466
G01 X13.3152 Y8.4539
G01 X13.3177 Y8.4616
G01 X13.3191 Y8.4697
G01 X13.3194 Y8.4751
G01 X13.3194 Y8.7751
G01 X13.3186 Y8.7845
G01 X13.3161 Y8.7937
G01 X13.3128 Y8.8011
G01 X13.3085 Y8.8080
G01 X13.3022 Y8.8151
G01 X13.2959 Y8.8203
G01 X13.2889 Y8.8245
G01 X13.2814 Y8.8276
G01 X13.2735 Y8.8296
G01 X13.2654 Y8.8304
G01 X12.2641 Y8.8304
G01 X12.2546 Y8.8296
G01 X12.2454 Y8.8271
G01 X12.2380 Y8.8238
G01 X12.2311 Y8.8195
G01 X12.2250 Y8.8142
G01 X12.2205 Y8.8091
G01 X12.2160 Y8.8023
G01 X12.2130 Y8.7962
G01 X12.2104 Y8.7885
G01 X12.2090 Y8.7805
G01 X12.2088 Y8.7751
G01 X12.2088 Y8.4724
G01 X12.2101 Y8.4630
G01 X12.2116 Y8.4577
G01 X12.2135 Y8.4527
G01 X12.2160 Y8.4478
G01 X12.2189 Y8.4432
G01 X12.2222 Y8.4390
G01 X12.2259 Y8.4350
G01 X12.2334 Y8.4291
G01 X12.2380 Y8.4263
G01 X12.2429 Y8.4240
G01 X12.2480 Y8.4222
G01 X12.2533 Y8.4208
G01 X12.2587 Y8.4200
G01 X12.2641 Y8.4198
G00 Z2.0000
G00 X11.8038 Y9.9701
G01 F60.00
G01 Z-0.0301
G01 F80.00
G01 X11.8038 Y8.9701
G01 X11.8046 Y8.9606
G01 X11.8070 Y8.9514
G01 X11.8103 Y8.9440
G01 X11.8147 Y8.9371
G01 X11.8190 Y8.9319
G01 X11.8251 Y8.9265
G01 X11.8318 Y8.9220
G01 X11.8392 Y8.9185
G01 X11.8456 Y8.9164
G01 X11.8537 Y8.9150
G01 X11.8591 Y8.9148
G01 X12.1591 Y8.9148
G01 X12.1685 Y8.9156
G01 X12.1777 Y8.9180
G01 X12.1863 Y8.9220
G01 X12.1931 Y8.9265
G01 X12.1991 Y8.9319
G01 X12.2043 Y8.9382
G01 X12.2085 Y8.9452
G01 X12.2116 Y8.9527
G01 X12.2136 Y8.9606
G01 X12.2144 Y8.9687
G01 X12.2144 Y9.9701
G01 X12.2136 Y9.9795
G01 X12.2111 Y9.9887
G01 X12.2078 Y9.9961
G01 X12.2035 Y10.0030
G01 X12.1991 Y10.0082
G01 X12.1931 Y10.0137
G01 X12.1875 Y10.0175
G01 X12.1802 Y10.0212
G01 X12.1725 Y10.0237
G01 X12.1645 Y10.0251
G01 X12.1591 Y10.0254
G01 X11.8564 Y10.0253
G01 X11.8470 Y10.0240
G01 X11.8417 Y10.0226
G01 X11.8367 Y10.0206
G01 X11.8318 Y10.0182
G01 X11.8272 Y10.0153
G01 X11.8230 Y10.0119
G01 X11.8190 Y10.0082
G01 X11.8131 Y10.0008
G01 X11.8103 Y9.9961
G01 X11.8080 Y9.9912
G01 X11.8062 Y9.9861
G01 X11.8048 Y9.9809
G01 X11.8040 Y9.9755
G01 X11.8038 Y9.9701
G00 Z2.0000
G00 X11.3038 Y9.9701
G01 F60.00
G01 Z-0.0301
G01 F80.00
G01 X11.3038 Y8.9701
G01 X11.3046 Y8.9606
G01 X11.3070 Y8.9514
G01 X11.3103 Y8.9440
G01 X11.3147 Y8.9371
G01 X11.3190 Y8.9319
G01 X11.3251 Y8.9265
G01 X11.3318 Y8.9220
G01 X11.3392 Y8.9185
G01 X11.3456 Y8.9164
G01 X11.3537 Y8.9150
G01 X11.3591 Y8.9148
G01 X11.6591 Y8.9148
G01 X11.6685 Y8.9156
G01 X11.6777 Y8.9180
G01 X11.6863 Y8.9220
G01 X11.6931 Y8.9265
G01 X11.6991 Y8.9319
G01 X11.7043 Y8.9382
G01 X11.7085 Y8.9452
G01 X11.7116 Y8.9527
G01 X11.7136 Y8.9606
G01 X11.7144 Y8.9687
G01 X11.7144 Y9.9701
G01 X11.7136 Y9.9795
G01 X11.7111 Y9.9887
G01 X11.7078 Y9.9961
G01 X11.7035 Y10.0030
G01 X11.6991 Y10.0082
G01 X11.6931 Y10.0137
G01 X11.6875 Y10.0175
G01 X11.6802 Y10.0212
G01 X11.6725 Y10.0237
G01 X11.6645 Y10.0251
G01 X11.6591 Y10.0254
G01 X11.3564 Y10.0253
G01 X11.3470 Y10.0240
G01 X11.3417 Y10.0226
G01 X11.3367 Y10.0206
G01 X11.3318 Y10.0182
G01 X11.3272 Y10.0153
G01 X11.3230 Y10.0119
G01 X11.3190 Y10.0082
G01 X11.3131 Y10.0008
G01 X11.3103 Y9.9961
G01 X11.3080 Y9.9912
G01 X11.3062 Y9.9861
G01 X11.3048 Y9.9809
G01 X11.3040 Y9.9755
G01 X11.3038 Y9.9701
G00 Z2.0000
G00 X10.8038 Y9.9701
G01 F60.00
G01 Z-0.0301
G01 F80.00
G01 X10.8038 Y8.9701
G01 X10.8046 Y8.9606
G01 X10.8070 Y8.9514
G01 X10.8103 Y8.9440
G01 X10.8147 Y8.9371
G01 X10.8190 Y8.9319
G01 X10.8251 Y8.9265
G01 X10.8318 Y8.9220
G01 X10.8392 Y8.9185
G01 X10.8456 Y8.9164
G01 X10.8537 Y8.9150
G01 X10.8591 Y8.9148
G01 X11.1591 Y8.9148
G01 X11.1685 Y8.9156
G01 X11.1777 Y8.9180
G01 X11.1863 Y8.9220
G01 X11.1931 Y8.9265
G01 X11.1991 Y8.9319
G01 X11.2043 Y8.9382
G01 X11.2085 Y8.9452
G01 X11.2116 Y8.9527
G01 X11.2136 Y8.9606
G01 X11.2144 Y8.9687
G01 X11.2144 Y9.9701
G01 X11.2136 Y9.9795
G01 X11.2111 Y9.9887
G01 X11.2078 Y9.9961
G01 X11.2035 Y10.0030
G01 X11.1991 Y10.0082
G01 X11.1931 Y10.0137
G01 X11.1875 Y10.0175
G01 X11.1802 Y10.0212
G01 X11.1725 Y10.0237
G01 X11.1645 Y10.0251
G01 X11.1591 Y10.0254
G01 X10.8564 Y10.0253
G01 X10.8470 Y10.0240
G01 X10.8417 Y10.0226
G01 X10.8367 Y10.0206
G01 X10.8318 Y10.0182
G01 X10.8272 Y10.0153
G01 X10.8230 Y10.0119
G01 X10.8190 Y10.0082
G01 X10.8131 Y10.0008
G01 X10.8103 Y9.9961
G01 X10.8080 Y9.9912
G01 X10.8062 Y9.9861
G01 X10.8048 Y9.9809
G01 X10.8040 Y9.9755
G01 X10.8038 Y9.9701
G00 Z2.0000
G00 X10.3038 Y9.9701
G01 F60.00
G01 Z-0.0301
G01 F80.00
G01 X10.3038 Y8.9701
G01 X10.3046 Y8.9606
G01 X10.3070 Y8.9514
G01 X10.3103 Y8.9440
G01 X10.3147 Y8.9371
G01 X10.3190 Y8.9319
G01 X10.3251 Y8.9265
G01 X10.3318 Y8.9220
G01 X10.3392 Y8.9185
G01 X10.3456 Y8.9164
G01 X10.3537 Y8.9150
G01 X10.3591 Y8.9148
G01 X10.6591 Y8.9148
G01 X10.6685 Y8.9156
G01 X10.6777 Y8.9180
G01 X10.6863 Y8.9220
G01 X10.6931 Y8.9265
G01 X10.6991 Y8.9319
G01 X10.7043 Y8.9382
G01 X10.7085 Y8.9452
G01 X10.7116 Y8.9527
G01 X10.7136 Y8.9606
G01 X10.7144 Y8.9687
G01 X10.7144 Y9.9701
G01 X10.7136 Y9.9795
G01 X10.7111 Y9.9887
G01 X10.7078 Y9.9961
G01 X10.7035 Y10.0030
G01 X10.6991 Y10.0082
G01 X10.6931 Y10.0137
G01 X10.6875 Y10.0175
G01 X10.6802 Y10.0212
G01 X10.6725 Y10.0237
G01 X10.6645 Y10.0251
G01 X10.6591 Y10.0254
G01 X10.3564 Y10.0253
G01 X10.3470 Y10.0240
G01 X10.3417 Y10.0226
G01 X10.3367 Y10.0206
G01 X10.3318 Y10.0182
G01 X10.3272 Y10.0153
G01 X10.3230 Y10.0119
G01 X10.3190 Y10.0082
G01 X10.3131 Y10.0008
G01 X10.3103 Y9.9961
G01 X10.3080 Y9.9912
G01 X10.3062 Y9.9861
G01 X10.3048 Y9.9809
G01 X10.3040 Y9.9755
G01 X10.3038 Y9.9701
G00 Z2.0000
G00 X9.8038 Y9.9701
G01 F60.00
G01 Z-0.0301
G01 F80.00
G01 X9.8038 Y8.9701
G01 X9.8046 Y8.9606
G01 X9.8070 Y8.9514
G01 X9.8103 Y8.9440
G01 X9.8147 Y8.9371
G01 X9.8190 Y8.9319
G01 X9.8251 Y8.9265
G01 X9.8318 Y8.9220
G01 X9.8392 Y8.9185
G01 X9.8456 Y8.9164
G01 X9.8537 Y8.9150
G01 X9.8591 Y8.9148
G01 X10.1591 Y8.9148
G01 X10.1685 Y8.9156
G01 X10.1777 Y8.9180
G01 X10.1863 Y8.9220
G01 X10.1931 Y8.9265
G01 X10.1991 Y8.9319
G01 X10.2043 Y8.9382
G01 X10.2085 Y8.9452
G01 X10.2116 Y8.9527
G01 X10.2136 Y8.9606
G01 X10.2144 Y8.9687
G01 X10.2144 Y9.9701
G01 X10.2136 Y9.9795
G01 X10.2111 Y9.9887
G01 X10.2078 Y9.9961
G01 X10.2035 Y10.0030
G01 X10.1991 Y10.0082
G01 X10.1931 Y10.0137
G01 X10.1875 Y10.0175
G01 X10.1802 Y10.0212
G01 X10.1725 Y10.0237
G01 X10.1645 Y10.0251
G01 X10.1591 Y10.0254
G01 X9.8564 Y10.0253
G01 X9.8470 Y10.0240
G01 X9.8417 Y10.0226
G01 X9.8367 Y10.0206
G01 X9.8318 Y10.0182
G01 X9.8272 Y10.0153
G01 X9.8230 Y10.0119
G01 X9.8190 Y10.0082
G01 X9.8131 Y10.0008
G01 X9.8103 Y9.9961
G01 X9.8080 Y9.9912
G01 X9.8062 Y9.9861
G01 X9.8048 Y9.9809
G01 X9.8040 Y9.9755
G01 X9.8038 Y9.9701
G00 Z2.0000
G00 X6.0131 Y13.4140
G01 F60.00
G01 Z-0.0301
G01 F80.00
G01 X6.8577 Y12.5695
G01 X6.8577 Y10.0254
G01 X6.8523 Y10.0250
G01 X6.8470 Y10.0240
G01 X6.8417 Y10.0226
G01 X6.8367 Y10.0206
G01 X6.8284 Y10.0161
G01 X6.8240 Y10.0128
G01 X6.8200 Y10.0092
G01 X6.8139 Y10.0019
G01 X6.8110 Y9.9973
G01 X6.8085 Y9.9925
G01 X6.8054 Y9.9835
G01 X6.8044 Y9.9782
G01 X6.8038 Y9.9728
G01 X6.8038 Y8.9701
G01 X6.8040 Y8.9647
G01 X6.8058 Y8.9553
G01 X6.8091 Y8.9464
G01 X6.8139 Y8.9382
G01 X6.8200 Y8.9310
G01 X6.8261 Y8.9257
G01 X6.8342 Y8.9207
G01 X6.8430 Y8.9172
G01 X6.8523 Y8.9152
G01 X6.8591 Y8.9148
G01 X7.1591 Y8.9148
G01 X7.1658 Y8.9152
G01 X7.1725 Y8.9164
G01 X7.1790 Y8.9185
G01 X7.1863 Y8.9220
G01 X7.1931 Y8.9265
G01 X7.1991 Y8.9319
G01 X7.2043 Y8.9382
G01 X7.2085 Y8.9452
G01 X7.2116 Y8.9527
G01 X7.2136 Y8.9606
G01 X7.2144 Y8.9701
G01 X7.2144 Y9.3315
G01 X7.2227 Y9.3408
G01 X7.2346 Y9.3571
G01 X7.2442 Y9.3733
G01 X7.2533 Y9.3927
G01 X7.2596 Y9.4105
G01 X7.2645 Y9.4300
G01 X7.2675 Y9.4499
G01 X7.2684 Y9.4687
G01 X7.2684 Y12.6546
G01 X7.2671 Y12.6774
G01 X7.2645 Y12.6946
G01 X7.2603 Y12.7116
G01 X7.2528 Y12.7332
G01 X7.2429 Y12.7538
G01 X7.2338 Y12.7687
G01 X7.2235 Y12.7827
G01 X7.2083 Y12.7998
G01 X6.3035 Y13.7045
G01 X6.2864 Y13.7197
G01 X6.2724 Y13.7300
G01 X6.2563 Y13.7398
G01 X6.2369 Y13.7490
G01 X6.2205 Y13.7550
G01 X6.2010 Y13.7601
G01 X6.1957 Y13.7612
G01 X6.1784 Y13.7637
G01 X6.1583 Y13.7646
G01 X6.1381 Y13.7637
G01 X6.1182 Y13.7607
G01 X6.0986 Y13.7558
G01 X6.0797 Y13.7490
G01 X6.0615 Y13.7404
G01 X6.0465 Y13.7315
G01 X6.0290 Y13.7189
G01 X6.0150 Y13.7064
G01 X6.0112 Y13.7025
G01 X5.9978 Y13.6874
G01 X5.9875 Y13.6734
G01 X5.9771 Y13.6561
G01 X5.9685 Y13.6379
G01 X5.9617 Y13.6189
G01 X5.9568 Y13.5993
G01 X5.9539 Y13.5794
G01 X5.9529 Y13.5593
G01 X5.9537 Y13.5418
G01 X5.9564 Y13.5219
G01 X5.9574 Y13.5165
G01 X5.9622 Y13.4984
G01 X5.9696 Y13.4782
G01 X5.9772 Y13.4625
G01 X5.9875 Y13.4452
G01 X5.9995 Y13.4290
G01 X6.0131 Y13.4140
G00 Z2.0000
G00 X5.5579 Y13.0859
G01 F60.00
G01 Z-0.0301
G01 F80.00
G01 X6.3037 Y12.3400
G01 X6.3037 Y9.4701
G01 X6.3038 Y8.9701
G01 X6.3040 Y8.9647
G01 X6.3058 Y8.9553
G01 X6.3091 Y8.9464
G01 X6.3139 Y8.9382
G01 X6.3200 Y8.9310
G01 X6.3261 Y8.9257
G01 X6.3342 Y8.9207
G01 X6.3430 Y8.9172
G01 X6.3523 Y8.9152
G01 X6.3591 Y8.9148
G01 X6.6591 Y8.9148
G01 X6.6658 Y8.9152
G01 X6.6738 Y8.9168
G01 X6.6827 Y8.9201
G01 X6.6898 Y8.9241
G01 X6.6962 Y8.9291
G01 X6.7027 Y8.9361
G01 X6.7078 Y8.9440
G01 X6.7111 Y8.9514
G01 X6.7136 Y8.9606
G01 X6.7144 Y8.9701
G01 X6.7144 Y12.4251
G01 X6.7131 Y12.4479
G01 X6.7105 Y12.4651
G01 X6.7060 Y12.4834
G01 X6.6988 Y12.5037
G01 X6.6889 Y12.5242
G01 X6.6798 Y12.5392
G01 X6.6695 Y12.5532
G01 X6.6552 Y12.5693
G01 X5.8483 Y13.3763
G01 X5.8312 Y13.3915
G01 X5.8172 Y13.4018
G01 X5.7999 Y13.4122
G01 X5.7817 Y13.4208
G01 X5.7627 Y13.4276
G01 X5.7431 Y13.4325
G01 X5.7259 Y13.4351
G01 X5.7044 Y13.4364
G01 X5.6857 Y13.4357
G01 X5.6657 Y13.4330
G01 X5.6604 Y13.4319
G01 X5.6435 Y13.4276
G01 X5.6245 Y13.4208
G01 X5.6063 Y13.4122
G01 X5.5890 Y13.4018
G01 X5.5728 Y13.3898
G01 X5.5579 Y13.3763
G01 X5.5443 Y13.3614
G01 X5.5339 Y13.3474
G01 X5.5226 Y13.3291
G01 X5.5144 Y13.3121
G01 X5.5124 Y13.3071
G01 X5.5058 Y13.2881
G01 X5.5016 Y13.2711
G01 X5.4987 Y13.2512
G01 X5.4977 Y13.2311
G01 X5.4987 Y13.2109
G01 X5.5016 Y13.1910
G01 X5.5065 Y13.1715
G01 X5.5133 Y13.1525
G01 X5.5207 Y13.1367
G01 X5.5309 Y13.1193
G01 X5.5339 Y13.1148
G01 X5.5443 Y13.1008
G01 X5.5579 Y13.0859
G00 Z2.0000
G00 X5.6723 Y14.1470
G01 F60.00
G01 Z-0.0301
G01 F80.00
G01 X5.6598 Y14.1330
G01 X5.6472 Y14.1156
G01 X5.6383 Y14.1006
G01 X5.6307 Y14.0848
G01 X5.6237 Y14.0660
G01 X5.6179 Y14.0438
G01 X5.6150 Y14.0239
G01 X5.6140 Y14.0038
G01 X5.6149 Y13.9850
G01 X5.6179 Y13.9637
G01 X5.6228 Y13.9442
G01 X5.6296 Y13.9252
G01 X5.6383 Y13.9070
G01 X5.6486 Y13.8897
G01 X5.6606 Y13.8735
G01 X5.6742 Y13.8586
G01 X5.6912 Y13.8433
G01 X5.7053 Y13.8330
G01 X5.7226 Y13.8227
G01 X5.7408 Y13.8140
G01 X5.7598 Y13.8072
G01 X5.7793 Y13.8023
G01 X5.7992 Y13.7994
G01 X5.8194 Y13.7984
G01 X5.8395 Y13.7994
G01 X5.8594 Y13.8023
G01 X5.8816 Y13.8081
G01 X5.8980 Y13.8140
G01 X5.9138 Y13.8214
G01 X5.9323 Y13.8323
G01 X5.9497 Y13.8450
G01 X5.9626 Y13.8567
G01 X6.0139 Y13.9079
G01 X6.3027 Y13.9079
G01 X7.3037 Y12.9070
G01 X7.3037 Y9.4701
G01 X7.3038 Y8.9701
G01 X7.3040 Y8.9647
G01 X7.3058 Y8.9553
G01 X7.3091 Y8.9464
G01 X7.3139 Y8.9382
G01 X7.3200 Y8.9310
G01 X7.3261 Y8.9257
G01 X7.3342 Y8.9207
G01 X7.3430 Y8.9172
G01 X7.3523 Y8.9152
G01 X7.3591 Y8.9148
G01 X7.6591 Y8.9148
G01 X7.6685 Y8.9156
G01 X7.6738 Y8.9168
G01 X7.6790 Y8.9185
G01 X7.6863 Y8.9220
G01 X7.6942 Y8.9273
G01 X7.7000 Y8.9329
G01 X7.7051 Y8.9394
G01 X7.7091 Y8.9464
G01 X7.7120 Y8.9540
G01 X7.7138 Y8.9620
G01 X7.7144 Y8.9701
G01 X7.7144 Y12.9921
G01 X7.7135 Y13.0122
G01 X7.7105 Y13.0321
G01 X7.7056 Y13.0517
G01 X7.6993 Y13.0694
G01 X7.6902 Y13.0889
G01 X7.6798 Y13.1062
G01 X7.6678 Y13.1224
G01 X7.6543 Y13.1373
G01 X6.5330 Y14.2585
G01 X6.5181 Y14.2720
G01 X6.5041 Y14.2825
G01 X6.4846 Y14.2944
G01 X6.4664 Y14.3030
G01 X6.4448 Y14.3105
G01 X6.4278 Y14.3147
G01 X6.4106 Y14.3173
G01 X6.3891 Y14.3186
G01 X5.9289 Y14.3186
G01 X5.9087 Y14.3177
G01 X5.8901 Y14.3150
G01 X5.8693 Y14.3098
G01 X5.8478 Y14.3019
G01 X5.8321 Y14.2944
G01 X5.8171 Y14.2855
G01 X5.7996 Y14.2729
G01 X5.7837 Y14.2585
G01 X5.6723 Y14.1470
G00 Z2.0000
G00 X6.6343 Y14.3599
G01 F60.00
G01 Z-0.0301
G01 F80.00
G01 X7.8037 Y13.1904
G01 X7.8037 Y9.4701
G01 X7.8038 Y8.9701
G01 X7.8040 Y8.9647
G01 X7.8058 Y8.9553
G01 X7.8091 Y8.9464
G01 X7.8139 Y8.9382
G01 X7.8200 Y8.9310
G01 X7.8261 Y8.9257
G01 X7.8342 Y8.9207
G01 X7.8430 Y8.9172
G01 X7.8523 Y8.9152
G01 X7.8591 Y8.9148
G01 X8.1591 Y8.9148
G01 X8.1658 Y8.9152
G01 X8.1738 Y8.9168
G01 X8.1827 Y8.9201
G01 X8.1898 Y8.9241
G01 X8.1962 Y8.9291
G01 X8.2027 Y8.9361
G01 X8.2078 Y8.9440
G01 X8.2116 Y8.9527
G01 X8.2136 Y8.9606
G01 X8.2144 Y8.9701
G01 X8.2144 Y13.2755
G01 X8.2131 Y13.2983
G01 X8.2105 Y13.3155
G01 X8.2060 Y13.3338
G01 X8.1988 Y13.3541
G01 X8.1889 Y13.3746
G01 X8.1798 Y13.3896
G01 X8.1695 Y13.4036
G01 X8.1543 Y13.4207
G01 X6.9248 Y14.6503
G01 X6.9099 Y14.6638
G01 X6.8937 Y14.6758
G01 X6.8764 Y14.6862
G01 X6.8582 Y14.6948
G01 X6.8392 Y14.7016
G01 X6.8223 Y14.7059
G01 X6.8024 Y14.7091
G01 X6.7970 Y14.7097
G01 X6.7782 Y14.7104
G01 X6.7568 Y14.7091
G01 X6.7395 Y14.7065
G01 X6.7200 Y14.7016
G01 X6.7010 Y14.6948
G01 X6.6828 Y14.6862
G01 X6.6655 Y14.6758
G01 X6.6493 Y14.6638
G01 X6.6344 Y14.6503
G01 X6.6208 Y14.6354
G01 X6.6088 Y14.6192
G01 X6.5985 Y14.6019
G01 X6.5898 Y14.5837
G01 X6.5830 Y14.5647
G01 X6.5781 Y14.5451
G01 X6.5752 Y14.5252
G01 X6.5742 Y14.5051
G01 X6.5750 Y14.4877
G01 X6.5755 Y14.4823
G01 X6.5787 Y14.4624
G01 X6.5835 Y14.4442
G01 X6.5909 Y14.4240
G01 X6.5984 Y14.4083
G01 X6.6088 Y14.3910
G01 X6.6208 Y14.3748
G01 X6.6343 Y14.3599
G00 Z2.0000
G00 X7.2519 Y14.5258
G01 F60.00
G01 Z-0.0301
G01 F80.00
G01 X8.3037 Y13.4739
G01 X8.3039 Y8.9660
G01 X8.3054 Y8.9566
G01 X8.3085 Y8.9477
G01 X8.3131 Y8.9394
G01 X8.3190 Y8.9319
G01 X8.3261 Y8.9257
G01 X8.3342 Y8.9207
G01 X8.3430 Y8.9172
G01 X8.3523 Y8.9152
G01 X8.3591 Y8.9148
G01 X8.6591 Y8.9148
G01 X8.6658 Y8.9152
G01 X8.6725 Y8.9164
G01 X8.6815 Y8.9195
G01 X8.6898 Y8.9241
G01 X8.6962 Y8.9291
G01 X8.7027 Y8.9361
G01 X8.7078 Y8.9440
G01 X8.7116 Y8.9527
G01 X8.7136 Y8.9606
G01 X8.7144 Y8.9701
G01 X8.7144 Y13.5590
G01 X8.7131 Y13.5818
G01 X8.7105 Y13.5990
G01 X8.7063 Y13.6160
G01 X8.6988 Y13.6376
G01 X8.6889 Y13.6581
G01 X8.6798 Y13.6731
G01 X8.6695 Y13.6871
G01 X8.6552 Y13.7032
G01 X7.5423 Y14.8162
G01 X7.5274 Y14.8297
G01 X7.5100 Y14.8425
G01 X7.4939 Y14.8521
G01 X7.4757 Y14.8607
G01 X7.4567 Y14.8675
G01 X7.4371 Y14.8724
G01 X7.4172 Y14.8754
G01 X7.3971 Y14.8763
G01 X7.3769 Y14.8754
G01 X7.3597 Y14.8729
G01 X7.3544 Y14.8718
G01 X7.3349 Y14.8667
G01 X7.3172 Y14.8602
G01 X7.2979 Y14.8508
G01 X7.2830 Y14.8417
G01 X7.2668 Y14.8297
G01 X7.2519 Y14.8162
G01 X7.2383 Y14.8013
G01 X7.2263 Y14.7851
G01 X7.2160 Y14.7678
G01 X7.2073 Y14.7496
G01 X7.2005 Y14.7306
G01 X7.1956 Y14.7110
G01 X7.1927 Y14.6911
G01 X7.1917 Y14.6710
G01 X7.1925 Y14.6536
G01 X7.1952 Y14.6336
G01 X7.1962 Y14.6283
G01 X7.2010 Y14.6101
G01 X7.2084 Y14.5899
G01 X7.2160 Y14.5742
G01 X7.2263 Y14.5569
G01 X7.2383 Y14.5407
G01 X7.2519 Y14.5258
G00 Z2.0000
G00 X5.1751 Y15.2794
G01 F60.00
G01 Z-0.0301
G01 F80.00
G01 X5.1634 Y15.2665
G01 X5.1529 Y15.2525
G01 X5.1410 Y15.2330
G01 X5.1324 Y15.2148
G01 X5.1264 Y15.1984
G01 X5.1207 Y15.1763
G01 X5.1175 Y15.1536
G01 X5.1167 Y15.1362
G01 X5.1177 Y15.1161
G01 X5.1212 Y15.0935
G01 X5.1255 Y15.0766
G01 X5.1313 Y15.0601
G01 X5.1409 Y15.0394
G01 X5.1528 Y15.0199
G01 X5.1632 Y15.0059
G01 X5.1758 Y14.9919
G01 X5.1938 Y14.9757
G01 X5.2079 Y14.9654
G01 X5.2228 Y14.9563
G01 X5.2434 Y14.9464
G01 X5.2650 Y14.9389
G01 X5.2819 Y14.9347
G01 X5.3018 Y14.9317
G01 X5.3247 Y14.9308
G01 X5.3421 Y14.9317
G01 X5.3594 Y14.9342
G01 X5.3816 Y14.9395
G01 X5.4018 Y14.9468
G01 X5.4211 Y14.9562
G01 X5.4361 Y14.9652
G01 X5.4512 Y14.9764
G01 X5.4662 Y14.9898
G01 X5.4961 Y15.0196
G01 X7.5414 Y15.0196
G01 X8.8037 Y13.7574
G01 X8.8039 Y8.9660
G01 X8.8054 Y8.9566
G01 X8.8085 Y8.9477
G01 X8.8131 Y8.9394
G01 X8.8190 Y8.9319
G01 X8.8261 Y8.9257
G01 X8.8342 Y8.9207
G01 X8.8392 Y8.9185
G01 X8.8443 Y8.9168
G01 X8.8537 Y8.9150
G01 X8.8591 Y8.9148
G01 X9.1604 Y8.9148
G01 X9.1685 Y8.9156
G01 X9.1751 Y8.9172
G01 X9.1827 Y8.9201
G01 X9.1887 Y8.9234
G01 X9.1942 Y8.9273
G01 X9.1991 Y8.9319
G01 X9.2035 Y8.9371
G01 X9.2072 Y8.9428
G01 X9.2107 Y8.9502
G01 X9.2127 Y8.9566
G01 X9.2140 Y8.9633
G01 X9.2144 Y8.9701
G01 X9.2144 Y13.8425
G01 X9.2135 Y13.8626
G01 X9.2110 Y13.8799
G01 X9.2056 Y13.9021
G01 X9.1977 Y13.9236
G01 X9.1902 Y13.9393
G01 X9.1806 Y13.9554
G01 X9.1678 Y13.9728
G01 X9.1543 Y13.9877
G01 X7.7717 Y15.3702
G01 X7.7568 Y15.3837
G01 X7.7383 Y15.3972
G01 X7.7233 Y15.4061
G01 X7.7075 Y15.4136
G01 X7.6874 Y15.4211
G01 X7.6639 Y15.4269
G01 X7.6466 Y15.4294
G01 X7.6265 Y15.4303
G01 X5.4111 Y15.4303
G01 X5.3937 Y15.4296
G01 X5.3710 Y15.4264
G01 X5.3489 Y15.4207
G01 X5.3325 Y15.4147
G01 X5.3167 Y15.4074
G01 X5.2959 Y15.3950
G01 X5.2809 Y15.3838
G01 X5.2669 Y15.3712
G01 X5.1751 Y15.2794
G00 Z2.0000
G00 X4.5627 Y15.3656
G01 F60.00
G01 Z-0.0301
G01 F80.00
G01 X4.5627 Y15.1361
G01 X4.5636 Y15.1173
G01 X4.5666 Y15.0960
G01 X4.5715 Y15.0765
G01 X4.5783 Y15.0575
G01 X4.5863 Y15.0405
G01 X4.5989 Y15.0198
G01 X4.6093 Y15.0058
G01 X4.6229 Y14.9909
G01 X4.6378 Y14.9773
G01 X4.6518 Y14.9669
G01 X4.6713 Y14.9550
G01 X4.6920 Y14.9454
G01 X4.7085 Y14.9395
G01 X4.7280 Y14.9346
G01 X4.7507 Y14.9315
G01 X4.7681 Y14.9307
G01 X4.7869 Y14.9316
G01 X4.8081 Y14.9346
G01 X4.8277 Y14.9395
G01 X4.8467 Y14.9463
G01 X4.8649 Y14.9550
G01 X4.8822 Y14.9653
G01 X4.8984 Y14.9773
G01 X4.9133 Y14.9909
G01 X4.9285 Y15.0079
G01 X4.9403 Y15.0243
G01 X4.9492 Y15.0393
G01 X4.9567 Y15.0550
G01 X4.9646 Y15.0765
G01 X4.9698 Y15.0973
G01 X4.9725 Y15.1159
G01 X4.9734 Y15.1347
G01 X4.9734 Y15.2805
G01 X5.2666 Y15.5736
G01 X7.7709 Y15.5736
G01 X9.3037 Y14.0408
G01 X9.3039 Y8.9660
G01 X9.3054 Y8.9566
G01 X9.3085 Y8.9477
G01 X9.3131 Y8.9394
G01 X9.3190 Y8.9319
G01 X9.3261 Y8.9257
G01 X9.3342 Y8.9207
G01 X9.3392 Y8.9185
G01 X9.3443 Y8.9168
G01 X9.3537 Y8.9150
G01 X9.3591 Y8.9148
G01 X9.6604 Y8.9148
G01 X9.6685 Y8.9156
G01 X9.6777 Y8.9180
G01 X9.6863 Y8.9220
G01 X9.6931 Y8.9265
G01 X9.6982 Y8.9310
G01 X9.7018 Y8.9350
G01 X9.7058 Y8.9405
G01 X9.7085 Y8.9452
G01 X9.7111 Y8.9514
G01 X9.7130 Y8.9580
G01 X9.7141 Y8.9647
G01 X9.7144 Y8.9701
G01 X9.7144 Y14.1259
G01 X9.7135 Y14.1460
G01 X9.7110 Y14.1633
G01 X9.7099 Y14.1686
G01 X9.7048 Y14.1881
G01 X9.6988 Y14.2045
G01 X9.6902 Y14.2227
G01 X9.6798 Y14.2400
G01 X9.6687 Y14.2551
G01 X9.6543 Y14.2711
G01 X8.0002 Y15.9251
G01 X7.9863 Y15.9377
G01 X7.9723 Y15.9482
G01 X7.9528 Y15.9601
G01 X7.9320 Y15.9697
G01 X7.9156 Y15.9755
G01 X7.8974 Y15.9801
G01 X7.8761 Y15.9834
G01 X7.8560 Y15.9843
G01 X5.1816 Y15.9843
G01 X5.1614 Y15.9834
G01 X5.1428 Y15.9807
G01 X5.1194 Y15.9747
G01 X5.1030 Y15.9687
G01 X5.0872 Y15.9613
G01 X5.0675 Y15.9497
G01 X5.0492 Y15.9360
G01 X5.0364 Y15.9242
G01 X4.6219 Y15.5098
G01 X4.6093 Y15.4959
G01 X4.5973 Y15.4797
G01 X4.5870 Y15.4624
G01 X4.5783 Y15.4442
G01 X4.5715 Y15.4252
G01 X4.5666 Y15.4056
G01 X4.5637 Y15.3857
G01 X4.5627 Y15.3656
G00 Z2.0000
G00 X7.7838 Y1.6714
G01 F60.00
G01 Z-0.0301
G01 F80.00
G01 X7.7847 Y1.6539
G01 X7.7873 Y1.6358
G01 X7.7484 Y1.6746
G01 X7.7484 Y2.3101
G01 X7.7477 Y2.3275
G01 X7.7450 Y2.3475
G01 X7.7439 Y2.3528
G01 X7.7396 Y2.3697
G01 X7.7323 Y2.3899
G01 X7.7242 Y2.4069
G01 X7.7146 Y2.4230
G01 X7.7027 Y2.4393
G01 X7.6944 Y2.4487
G01 X7.6944 Y2.8101
G01 X7.6936 Y2.8195
G01 X7.6924 Y2.8248
G01 X7.6907 Y2.8300
G01 X7.6872 Y2.8373
G01 X7.6827 Y2.8441
G01 X7.6772 Y2.8501
G01 X7.6720 Y2.8545
G01 X7.6663 Y2.8582
G01 X7.6590 Y2.8617
G01 X7.6512 Y2.8640
G01 X7.6431 Y2.8652
G01 X7.3391 Y2.8654
G01 X7.3296 Y2.8646
G01 X7.3243 Y2.8634
G01 X7.3192 Y2.8617
G01 X7.3118 Y2.8582
G01 X7.3051 Y2.8537
G01 X7.2990 Y2.8482
G01 X7.2939 Y2.8419
G01 X7.2897 Y2.8349
G01 X7.2866 Y2.8274
G01 X7.2846 Y2.8195
G01 X7.2838 Y2.8114
G01 X7.2838 Y1.8087
G01 X7.2842 Y1.8033
G01 X7.2851 Y1.7980
G01 X7.2866 Y1.7927
G01 X7.2885 Y1.7877
G01 X7.2910 Y1.7828
G01 X7.2939 Y1.7782
G01 X7.3000 Y1.7710
G01 X7.3040 Y1.7673
G01 X7.3084 Y1.7641
G01 X7.3167 Y1.7595
G01 X7.3217 Y1.7576
G01 X7.3270 Y1.7561
G01 X7.3323 Y1.7552
G01 X7.3377 Y1.7548
G01 X7.3377 Y1.5896
G01 X7.3386 Y1.5708
G01 X7.3416 Y1.5495
G01 X7.3458 Y1.5326
G01 X7.3524 Y1.5135
G01 X7.3544 Y1.5085
G01 X7.3620 Y1.4928
G01 X7.3723 Y1.4755
G01 X7.3843 Y1.4593
G01 X7.3969 Y1.4453
G01 X7.7837 Y1.0585
G01 X7.7837 Y0.6581
G01 X7.7847 Y0.6379
G01 X7.7876 Y0.6180
G01 X7.7925 Y0.5985
G01 X7.8004 Y0.5770
G01 X7.8080 Y0.5613
G01 X7.8169 Y0.5463
G01 X7.8286 Y0.5299
G01 X7.8439 Y0.5129
G01 X7.8588 Y0.4993
G01 X7.8750 Y0.4873
G01 X7.8947 Y0.4757
G01 X7.9105 Y0.4683
G01 X7.9308 Y0.4612
G01 X7.9490 Y0.4566
G01 X7.9717 Y0.4535
G01 X7.9891 Y0.4527
G01 X8.0065 Y0.4535
G01 X8.0265 Y0.4562
G01 X8.0474 Y0.4612
G01 X8.0651 Y0.4674
G01 X8.0859 Y0.4770
G01 X8.1032 Y0.4873
G01 X8.1194 Y0.4993
G01 X8.1343 Y0.5129
G01 X8.1478 Y0.5278
G01 X8.1598 Y0.5440
G01 X8.1702 Y0.5613
G01 X8.1788 Y0.5795
G01 X8.1856 Y0.5985
G01 X8.1905 Y0.6180
G01 X8.1935 Y0.6379
G01 X8.1944 Y0.6567
G01 X8.1944 Y1.1436
G01 X8.1935 Y1.1637
G01 X8.1908 Y1.1819
G01 X8.3377 Y1.0350
G01 X8.3377 Y0.4066
G01 X8.3249 Y0.3889
G01 X8.3160 Y0.3739
G01 X8.3084 Y0.3581
G01 X8.3005 Y0.3367
G01 X8.2956 Y0.3171
G01 X8.2927 Y0.2972
G01 X8.2918 Y0.2744
G01 X8.2927 Y0.2569
G01 X8.2952 Y0.2397
G01 X8.3002 Y0.2188
G01 X8.3073 Y0.1985
G01 X8.3160 Y0.1803
G01 X8.3263 Y0.1630
G01 X8.3401 Y0.1447
G01 X8.3519 Y0.1319
G01 X8.3647 Y0.1201
G01 X8.3808 Y0.1079
G01 X8.4003 Y0.0960
G01 X8.4185 Y0.0873
G01 X8.4375 Y0.0805
G01 X8.4570 Y0.0756
G01 X8.4769 Y0.0727
G01 X8.4998 Y0.0718
G01 X8.5172 Y0.0727
G01 X8.5345 Y0.0752
G01 X8.5541 Y0.0798
G01 X8.5757 Y0.0873
G01 X8.5927 Y0.0953
G01 X8.6112 Y0.1063
G01 X8.6294 Y0.1201
G01 X8.6423 Y0.1319
G01 X8.6883 Y0.1779
G01 X8.7035 Y0.1949
G01 X8.7138 Y0.2090
G01 X8.7229 Y0.2239
G01 X8.7328 Y0.2445
G01 X8.7403 Y0.2661
G01 X8.7445 Y0.2830
G01 X8.7471 Y0.3003
G01 X8.7484 Y0.3231
G01 X8.7484 Y1.1201
G01 X8.7475 Y1.1402
G01 X8.7450 Y1.1575
G01 X8.7439 Y1.1628
G01 X8.7388 Y1.1823
G01 X8.7328 Y1.1987
G01 X8.7248 Y1.2157
G01 X8.7123 Y1.2364
G01 X8.7018 Y1.2504
G01 X8.6902 Y1.2633
G01 X8.1944 Y1.7591
G01 X8.1944 Y2.8114
G01 X8.1933 Y2.8209
G01 X8.1911 Y2.8287
G01 X8.1872 Y2.8373
G01 X8.1827 Y2.8441
G01 X8.1772 Y2.8501
G01 X8.1709 Y2.8553
G01 X8.1639 Y2.8595
G01 X8.1551 Y2.8630
G01 X8.1472 Y2.8648
G01 X8.1391 Y2.8654
G01 X7.8391 Y2.8654
G01 X7.8337 Y2.8651
G01 X7.8256 Y2.8637
G01 X7.8179 Y2.8612
G01 X7.8106 Y2.8575
G01 X7.8040 Y2.8528
G01 X7.7981 Y2.8472
G01 X7.7931 Y2.8408
G01 X7.7891 Y2.8337
G01 X7.7862 Y2.8261
G01 X7.7844 Y2.8182
G01 X7.7838 Y2.8101
G01 X7.7838 Y1.6714
G00 Z2.0000
G00 X6.7838 Y1.3574
G01 F60.00
G01 Z-0.0301
G01 F80.00
G01 X6.7847 Y1.3399
G01 X6.7876 Y1.3200
G01 X6.7925 Y1.3005
G01 X6.7984 Y1.2840
G01 X6.8004 Y1.2790
G01 X6.8093 Y1.2609
G01 X6.8183 Y1.2460
G01 X6.8303 Y1.2298
G01 X6.8439 Y1.2149
G01 X7.1487 Y0.9100
G01 X7.1487 Y0.6581
G01 X7.1498 Y0.6366
G01 X7.1526 Y0.6180
G01 X7.1568 Y0.6011
G01 X7.1643 Y0.5795
G01 X7.1730 Y0.5613
G01 X7.1819 Y0.5463
G01 X7.1953 Y0.5278
G01 X7.2089 Y0.5129
G01 X7.2238 Y0.4993
G01 X7.2400 Y0.4873
G01 X7.2573 Y0.4770
G01 X7.2755 Y0.4683
G01 X7.2945 Y0.4615
G01 X7.3140 Y0.4566
G01 X7.3339 Y0.4537
G01 X7.3541 Y0.4527
G01 X7.3742 Y0.4537
G01 X7.3941 Y0.4566
G01 X7.4137 Y0.4615
G01 X7.4327 Y0.4683
G01 X7.4509 Y0.4770
G01 X7.4682 Y0.4873
G01 X7.4844 Y0.4993
G01 X7.4993 Y0.5129
G01 X7.5128 Y0.5278
G01 X7.5248 Y0.5440
G01 X7.5352 Y0.5613
G01 X7.5438 Y0.5795
G01 X7.5506 Y0.5985
G01 X7.5555 Y0.6180
G01 X7.5583 Y0.6366
G01 X7.5594 Y0.6581
G01 X7.5594 Y0.9964
G01 X7.5585 Y1.0152
G01 X7.5560 Y1.0325
G01 X7.5506 Y1.0547
G01 X7.5438 Y1.0737
G01 X7.5339 Y1.0942
G01 X7.5248 Y1.1092
G01 X7.5145 Y1.1232
G01 X7.5012 Y1.1383
G01 X7.1944 Y1.4451
G01 X7.1944 Y2.8114
G01 X7.1936 Y2.8195
G01 X7.1911 Y2.8287
G01 X7.1872 Y2.8373
G01 X7.1827 Y2.8441
G01 X7.1762 Y2.8510
G01 X7.1687 Y2.8568
G01 X7.1602 Y2.8612
G01 X7.1525 Y2.8637
G01 X7.1458 Y2.8650
G01 X7.1391 Y2.8654
G01 X6.8391 Y2.8654
G01 X6.8337 Y2.8651
G01 X6.8256 Y2.8637
G01 X6.8179 Y2.8612
G01 X6.8095 Y2.8568
G01 X6.8030 Y2.8519
G01 X6.7972 Y2.8462
G01 X6.7924 Y2.8397
G01 X6.7880 Y2.8312
G01 X6.7854 Y2.8235
G01 X6.7842 Y2.8168
G01 X6.7838 Y2.8101
G01 X6.7838 Y1.3574
G00 Z2.0000
G00 X6.2838 Y0.6314
G01 F60.00
G01 Z-0.0301
G01 F80.00
G01 X6.2847 Y0.6139
G01 X6.2876 Y0.5940
G01 X6.2925 Y0.5745
G01 X6.2984 Y0.5580
G01 X6.3004 Y0.5530
G01 X6.3093 Y0.5349
G01 X6.3183 Y0.5200
G01 X6.3312 Y0.5027
G01 X6.3439 Y0.4889
G01 X6.8279 Y0.0049
G01 X6.8428 Y-0.0087
G01 X6.8579 Y-0.0199
G01 X6.8763 Y-0.0310
G01 X6.8945 Y-0.0397
G01 X6.9135 Y-0.0465
G01 X6.9330 Y-0.0514
G01 X6.9529 Y-0.0543
G01 X6.9731 Y-0.0553
G01 X6.9932 Y-0.0543
G01 X7.0131 Y-0.0514
G01 X7.0327 Y-0.0465
G01 X7.0517 Y-0.0397
G01 X7.0699 Y-0.0310
G01 X7.0872 Y-0.0207
G01 X7.1034 Y-0.0087
G01 X7.1183 Y0.0049
G01 X7.1318 Y0.0198
G01 X7.1431 Y0.0349
G01 X7.1554 Y0.0557
G01 X7.1628 Y0.0715
G01 X7.1696 Y0.0905
G01 X7.1750 Y0.1127
G01 X7.1775 Y0.1299
G01 X7.1784 Y0.1501
G01 X7.1775 Y0.1702
G01 X7.1750 Y0.1875
G01 X7.1696 Y0.2097
G01 X7.1617 Y0.2311
G01 X7.1542 Y0.2469
G01 X7.1438 Y0.2642
G01 X7.1318 Y0.2804
G01 X7.1183 Y0.2953
G01 X6.6944 Y0.7191
G01 X6.6944 Y2.8114
G01 X6.6933 Y2.8209
G01 X6.6907 Y2.8300
G01 X6.6865 Y2.8385
G01 X6.6809 Y2.8462
G01 X6.6742 Y2.8528
G01 X6.6663 Y2.8582
G01 X6.6577 Y2.8621
G01 X6.6485 Y2.8646
G01 X6.6391 Y2.8654
G01 X6.3391 Y2.8654
G01 X6.3323 Y2.8650
G01 X6.3243 Y2.8634
G01 X6.3154 Y2.8601
G01 X6.3084 Y2.8561
G01 X6.3009 Y2.8501
G01 X6.2955 Y2.8441
G01 X6.2903 Y2.8361
G01 X6.2870 Y2.8287
G01 X6.2846 Y2.8195
G01 X6.2838 Y2.8101
G01 X6.2838 Y0.6314
G00 Z2.0000
M05
G00 Z2.0000
G00 Z15.00


