(G-CODE GENERATED BY FLATCAM v8.994 - www.flatcam.org - Version Date: 2020/11/7)

(Name: PCB1.GTL_iso_combined_cnc)
(Type: G-code from Geometry)
(Units: MM)

(Created on Monday, 13 March 2023 at 11:43)

(This preprocessor is the default preprocessor used by FlatCAM.)
(It is made to work with MACH3 compatible motion controllers.)

(TOOL DIAMETER: 0.198 mm)
(Feedrate_XY: 60.0 mm/min)
(Feedrate_Z: 60.0 mm/min)
(Feedrate rapids 1500.0 mm/min)

(Z_Cut: -0.02 mm)
(Z_Move: 2.0 mm)
(Z Start: None mm)
(Z End: 15.0 mm)
(X,Y End: None mm)
(Steps per circle: 64)
(Preprocessor Geometry: default)

(X range:   -0.0990 ...   57.1220  mm)
(Y range:    0.4090 ...   40.8660  mm)

(Spindle Speed: 10000.0 RPM)
G21
G90
G94

G01 F60.00

M5
G00 Z15.0000
G00 X0.0000 Y0.0000
T2
M6    
(MSG, Change to Tool Dia = 0.1980)
M0
G00 Z15.0000

M03 S10000.0
G01 F60.00
G00 X6.8170 Y5.9280
G01 F60.00
G01 Z-0.0200
G01 F60.00
G01 X6.8110 Y5.9280
G01 X6.8110 Y5.6220
G01 X6.8170 Y5.6220
G01 X6.8170 Y5.9280
G00 Z2.0000
G00 X6.8170 Y7.3320
G01 F60.00
G01 Z-0.0200
G01 F60.00
G01 X6.8110 Y7.3320
G01 X6.8110 Y7.0260
G01 X6.8170 Y7.0260
G01 X6.8170 Y7.3320
G00 Z2.0000
G00 X4.9016 Y10.1150
G01 F60.00
G01 Z-0.0200
G01 F60.00
G01 X4.9080 Y10.1066
G01 X4.9165 Y10.0979
G01 X4.9260 Y10.0904
G01 X4.9363 Y10.0840
G01 X4.9451 Y10.0798
G01 X4.9566 Y10.0759
G01 X4.9685 Y10.0734
G01 X4.9806 Y10.0723
G01 X6.4840 Y10.0723
G01 X6.4937 Y10.0728
G01 X6.5009 Y10.0738
G01 X6.5081 Y10.0753
G01 X6.5151 Y10.0773
G01 X6.5219 Y10.0798
G01 X6.5285 Y10.0829
G01 X6.5349 Y10.0864
G01 X6.5410 Y10.0904
G01 X6.5505 Y10.0979
G01 X6.5557 Y10.1030
G01 X6.5605 Y10.1085
G01 X6.5676 Y10.1183
G01 X6.5713 Y10.1246
G01 X6.5745 Y10.1312
G01 X6.5772 Y10.1379
G01 X6.5794 Y10.1449
G01 X6.5811 Y10.1520
G01 X6.5823 Y10.1592
G01 X6.5830 Y10.1713
G01 X6.5830 Y10.6890
G01 X10.4350 Y10.6890
G01 X10.4350 Y10.3048
G01 X10.4353 Y10.2975
G01 X10.4361 Y10.2903
G01 X10.4374 Y10.2831
G01 X10.4393 Y10.2761
G01 X10.4416 Y10.2692
G01 X10.4445 Y10.2625
G01 X10.4479 Y10.2560
G01 X10.4517 Y10.2498
G01 X10.4560 Y10.2439
G01 X10.4606 Y10.2383
G01 X10.4657 Y10.2331
G01 X10.4712 Y10.2283
G01 X10.4770 Y10.2239
G01 X10.4831 Y10.2199
G01 X10.4895 Y10.2164
G01 X10.4961 Y10.2133
G01 X10.5029 Y10.2108
G01 X10.5099 Y10.2088
G01 X10.5219 Y10.2065
G01 X10.5340 Y10.2058
G01 X12.2718 Y10.2058
G01 X12.2839 Y10.2065
G01 X12.2911 Y10.2077
G01 X12.2982 Y10.2094
G01 X12.3097 Y10.2133
G01 X12.3206 Y10.2187
G01 X12.3308 Y10.2253
G01 X12.3365 Y10.2298
G01 X12.3418 Y10.2348
G01 X14.0664 Y11.9594
G01 X14.2650 Y12.1118
G01 X14.4902 Y12.2051
G01 X14.7385 Y12.2378
G01 X17.8925 Y12.2378
G01 X17.9022 Y12.2385
G01 X17.9118 Y12.2402
G01 X17.9212 Y12.2428
G01 X17.9302 Y12.2463
G01 X17.9389 Y12.2507
G01 X17.9471 Y12.2559
G01 X17.9548 Y12.2618
G01 X17.9618 Y12.2685
G01 X17.9682 Y12.2759
G01 X17.9724 Y12.2818
G01 X17.9774 Y12.2901
G01 X17.9806 Y12.2967
G01 X18.0302 Y12.4163
G01 X18.0341 Y12.4278
G01 X18.0362 Y12.4373
G01 X18.0372 Y12.4445
G01 X18.0377 Y12.4542
G01 X18.0372 Y12.4639
G01 X18.0358 Y12.4735
G01 X18.0334 Y12.4829
G01 X18.0302 Y12.4921
G01 X18.0260 Y12.5009
G01 X18.0223 Y12.5072
G01 X18.0182 Y12.5132
G01 X18.0137 Y12.5189
G01 X18.0087 Y12.5242
G01 X17.6196 Y12.9133
G01 X17.6125 Y12.9198
G01 X17.6028 Y12.9268
G01 X17.5945 Y12.9316
G01 X17.5857 Y12.9355
G01 X17.5766 Y12.9385
G01 X17.5673 Y12.9407
G01 X17.4058 Y12.9621
G01 X17.3981 Y12.9648
G01 X17.3911 Y12.9666
G01 X17.3839 Y12.9679
G01 X17.3743 Y12.9689
G01 X16.8630 Y12.9690
G01 X16.8630 Y13.6176
G01 X16.8625 Y13.6280
G01 X16.8561 Y13.6765
G01 X16.8561 Y13.9635
G01 X16.8625 Y14.0120
G01 X16.8630 Y14.0224
G01 X16.8630 Y14.9710
G01 X18.2650 Y14.9710
G01 X18.2650 Y14.2864
G01 X18.2661 Y14.2742
G01 X18.2680 Y14.2646
G01 X18.2718 Y14.2530
G01 X18.2758 Y14.2440
G01 X18.2806 Y14.2355
G01 X18.2863 Y14.2275
G01 X18.2928 Y14.2201
G01 X18.2999 Y14.2134
G01 X18.3942 Y14.1410
G01 X18.8969 Y13.6382
G01 X18.9024 Y13.6334
G01 X18.9102 Y13.6276
G01 X18.9185 Y13.6226
G01 X18.9251 Y13.6194
G01 X18.9318 Y13.6167
G01 X18.9388 Y13.6145
G01 X18.9459 Y13.6128
G01 X18.9555 Y13.6114
G01 X18.9652 Y13.6109
G01 X19.3640 Y13.6109
G01 X19.3737 Y13.6114
G01 X19.3857 Y13.6133
G01 X19.3974 Y13.6167
G01 X19.4085 Y13.6215
G01 X19.4190 Y13.6276
G01 X19.4287 Y13.6349
G01 X19.4374 Y13.6434
G01 X19.4449 Y13.6529
G01 X19.4513 Y13.6632
G01 X19.4564 Y13.6743
G01 X19.4600 Y13.6858
G01 X19.4623 Y13.6978
G01 X19.4630 Y13.7099
G01 X19.4630 Y14.6920
G01 X19.5190 Y14.6920
G01 X19.5190 Y13.5346
G01 X19.5195 Y13.5273
G01 X19.5205 Y13.5201
G01 X19.5226 Y13.5106
G01 X19.5248 Y13.5036
G01 X19.5285 Y13.4947
G01 X19.5319 Y13.4882
G01 X19.5357 Y13.4820
G01 X19.5415 Y13.4742
G01 X19.5497 Y13.4653
G01 X19.5571 Y13.4590
G01 X19.5671 Y13.4521
G01 X19.5757 Y13.4475
G01 X19.5846 Y13.4438
G01 X19.5939 Y13.4410
G01 X19.6035 Y13.4391
G01 X19.6156 Y13.4380
G01 X20.5180 Y13.4380
G01 X20.5277 Y13.4385
G01 X20.5349 Y13.4395
G01 X20.5444 Y13.4416
G01 X20.5536 Y13.4446
G01 X20.5625 Y13.4486
G01 X20.5689 Y13.4521
G01 X20.5770 Y13.4575
G01 X20.5845 Y13.4636
G01 X20.5897 Y13.4687
G01 X20.5945 Y13.4742
G01 X20.6003 Y13.4820
G01 X20.6053 Y13.4903
G01 X20.6085 Y13.4969
G01 X20.6112 Y13.5036
G01 X20.6140 Y13.5129
G01 X20.6159 Y13.5225
G01 X20.6167 Y13.5297
G01 X20.6170 Y13.5370
G01 X20.6170 Y14.6920
G01 X20.6730 Y14.6920
G01 X20.6730 Y13.8377
G01 X20.6733 Y13.8304
G01 X20.6741 Y13.8232
G01 X20.6754 Y13.8160
G01 X20.6773 Y13.8090
G01 X20.6805 Y13.7998
G01 X20.6847 Y13.7910
G01 X20.6897 Y13.7827
G01 X20.6970 Y13.7730
G01 X20.7037 Y13.7660
G01 X20.7130 Y13.7582
G01 X20.7211 Y13.7528
G01 X20.7297 Y13.7482
G01 X20.8611 Y13.6936
G01 X20.8703 Y13.6904
G01 X20.8821 Y13.6876
G01 X20.8893 Y13.6866
G01 X20.8966 Y13.6861
G01 X20.9039 Y13.6862
G01 X20.9111 Y13.6868
G01 X20.9231 Y13.6891
G01 X20.9346 Y13.6927
G01 X20.9457 Y13.6978
G01 X20.9560 Y13.7042
G01 X20.9655 Y13.7117
G01 X21.1080 Y13.8541
G01 X21.1130 Y13.8594
G01 X21.1175 Y13.8651
G01 X21.1216 Y13.8711
G01 X21.1253 Y13.8774
G01 X21.1285 Y13.8840
G01 X21.1312 Y13.8907
G01 X21.1334 Y13.8977
G01 X21.1351 Y13.9048
G01 X21.1365 Y13.9144
G01 X21.1370 Y13.9241
G01 X21.1370 Y14.8180
G01 X22.6392 Y14.8180
G01 X22.6401 Y14.8094
G01 X22.6420 Y14.7998
G01 X22.6440 Y14.7928
G01 X22.6475 Y14.7838
G01 X22.6507 Y14.7772
G01 X22.6557 Y14.7689
G01 X22.6615 Y14.7611
G01 X22.6680 Y14.7539
G01 X22.6752 Y14.7474
G01 X22.6830 Y14.7416
G01 X22.6913 Y14.7366
G01 X22.6979 Y14.7334
G01 X22.7046 Y14.7307
G01 X22.7139 Y14.7279
G01 X22.7211 Y14.7264
G01 X22.7307 Y14.7252
G01 X22.7380 Y14.7249
G01 X23.7869 Y14.7249
G01 X23.7990 Y14.7256
G01 X23.8110 Y14.7279
G01 X23.8225 Y14.7315
G01 X23.8292 Y14.7344
G01 X23.8357 Y14.7378
G01 X23.8459 Y14.7444
G01 X23.8516 Y14.7489
G01 X23.8569 Y14.7539
G01 X24.7686 Y15.6656
G01 X24.7736 Y15.6709
G01 X24.7781 Y15.6766
G01 X24.7847 Y15.6868
G01 X24.7881 Y15.6933
G01 X24.7910 Y15.7000
G01 X24.7933 Y15.7069
G01 X24.7952 Y15.7139
G01 X24.7965 Y15.7211
G01 X24.7973 Y15.7283
G01 X24.7976 Y15.7356
G01 X24.7973 Y15.7429
G01 X24.7840 Y15.8766
G01 X24.7827 Y15.8837
G01 X24.7808 Y15.8907
G01 X24.7766 Y15.9021
G01 X24.7734 Y15.9086
G01 X24.7698 Y15.9149
G01 X24.7656 Y15.9209
G01 X24.7611 Y15.9266
G01 X24.7544 Y15.9337
G01 X24.7471 Y15.9400
G01 X24.7153 Y15.9616
G01 X23.6575 Y17.0194
G01 X23.6503 Y17.0259
G01 X23.6425 Y17.0317
G01 X23.6342 Y17.0367
G01 X23.6254 Y17.0409
G01 X23.6186 Y17.0434
G01 X23.6115 Y17.0454
G01 X23.6044 Y17.0469
G01 X23.5972 Y17.0479
G01 X23.5899 Y17.0484
G01 X23.5826 Y17.0483
G01 X23.5706 Y17.0469
G01 X23.5611 Y17.0448
G01 X23.5519 Y17.0418
G01 X23.4501 Y16.9996
G01 X23.2345 Y16.9712
G01 X22.5871 Y16.9711
G01 X22.5775 Y16.9701
G01 X22.5679 Y16.9682
G01 X22.5609 Y16.9662
G01 X22.5519 Y16.9627
G01 X22.5432 Y16.9583
G01 X22.5350 Y16.9531
G01 X22.5273 Y16.9472
G01 X22.5220 Y16.9422
G01 X22.5155 Y16.9350
G01 X22.5097 Y16.9272
G01 X22.5047 Y16.9189
G01 X22.5015 Y16.9123
G01 X22.4980 Y16.9033
G01 X22.4954 Y16.8939
G01 X22.4937 Y16.8843
G01 X22.4930 Y16.8746
G01 X22.4930 Y15.8420
G01 X22.4370 Y15.8420
G01 X22.4370 Y16.9994
G01 X22.4365 Y17.0067
G01 X22.4355 Y17.0139
G01 X22.4334 Y17.0234
G01 X22.4312 Y17.0304
G01 X22.4275 Y17.0393
G01 X22.4241 Y17.0458
G01 X22.4203 Y17.0520
G01 X22.4160 Y17.0579
G01 X22.4097 Y17.0653
G01 X22.4027 Y17.0720
G01 X22.3930 Y17.0793
G01 X22.3847 Y17.0843
G01 X22.3759 Y17.0885
G01 X22.3644 Y17.0924
G01 X22.3549 Y17.0945
G01 X22.3429 Y17.0959
G01 X21.4356 Y17.0960
G01 X21.4259 Y17.0953
G01 X21.4163 Y17.0936
G01 X21.4093 Y17.0917
G01 X21.4001 Y17.0885
G01 X21.3913 Y17.0843
G01 X21.3850 Y17.0806
G01 X21.3771 Y17.0750
G01 X21.3697 Y17.0687
G01 X21.3630 Y17.0617
G01 X21.3571 Y17.0540
G01 X21.3519 Y17.0458
G01 X21.3485 Y17.0393
G01 X21.3448 Y17.0304
G01 X21.3426 Y17.0234
G01 X21.3405 Y17.0139
G01 X21.3393 Y17.0043
G01 X21.3390 Y16.9970
G01 X21.3390 Y15.8420
G01 X21.2830 Y15.8420
G01 X21.2830 Y16.7198
G01 X21.2827 Y16.7271
G01 X21.2819 Y16.7343
G01 X21.2794 Y16.7462
G01 X21.2764 Y16.7554
G01 X21.2724 Y16.7643
G01 X21.2676 Y16.7728
G01 X21.2621 Y16.7807
G01 X21.2557 Y16.7880
G01 X21.2487 Y16.7947
G01 X21.2410 Y16.8007
G01 X21.2328 Y16.8059
G01 X21.2219 Y16.8113
G01 X21.1050 Y16.8596
G01 X21.0933 Y16.8630
G01 X21.0837 Y16.8647
G01 X21.0740 Y16.8654
G01 X21.0643 Y16.8651
G01 X21.0571 Y16.8643
G01 X21.0499 Y16.8630
G01 X21.0382 Y16.8596
G01 X21.0271 Y16.8548
G01 X21.0166 Y16.8487
G01 X21.0088 Y16.8429
G01 X20.9111 Y16.7626
G01 X20.9041 Y16.7559
G01 X20.8992 Y16.7505
G01 X20.8948 Y16.7447
G01 X20.8909 Y16.7386
G01 X20.8863 Y16.7300
G01 X20.8834 Y16.7233
G01 X20.8811 Y16.7164
G01 X20.8787 Y16.7070
G01 X20.8773 Y16.6974
G01 X20.8768 Y16.6877
G01 X20.8768 Y16.4735
G01 X20.8484 Y16.2579
G01 X20.8240 Y16.1984
G01 X20.8209 Y16.1866
G01 X20.8197 Y16.1794
G01 X20.8191 Y16.1722
G01 X20.8190 Y15.6660
G01 X20.1270 Y15.6660
G01 X20.1140 Y15.6651
G01 X20.0615 Y15.6582
G01 X18.3971 Y15.6581
G01 X18.3875 Y15.6571
G01 X18.3756 Y15.6546
G01 X18.3641 Y15.6507
G01 X18.3532 Y15.6453
G01 X18.3430 Y15.6387
G01 X18.3337 Y15.6309
G01 X18.3255 Y15.6220
G01 X18.3184 Y15.6122
G01 X18.3125 Y15.6015
G01 X18.3088 Y15.5926
G01 X18.3060 Y15.5833
G01 X18.3041 Y15.5737
G01 X18.3030 Y15.5616
G01 X18.3030 Y15.5090
G01 X16.9010 Y15.5090
G01 X16.9010 Y16.0097
G01 X16.9003 Y16.0217
G01 X16.8991 Y16.0288
G01 X16.8975 Y16.0359
G01 X16.8953 Y16.0427
G01 X16.8927 Y16.0495
G01 X16.8872 Y16.0602
G01 X16.8833 Y16.0662
G01 X16.8789 Y16.0720
G01 X16.8708 Y16.0809
G01 X16.8445 Y16.1048
G01 X16.8345 Y16.1118
G01 X16.8281 Y16.1153
G01 X16.8215 Y16.1184
G01 X16.8123 Y16.1218
G01 X16.8028 Y16.1242
G01 X16.7932 Y16.1257
G01 X16.7835 Y16.1262
G01 X16.7737 Y16.1258
G01 X16.7640 Y16.1244
G01 X16.7546 Y16.1220
G01 X16.7476 Y16.1197
G01 X16.6161 Y16.0619
G01 X16.6074 Y16.0576
G01 X16.6012 Y16.0537
G01 X16.5953 Y16.0495
G01 X16.5861 Y16.0414
G01 X16.5811 Y16.0361
G01 X16.5766 Y16.0304
G01 X16.5699 Y16.0202
G01 X16.5646 Y16.0093
G01 X16.5606 Y15.9978
G01 X16.5581 Y15.9859
G01 X16.5571 Y15.9762
G01 X16.5570 Y15.6550
G01 X16.5510 Y15.6550
G01 X16.5510 Y17.3650
G01 X16.5570 Y17.3650
G01 X16.5571 Y17.0438
G01 X16.5585 Y17.0317
G01 X16.5606 Y17.0222
G01 X16.5646 Y17.0107
G01 X16.5699 Y16.9998
G01 X16.5738 Y16.9936
G01 X16.5780 Y16.9877
G01 X16.5861 Y16.9786
G01 X16.5915 Y16.9736
G01 X16.5972 Y16.9691
G01 X16.6074 Y16.9624
G01 X16.6161 Y16.9581
G01 X16.7476 Y16.9003
G01 X16.7569 Y16.8973
G01 X16.7664 Y16.8952
G01 X16.7761 Y16.8940
G01 X16.7835 Y16.8938
G01 X16.7932 Y16.8943
G01 X16.8028 Y16.8958
G01 X16.8123 Y16.8982
G01 X16.8215 Y16.9016
G01 X16.8324 Y16.9070
G01 X16.8386 Y16.9109
G01 X16.8445 Y16.9152
G01 X16.8708 Y16.9391
G01 X16.8789 Y16.9480
G01 X16.8833 Y16.9538
G01 X16.8872 Y16.9598
G01 X16.8906 Y16.9662
G01 X16.8936 Y16.9728
G01 X16.8975 Y16.9841
G01 X16.8991 Y16.9912
G01 X16.9003 Y16.9983
G01 X16.9010 Y17.0103
G01 X16.9010 Y17.5110
G01 X18.3030 Y17.5110
G01 X18.3030 Y17.3724
G01 X18.3035 Y17.3651
G01 X18.3045 Y17.3579
G01 X18.3060 Y17.3507
G01 X18.3080 Y17.3437
G01 X18.3125 Y17.3325
G01 X18.3159 Y17.3260
G01 X18.3197 Y17.3198
G01 X18.3270 Y17.3101
G01 X18.3355 Y17.3014
G01 X18.3450 Y17.2939
G01 X18.3553 Y17.2875
G01 X18.3664 Y17.2824
G01 X18.3779 Y17.2788
G01 X18.3899 Y17.2765
G01 X18.4020 Y17.2758
G01 X19.2212 Y17.2758
G01 X19.2333 Y17.2765
G01 X19.2405 Y17.2777
G01 X19.2476 Y17.2794
G01 X19.2545 Y17.2816
G01 X19.2635 Y17.2853
G01 X19.2721 Y17.2899
G01 X19.2782 Y17.2938
G01 X19.2840 Y17.2983
G01 X19.2912 Y17.3048
G01 X19.2977 Y17.3120
G01 X19.3021 Y17.3178
G01 X19.3073 Y17.3260
G01 X19.3117 Y17.3346
G01 X19.3684 Y17.4712
G01 X19.5007 Y17.6437
G01 X20.2043 Y18.3473
G01 X20.3768 Y18.4797
G01 X20.5716 Y18.5604
G01 X20.7873 Y18.5888
G01 X23.2345 Y18.5888
G01 X23.4502 Y18.5604
G01 X23.6450 Y18.4797
G01 X23.8123 Y18.3513
G01 X23.9424 Y18.1817
G01 X23.9464 Y18.1750
G01 X23.9507 Y18.1691
G01 X23.9588 Y18.1599
G01 X23.9641 Y18.1549
G01 X23.9698 Y18.1503
G01 X23.9915 Y18.1357
G01 X25.2251 Y16.9021
G01 X25.2306 Y16.8973
G01 X25.2364 Y16.8929
G01 X25.2425 Y16.8889
G01 X25.2489 Y16.8854
G01 X25.2555 Y16.8823
G01 X25.2623 Y16.8798
G01 X25.2693 Y16.8778
G01 X25.2765 Y16.8763
G01 X25.2885 Y16.8749
G01 X25.3007 Y16.8751
G01 X25.3127 Y16.8767
G01 X25.3221 Y16.8791
G01 X25.3335 Y16.8833
G01 X25.3443 Y16.8889
G01 X25.3543 Y16.8958
G01 X25.3634 Y16.9038
G01 X26.0934 Y17.6338
G01 X26.0997 Y17.6412
G01 X26.1053 Y17.6491
G01 X26.1101 Y17.6576
G01 X26.1141 Y17.6665
G01 X26.1171 Y17.6757
G01 X26.1188 Y17.6828
G01 X26.1202 Y17.6924
G01 X26.1207 Y17.7021
G01 X26.1202 Y17.7118
G01 X26.1188 Y17.7214
G01 X26.1171 Y17.7285
G01 X26.1141 Y17.7377
G01 X26.1101 Y17.7466
G01 X26.1053 Y17.7551
G01 X26.0997 Y17.7630
G01 X26.0934 Y17.7704
G01 X24.7551 Y19.1087
G01 X24.8265 Y19.1801
G01 X24.8315 Y19.1854
G01 X24.8360 Y19.1911
G01 X24.8401 Y19.1971
G01 X24.8438 Y19.2034
G01 X24.8470 Y19.2100
G01 X24.8497 Y19.2167
G01 X24.8519 Y19.2237
G01 X24.8536 Y19.2308
G01 X24.8548 Y19.2380
G01 X24.8554 Y19.2452
G01 X24.8554 Y19.2550
G01 X24.8544 Y19.2646
G01 X24.8525 Y19.2742
G01 X24.8497 Y19.2835
G01 X24.8460 Y19.2924
G01 X24.8414 Y19.3010
G01 X24.8360 Y19.3091
G01 X24.8306 Y19.3157
G01 X24.8306 Y20.3490
G01 X24.8301 Y20.3587
G01 X24.8291 Y20.3659
G01 X24.8270 Y20.3754
G01 X24.8248 Y20.3824
G01 X24.8211 Y20.3913
G01 X24.8152 Y20.4020
G01 X24.8096 Y20.4099
G01 X24.8016 Y20.4190
G01 X24.0494 Y21.1712
G01 X24.0403 Y21.1792
G01 X24.0303 Y21.1861
G01 X24.0195 Y21.1917
G01 X24.0081 Y21.1959
G01 X24.0011 Y21.1978
G01 X23.9939 Y21.1991
G01 X23.9867 Y21.1999
G01 X23.9794 Y21.2002
G01 X23.1632 Y21.2002
G01 X23.1531 Y21.1997
G01 X23.1407 Y21.1976
G01 X23.1310 Y21.1948
G01 X23.0198 Y21.1566
G01 X23.0109 Y21.1531
G01 X23.0003 Y21.1474
G01 X22.9904 Y21.1405
G01 X22.9815 Y21.1325
G01 X22.9736 Y21.1234
G01 X22.9668 Y21.1135
G01 X22.9634 Y21.1071
G01 X22.9604 Y21.1005
G01 X22.9565 Y21.0892
G01 X22.9549 Y21.0821
G01 X22.9537 Y21.0750
G01 X22.9530 Y21.0630
G01 X22.9530 Y20.9580
G01 X21.2430 Y20.9580
G01 X21.2430 Y21.0630
G01 X21.2427 Y21.0702
G01 X21.2419 Y21.0774
G01 X21.2406 Y21.0845
G01 X21.2388 Y21.0915
G01 X21.2365 Y21.0983
G01 X21.2337 Y21.1050
G01 X21.2304 Y21.1114
G01 X21.2266 Y21.1175
G01 X21.2194 Y21.1272
G01 X21.2111 Y21.1358
G01 X21.2017 Y21.1434
G01 X21.1916 Y21.1498
G01 X21.1807 Y21.1550
G01 X21.0626 Y21.1956
G01 X21.0553 Y21.1976
G01 X21.0479 Y21.1990
G01 X21.0404 Y21.1999
G01 X21.0328 Y21.2002
G01 X20.7502 Y21.2002
G01 X20.7401 Y21.1997
G01 X20.7302 Y21.1982
G01 X20.7180 Y21.1948
G01 X20.6068 Y21.1566
G01 X20.5957 Y21.1520
G01 X20.5873 Y21.1474
G01 X20.5774 Y21.1405
G01 X20.5702 Y21.1342
G01 X20.5636 Y21.1272
G01 X20.5577 Y21.1195
G01 X20.5526 Y21.1114
G01 X20.5483 Y21.1028
G01 X20.5442 Y21.0915
G01 X20.5424 Y21.0845
G01 X20.5411 Y21.0774
G01 X20.5400 Y21.0654
G01 X20.5400 Y20.9580
G01 X18.8300 Y20.9580
G01 X18.8300 Y21.0630
G01 X18.8297 Y21.0702
G01 X18.8289 Y21.0774
G01 X18.8276 Y21.0845
G01 X18.8258 Y21.0915
G01 X18.8235 Y21.0983
G01 X18.8207 Y21.1050
G01 X18.8174 Y21.1114
G01 X18.8136 Y21.1175
G01 X18.8064 Y21.1272
G01 X18.7981 Y21.1358
G01 X18.7887 Y21.1434
G01 X18.7786 Y21.1498
G01 X18.7677 Y21.1550
G01 X18.6496 Y21.1956
G01 X18.6373 Y21.1986
G01 X18.6274 Y21.1999
G01 X18.6198 Y21.2002
G01 X15.2085 Y21.2002
G01 X14.9929 Y21.2286
G01 X14.7980 Y21.3094
G01 X14.6255 Y21.4417
G01 X13.4100 Y22.6572
G01 X13.4047 Y22.6622
G01 X13.3990 Y22.6667
G01 X13.3888 Y22.6733
G01 X13.3823 Y22.6767
G01 X13.3756 Y22.6796
G01 X13.3641 Y22.6832
G01 X13.3521 Y22.6855
G01 X13.3400 Y22.6862
G01 X9.4138 Y22.6862
G01 X9.4041 Y22.6857
G01 X9.3945 Y22.6843
G01 X9.3851 Y22.6819
G01 X9.3737 Y22.6777
G01 X9.3629 Y22.6721
G01 X9.3529 Y22.6652
G01 X9.3438 Y22.6572
G01 X9.2864 Y22.5997
G01 X9.2818 Y22.5941
G01 X9.2762 Y22.5862
G01 X9.2714 Y22.5777
G01 X9.2674 Y22.5688
G01 X9.2644 Y22.5596
G01 X9.2623 Y22.5501
G01 X9.2613 Y22.5429
G01 X9.2608 Y22.5332
G01 X9.2608 Y22.2550
G01 X9.2615 Y22.2429
G01 X9.2638 Y22.2309
G01 X9.2658 Y22.2239
G01 X9.2683 Y22.2171
G01 X9.2725 Y22.2083
G01 X9.2762 Y22.2020
G01 X9.2803 Y22.1960
G01 X9.2848 Y22.1903
G01 X9.2915 Y22.1833
G01 X9.2970 Y22.1785
G01 X9.3028 Y22.1741
G01 X9.3089 Y22.1701
G01 X9.3153 Y22.1666
G01 X9.3242 Y22.1626
G01 X9.3311 Y22.1603
G01 X9.3381 Y22.1584
G01 X9.3453 Y22.1571
G01 X9.3530 Y22.1562
G01 X9.3530 Y19.7307
G01 X9.3451 Y19.7233
G01 X9.3388 Y19.7159
G01 X9.3332 Y19.7080
G01 X9.3273 Y19.6973
G01 X9.3228 Y19.6861
G01 X9.3202 Y19.6767
G01 X9.3183 Y19.6647
G01 X9.3178 Y19.6550
G01 X9.3178 Y15.1195
G01 X9.2891 Y14.9017
G01 X9.2874 Y14.8951
G01 X9.2860 Y14.8880
G01 X9.2850 Y14.8760
G01 X9.2850 Y13.7370
G01 X7.7330 Y13.7370
G01 X7.7330 Y14.8760
G01 X7.7320 Y14.8880
G01 X7.7306 Y14.8951
G01 X7.7289 Y14.9017
G01 X7.7002 Y15.1195
G01 X7.7001 Y19.6599
G01 X7.6991 Y19.6695
G01 X7.6966 Y19.6814
G01 X7.6927 Y19.6929
G01 X7.6873 Y19.7038
G01 X7.6807 Y19.7140
G01 X7.6729 Y19.7233
G01 X7.6640 Y19.7315
G01 X7.6542 Y19.7386
G01 X7.6457 Y19.7434
G01 X7.6368 Y19.7474
G01 X7.6276 Y19.7504
G01 X7.6157 Y19.7529
G01 X7.6036 Y19.7540
G01 X7.5510 Y19.7540
G01 X7.5510 Y21.3471
G01 X7.5505 Y21.3568
G01 X7.5491 Y21.3664
G01 X7.5467 Y21.3758
G01 X7.5425 Y21.3872
G01 X7.5369 Y21.3980
G01 X7.5301 Y21.4080
G01 X7.5237 Y21.4154
G01 X7.5148 Y21.4236
G01 X7.5050 Y21.4307
G01 X7.4943 Y21.4366
G01 X7.4831 Y21.4411
G01 X7.4713 Y21.4442
G01 X7.3420 Y21.4699
G01 X7.3323 Y21.4711
G01 X7.3250 Y21.4714
G01 X7.3129 Y21.4707
G01 X7.3010 Y21.4684
G01 X7.2894 Y21.4648
G01 X7.2783 Y21.4597
G01 X7.2680 Y21.4533
G01 X7.2585 Y21.4458
G01 X7.2533 Y21.4407
G01 X7.2485 Y21.4352
G01 X7.2414 Y21.4254
G01 X7.2366 Y21.4169
G01 X7.2335 Y21.4103
G01 X7.1410 Y21.1869
G01 X7.0522 Y21.0711
G01 X7.0468 Y21.0633
G01 X7.0432 Y21.0570
G01 X7.0401 Y21.0505
G01 X7.0360 Y21.0393
G01 X7.0332 Y21.0276
G01 X7.0319 Y21.0157
G01 X7.0318 Y15.1335
G01 X7.0033 Y14.9178
G01 X6.9916 Y14.8894
G01 X6.9893 Y14.8825
G01 X6.9865 Y14.8707
G01 X6.9855 Y14.8635
G01 X6.9850 Y14.8562
G01 X6.9850 Y13.7370
G01 X5.4330 Y13.7370
G01 X5.4330 Y14.9871
G01 X5.4321 Y14.9974
G01 X5.4142 Y15.1335
G01 X5.4141 Y18.3708
G01 X5.4126 Y18.3833
G01 X5.4096 Y18.3956
G01 X5.3690 Y18.5137
G01 X5.3638 Y18.5246
G01 X5.3574 Y18.5347
G01 X5.3498 Y18.5441
G01 X5.3412 Y18.5524
G01 X5.3355 Y18.5569
G01 X5.3295 Y18.5609
G01 X5.3233 Y18.5645
G01 X5.3168 Y18.5677
G01 X5.3100 Y18.5703
G01 X5.3032 Y18.5725
G01 X5.2914 Y18.5749
G01 X5.2842 Y18.5757
G01 X5.2770 Y18.5760
G01 X5.1720 Y18.5760
G01 X5.1720 Y20.2860
G01 X5.2770 Y20.2860
G01 X5.2890 Y20.2867
G01 X5.2961 Y20.2879
G01 X5.3032 Y20.2895
G01 X5.3145 Y20.2934
G01 X5.3254 Y20.2986
G01 X5.3315 Y20.3024
G01 X5.3374 Y20.3066
G01 X5.3465 Y20.3145
G01 X5.3545 Y20.3234
G01 X5.3614 Y20.3333
G01 X5.3671 Y20.3439
G01 X5.3706 Y20.3528
G01 X5.4088 Y20.4640
G01 X5.4116 Y20.4737
G01 X5.4130 Y20.4811
G01 X5.4139 Y20.4886
G01 X5.4142 Y20.4962
G01 X5.4142 Y21.0009
G01 X5.4137 Y21.0081
G01 X5.4128 Y21.0152
G01 X5.4100 Y21.0269
G01 X5.4077 Y21.0337
G01 X5.4049 Y21.0403
G01 X5.4017 Y21.0467
G01 X5.3979 Y21.0529
G01 X5.3937 Y21.0588
G01 X5.2640 Y21.2279
G01 X5.1581 Y21.4836
G01 X5.1211 Y21.7645
G01 X5.1211 Y25.7844
G01 X5.1200 Y25.7965
G01 X5.1181 Y25.8061
G01 X5.1145 Y25.8176
G01 X5.1094 Y25.8287
G01 X5.1030 Y25.8390
G01 X5.0971 Y25.8467
G01 X5.0886 Y25.8554
G01 X5.0791 Y25.8629
G01 X5.0709 Y25.8681
G01 X5.0600 Y25.8735
G01 X5.0508 Y25.8767
G01 X5.0390 Y25.8795
G01 X5.0318 Y25.8805
G01 X5.0245 Y25.8810
G01 X4.9810 Y25.8810
G01 X4.9810 Y28.9830
G01 X7.3830 Y28.9830
G01 X7.3830 Y25.8810
G01 X7.3395 Y25.8810
G01 X7.3322 Y25.8805
G01 X7.3250 Y25.8795
G01 X7.3155 Y25.8774
G01 X7.3040 Y25.8735
G01 X7.2952 Y25.8693
G01 X7.2849 Y25.8629
G01 X7.2754 Y25.8554
G01 X7.2685 Y25.8485
G01 X7.2610 Y25.8390
G01 X7.2546 Y25.8287
G01 X7.2495 Y25.8176
G01 X7.2459 Y25.8061
G01 X7.2436 Y25.7941
G01 X7.2429 Y25.7844
G01 X7.2429 Y22.3574
G01 X7.2440 Y22.3453
G01 X7.2465 Y22.3335
G01 X7.2487 Y22.3265
G01 X7.2513 Y22.3198
G01 X7.2569 Y22.3090
G01 X7.2637 Y22.2990
G01 X7.2684 Y22.2935
G01 X7.2735 Y22.2883
G01 X7.2789 Y22.2834
G01 X7.2847 Y22.2790
G01 X7.2950 Y22.2726
G01 X7.4205 Y22.2050
G01 X7.4291 Y22.2009
G01 X7.4404 Y22.1969
G01 X7.4522 Y22.1944
G01 X7.4641 Y22.1933
G01 X7.4713 Y22.1933
G01 X7.4785 Y22.1938
G01 X7.4856 Y22.1949
G01 X7.4927 Y22.1965
G01 X7.4996 Y22.1986
G01 X7.5063 Y22.2012
G01 X7.5512 Y22.2229
G01 X7.5577 Y22.2265
G01 X7.5639 Y22.2307
G01 X7.5698 Y22.2353
G01 X7.5753 Y22.2404
G01 X7.6172 Y22.2839
G01 X7.6220 Y22.2895
G01 X7.6263 Y22.2955
G01 X7.6302 Y22.3017
G01 X7.6336 Y22.3082
G01 X7.6381 Y22.3195
G01 X7.6408 Y22.3290
G01 X7.6424 Y22.3386
G01 X7.6432 Y22.3484
G01 X7.6432 Y22.9027
G01 X7.6716 Y23.1183
G01 X7.7524 Y23.3132
G01 X7.8847 Y23.4857
G01 X8.4613 Y24.0623
G01 X8.6338 Y24.1947
G01 X8.8286 Y24.2754
G01 X9.0443 Y24.3038
G01 X13.7095 Y24.3038
G01 X13.9251 Y24.2754
G01 X14.1200 Y24.1947
G01 X14.2925 Y24.0623
G01 X15.5080 Y22.8468
G01 X15.5152 Y22.8403
G01 X15.5230 Y22.8345
G01 X15.5313 Y22.8295
G01 X15.5379 Y22.8263
G01 X15.5493 Y22.8221
G01 X15.5587 Y22.8197
G01 X15.5683 Y22.8183
G01 X15.5780 Y22.8178
G01 X17.0361 Y22.8178
G01 X17.0458 Y22.8183
G01 X17.0554 Y22.8197
G01 X17.0625 Y22.8214
G01 X17.0717 Y22.8244
G01 X17.0806 Y22.8284
G01 X17.0891 Y22.8332
G01 X17.0970 Y22.8388
G01 X17.1044 Y22.8451
G01 X17.1095 Y22.8503
G01 X17.1141 Y22.8559
G01 X17.1184 Y22.8618
G01 X17.1222 Y22.8680
G01 X17.1256 Y22.8745
G01 X17.1285 Y22.8812
G01 X17.1308 Y22.8881
G01 X17.1327 Y22.8951
G01 X17.1346 Y22.9071
G01 X17.1475 Y23.0389
G01 X17.1475 Y23.0487
G01 X17.1465 Y23.0583
G01 X17.1446 Y23.0679
G01 X17.1418 Y23.0772
G01 X17.1370 Y23.0883
G01 X17.1322 Y23.0968
G01 X17.1266 Y23.1047
G01 X17.1203 Y23.1121
G01 X17.1151 Y23.1172
G01 X17.1095 Y23.1219
G01 X17.0995 Y23.1287
G01 X17.0887 Y23.1343
G01 X17.0773 Y23.1385
G01 X17.0679 Y23.1409
G01 X16.9473 Y23.1649
G01 X16.7899 Y23.2700
G01 X15.3882 Y24.6717
G01 X15.3808 Y24.6780
G01 X15.3729 Y24.6836
G01 X15.3644 Y24.6884
G01 X15.3555 Y24.6924
G01 X15.3463 Y24.6954
G01 X15.3368 Y24.6975
G01 X15.3272 Y24.6987
G01 X15.3180 Y24.6990
G01 X15.3180 Y24.7550
G01 X15.6058 Y24.7550
G01 X16.9489 Y23.4119
G01 X16.9653 Y23.3972
G01 X16.9809 Y23.3854
G01 X16.9890 Y23.3800
G01 X17.0059 Y23.3700
G01 X17.0280 Y23.3596
G01 X17.0464 Y23.3529
G01 X17.0557 Y23.3501
G01 X17.0771 Y23.3450
G01 X17.0989 Y23.3418
G01 X17.1233 Y23.3406
G01 X23.5170 Y23.3406
G01 X24.7854 Y22.0721
G01 X24.7855 Y21.8194
G01 X24.7866 Y21.7974
G01 X24.7898 Y21.7756
G01 X24.7949 Y21.7542
G01 X24.7977 Y21.7449
G01 X24.8044 Y21.7265
G01 X24.8137 Y21.7065
G01 X24.8248 Y21.6875
G01 X24.8288 Y21.6814
G01 X24.8420 Y21.6638
G01 X24.8550 Y21.6492
G01 X26.2456 Y20.2584
G01 X26.2637 Y20.2420
G01 X26.2831 Y20.2275
G01 X27.0036 Y19.5072
G01 X27.0200 Y19.4925
G01 X27.0396 Y19.4779
G01 X27.0606 Y19.4653
G01 X27.0782 Y19.4569
G01 X27.0872 Y19.4531
G01 X27.1080 Y19.4460
G01 X27.1294 Y19.4407
G01 X27.1512 Y19.4374
G01 X27.1780 Y19.4359
G01 X27.5326 Y19.4359
G01 X27.6879 Y19.4303
G01 X27.7490 Y19.4236
G01 X27.8002 Y19.4147
G01 X27.8146 Y19.4108
G01 X29.0261 Y18.1993
G01 X29.0258 Y18.1929
G01 X29.0224 Y18.1792
G01 X29.0138 Y18.1589
G01 X28.9990 Y18.1332
G01 X28.9771 Y18.1028
G01 X28.9482 Y18.0684
G01 X28.9122 Y18.0305
G01 X27.5857 Y16.7038
G01 X27.5792 Y16.6966
G01 X27.5721 Y16.6868
G01 X27.5673 Y16.6783
G01 X27.5642 Y16.6717
G01 X27.5617 Y16.6649
G01 X27.5597 Y16.6579
G01 X27.5582 Y16.6507
G01 X27.5572 Y16.6435
G01 X27.5567 Y16.6362
G01 X27.5568 Y16.6289
G01 X27.5574 Y16.6217
G01 X27.5586 Y16.6145
G01 X27.5603 Y16.6074
G01 X27.5625 Y16.6004
G01 X27.5652 Y16.5937
G01 X27.5684 Y16.5871
G01 X27.5721 Y16.5808
G01 X27.5762 Y16.5748
G01 X27.5807 Y16.5691
G01 X27.5857 Y16.5638
G01 X27.7995 Y16.3500
G01 X27.8088 Y16.3422
G01 X27.8190 Y16.3356
G01 X27.8299 Y16.3302
G01 X27.8414 Y16.3263
G01 X27.8533 Y16.3238
G01 X27.8605 Y16.3230
G01 X27.8678 Y16.3227
G01 X27.8799 Y16.3234
G01 X27.8919 Y16.3257
G01 X27.9034 Y16.3293
G01 X27.9145 Y16.3344
G01 X27.9208 Y16.3381
G01 X27.9268 Y16.3422
G01 X27.9361 Y16.3500
G01 X29.2664 Y17.6802
G01 X29.3023 Y17.7142
G01 X29.3367 Y17.7431
G01 X29.3672 Y17.7650
G01 X29.3930 Y17.7800
G01 X29.4131 Y17.7884
G01 X29.4268 Y17.7918
G01 X29.4333 Y17.7921
G01 X30.0924 Y17.1331
G01 X30.1042 Y17.1222
G01 X30.1099 Y17.1176
G01 X30.1210 Y17.1096
G01 X30.1369 Y17.1000
G01 X30.1537 Y17.0921
G01 X30.1665 Y17.0874
G01 X30.1758 Y17.0845
G01 X30.1915 Y17.0809
G01 X30.2075 Y17.0786
G01 X30.2211 Y17.0778
G01 X30.2309 Y17.0778
G01 X30.2469 Y17.0789
G01 X30.2629 Y17.0813
G01 X30.2785 Y17.0852
G01 X30.2855 Y17.0874
G01 X30.3006 Y17.0930
G01 X30.3151 Y17.1000
G01 X30.3290 Y17.1082
G01 X30.3459 Y17.1206
G01 X30.3596 Y17.1331
G01 X32.6374 Y19.4108
G01 X32.6518 Y19.4147
G01 X32.7017 Y19.4234
G01 X32.8387 Y19.4346
G01 X32.9163 Y19.4359
G01 X33.4038 Y19.4359
G01 X34.6304 Y18.2095
G01 X34.6450 Y18.1965
G01 X34.6646 Y18.1819
G01 X34.6856 Y18.1693
G01 X34.7077 Y18.1589
G01 X34.7307 Y18.1507
G01 X34.7544 Y18.1447
G01 X34.7786 Y18.1411
G01 X34.8006 Y18.1400
G01 X38.2103 Y18.1399
G01 X38.2299 Y18.1408
G01 X38.2395 Y18.1417
G01 X38.2589 Y18.1447
G01 X38.2826 Y18.1507
G01 X38.3056 Y18.1589
G01 X38.3234 Y18.1672
G01 X38.3319 Y18.1717
G01 X38.3487 Y18.1819
G01 X38.3645 Y18.1935
G01 X38.3702 Y18.1980
G01 X38.3847 Y18.2112
G01 X39.4311 Y19.2576
G01 X39.4444 Y19.2720
G01 X39.4505 Y19.2795
G01 X39.4621 Y19.2953
G01 X39.4758 Y19.3184
G01 X39.4842 Y19.3361
G01 X39.4869 Y19.3429
G01 X39.4933 Y19.3614
G01 X39.4988 Y19.3827
G01 X39.5029 Y19.4093
G01 X39.5040 Y19.4313
G01 X39.5041 Y19.5378
G01 X39.5632 Y19.5969
G01 X40.7518 Y19.5969
G01 X41.1060 Y19.2428
G01 X41.1060 Y18.8820
G01 X41.1000 Y18.8783
G01 X41.0941 Y18.8740
G01 X41.0850 Y18.8660
G01 X41.0770 Y18.8569
G01 X41.0701 Y18.8469
G01 X41.0645 Y18.8361
G01 X41.0603 Y18.8247
G01 X41.0575 Y18.8129
G01 X41.0561 Y18.8009
G01 X41.0560 Y17.9410
G01 X41.0500 Y17.9410
G01 X41.0500 Y18.8600
G01 X41.0493 Y18.8721
G01 X41.0476 Y18.8817
G01 X41.0450 Y18.8910
G01 X41.0415 Y18.9001
G01 X41.0371 Y18.9088
G01 X41.0319 Y18.9170
G01 X41.0260 Y18.9247
G01 X41.0193 Y18.9317
G01 X41.0119 Y18.9380
G01 X40.9829 Y18.9576
G01 X40.9743 Y18.9622
G01 X40.9654 Y18.9659
G01 X40.9537 Y18.9693
G01 X40.9441 Y18.9710
G01 X40.9320 Y18.9717
G01 X40.9199 Y18.9710
G01 X40.9127 Y18.9698
G01 X40.9033 Y18.9674
G01 X40.8941 Y18.9642
G01 X40.8875 Y18.9611
G01 X40.7583 Y18.8921
G01 X40.7480 Y18.8857
G01 X40.7403 Y18.8798
G01 X40.7333 Y18.8731
G01 X40.7269 Y18.8657
G01 X40.7214 Y18.8578
G01 X40.7166 Y18.8493
G01 X40.7126 Y18.8404
G01 X40.7096 Y18.8312
G01 X40.7075 Y18.8217
G01 X40.7063 Y18.8121
G01 X40.7060 Y18.8048
G01 X40.7060 Y17.7950
G01 X39.8902 Y17.7950
G01 X39.8829 Y17.7947
G01 X39.8732 Y17.7935
G01 X39.8262 Y17.7842
G01 X39.0067 Y17.7842
G01 X38.9970 Y17.7837
G01 X38.9874 Y17.7823
G01 X38.9803 Y17.7806
G01 X38.9733 Y17.7784
G01 X38.9666 Y17.7757
G01 X38.9600 Y17.7725
G01 X38.9537 Y17.7688
G01 X38.9477 Y17.7647
G01 X38.9384 Y17.7569
G01 X38.7670 Y17.5854
G01 X38.7608 Y17.5778
G01 X38.7542 Y17.5675
G01 X38.7498 Y17.5587
G01 X38.7458 Y17.5482
G01 X38.7353 Y17.5443
G01 X38.7265 Y17.5399
G01 X38.7183 Y17.5347
G01 X38.7105 Y17.5286
G01 X38.7051 Y17.5237
G01 X38.6418 Y17.4604
G01 X38.4844 Y17.3552
G01 X38.3187 Y17.3222
G01 X38.3069 Y17.3191
G01 X38.2979 Y17.3156
G01 X38.2913 Y17.3124
G01 X38.2850 Y17.3087
G01 X38.2771 Y17.3031
G01 X38.2715 Y17.2985
G01 X38.2663 Y17.2934
G01 X38.2600 Y17.2860
G01 X38.2557 Y17.2801
G01 X38.2519 Y17.2739
G01 X38.2485 Y17.2674
G01 X38.2456 Y17.2607
G01 X38.2433 Y17.2538
G01 X38.2414 Y17.2468
G01 X38.2401 Y17.2396
G01 X38.2393 Y17.2324
G01 X38.2390 Y17.2251
G01 X38.2390 Y15.0550
G01 X36.4370 Y15.0550
G01 X36.4370 Y15.3482
G01 X36.4365 Y15.3579
G01 X36.4351 Y15.3675
G01 X36.4334 Y15.3746
G01 X36.4312 Y15.3816
G01 X36.4285 Y15.3883
G01 X36.4253 Y15.3949
G01 X36.4216 Y15.4012
G01 X36.4175 Y15.4072
G01 X36.4097 Y15.4165
G01 X36.4045 Y15.4216
G01 X36.3989 Y15.4262
G01 X36.3930 Y15.4305
G01 X36.3868 Y15.4343
G01 X36.3803 Y15.4377
G01 X36.3736 Y15.4406
G01 X36.3667 Y15.4429
G01 X36.3597 Y15.4448
G01 X36.3501 Y15.4465
G01 X36.3380 Y15.4472
G01 X34.8045 Y15.4472
G01 X34.5888 Y15.4756
G01 X34.3940 Y15.5563
G01 X34.2267 Y15.6847
G01 X34.0983 Y15.8520
G01 X34.0176 Y16.0468
G01 X33.9901 Y16.2560
G01 X34.0037 Y16.3592
G01 X34.0045 Y16.3714
G01 X34.0038 Y16.3836
G01 X34.0027 Y16.3909
G01 X34.0010 Y16.3981
G01 X33.9988 Y16.4051
G01 X33.9961 Y16.4119
G01 X33.9929 Y16.4185
G01 X33.9892 Y16.4249
G01 X33.9821 Y16.4348
G01 X33.9755 Y16.4421
G01 X33.4439 Y16.9737
G01 X33.4384 Y16.9785
G01 X33.4326 Y16.9829
G01 X33.4265 Y16.9869
G01 X33.4201 Y16.9904
G01 X33.4135 Y16.9935
G01 X33.4067 Y16.9960
G01 X33.3997 Y16.9980
G01 X33.3925 Y16.9995
G01 X33.3805 Y17.0009
G01 X33.3683 Y17.0007
G01 X33.3563 Y16.9991
G01 X33.3469 Y16.9967
G01 X33.3355 Y16.9925
G01 X33.3268 Y16.9881
G01 X33.3166 Y16.9815
G01 X33.3073 Y16.9737
G01 X32.4487 Y16.1151
G01 X32.4407 Y16.1060
G01 X32.4338 Y16.0960
G01 X32.4282 Y16.0852
G01 X32.4240 Y16.0738
G01 X32.4221 Y16.0668
G01 X32.4204 Y16.0572
G01 X32.4198 Y16.0500
G01 X32.4197 Y16.0427
G01 X32.4202 Y16.0354
G01 X32.4216 Y16.0258
G01 X32.4233 Y16.0187
G01 X32.4255 Y16.0117
G01 X32.4778 Y15.8855
G01 X32.4824 Y15.8769
G01 X32.4878 Y15.8688
G01 X32.4940 Y15.8613
G01 X32.4990 Y15.8561
G01 X32.5083 Y15.8483
G01 X32.5185 Y15.8417
G01 X32.5250 Y15.8383
G01 X32.5317 Y15.8354
G01 X32.5432 Y15.8318
G01 X32.5504 Y15.8303
G01 X32.5576 Y15.8293
G01 X32.5743 Y15.8288
G01 X32.7601 Y15.7918
G01 X32.9175 Y15.6866
G01 X34.9054 Y13.6988
G01 X34.9107 Y13.6938
G01 X34.9164 Y13.6893
G01 X34.9266 Y13.6827
G01 X34.9331 Y13.6793
G01 X34.9398 Y13.6764
G01 X34.9513 Y13.6728
G01 X34.9633 Y13.6705
G01 X34.9754 Y13.6698
G01 X36.2810 Y13.6698
G01 X36.2883 Y13.6701
G01 X36.2955 Y13.6709
G01 X36.3027 Y13.6722
G01 X36.3121 Y13.6748
G01 X36.3189 Y13.6773
G01 X36.3255 Y13.6804
G01 X36.3319 Y13.6839
G01 X36.3380 Y13.6879
G01 X36.3457 Y13.6938
G01 X36.3544 Y13.7023
G01 X36.3605 Y13.7098
G01 X36.3671 Y13.7200
G01 X36.3725 Y13.7309
G01 X36.3757 Y13.7401
G01 X36.3785 Y13.7519
G01 X36.3799 Y13.7639
G01 X36.3800 Y14.6630
G01 X38.1820 Y14.6630
G01 X38.1820 Y9.9750
G01 X36.4638 Y9.9749
G01 X36.4566 Y9.9743
G01 X36.4470 Y9.9726
G01 X36.4376 Y9.9700
G01 X36.4308 Y9.9675
G01 X36.4220 Y9.9633
G01 X36.4157 Y9.9596
G01 X36.4097 Y9.9555
G01 X36.4022 Y9.9494
G01 X36.3953 Y9.9425
G01 X36.3907 Y9.9369
G01 X36.3851 Y9.9290
G01 X36.3814 Y9.9227
G01 X36.3772 Y9.9139
G01 X36.3747 Y9.9071
G01 X36.3727 Y9.9001
G01 X36.3708 Y9.8905
G01 X36.3700 Y9.8833
G01 X36.3697 Y9.8760
G01 X36.3697 Y6.8803
G01 X36.3700 Y6.8731
G01 X36.3708 Y6.8659
G01 X36.3721 Y6.8588
G01 X36.3739 Y6.8518
G01 X36.3762 Y6.8449
G01 X36.3801 Y6.8361
G01 X36.3836 Y6.8298
G01 X36.3889 Y6.8217
G01 X36.3934 Y6.8161
G01 X36.4000 Y6.8090
G01 X36.4072 Y6.8027
G01 X36.4171 Y6.7958
G01 X36.4858 Y6.7561
G01 X36.7281 Y6.5138
G01 X36.8993 Y6.2172
G01 X36.9880 Y5.8863
G01 X36.9880 Y5.5437
G01 X36.8993 Y5.2128
G01 X36.7281 Y4.9162
G01 X36.4858 Y4.6739
G01 X36.1892 Y4.5027
G01 X35.8583 Y4.4140
G01 X35.5157 Y4.4140
G01 X35.1848 Y4.5027
G01 X34.8882 Y4.6739
G01 X34.6459 Y4.9162
G01 X34.5637 Y5.0583
G01 X34.5581 Y5.0662
G01 X34.5534 Y5.0717
G01 X34.5483 Y5.0768
G01 X34.5410 Y5.0831
G01 X34.5351 Y5.0873
G01 X34.5290 Y5.0910
G01 X34.5225 Y5.0943
G01 X34.5159 Y5.0972
G01 X34.5044 Y5.1008
G01 X34.4973 Y5.1023
G01 X34.4901 Y5.1032
G01 X34.4805 Y5.1037
G01 X34.3535 Y5.1037
G01 X34.3415 Y5.1030
G01 X34.3320 Y5.1013
G01 X34.3250 Y5.0995
G01 X34.3159 Y5.0963
G01 X34.3072 Y5.0922
G01 X34.2989 Y5.0873
G01 X34.2930 Y5.0831
G01 X34.2857 Y5.0768
G01 X34.2806 Y5.0717
G01 X34.2744 Y5.0642
G01 X34.2690 Y5.0563
G01 X34.1881 Y4.9162
G01 X33.9458 Y4.6739
G01 X33.6492 Y4.5027
G01 X33.3183 Y4.4140
G01 X32.9757 Y4.4140
G01 X32.6448 Y4.5027
G01 X32.3482 Y4.6739
G01 X32.1059 Y4.9162
G01 X32.0250 Y5.0563
G01 X32.0210 Y5.0623
G01 X32.0150 Y5.0699
G01 X32.0101 Y5.0751
G01 X32.0029 Y5.0816
G01 X31.9931 Y5.0886
G01 X31.9868 Y5.0922
G01 X31.9803 Y5.0953
G01 X31.9736 Y5.0980
G01 X31.9667 Y5.1002
G01 X31.9597 Y5.1018
G01 X31.9525 Y5.1030
G01 X31.9405 Y5.1037
G01 X31.8063 Y5.1034
G01 X31.7967 Y5.1023
G01 X31.7873 Y5.1002
G01 X31.7781 Y5.0972
G01 X31.7715 Y5.0943
G01 X31.7630 Y5.0898
G01 X31.7549 Y5.0845
G01 X31.7474 Y5.0784
G01 X31.7406 Y5.0717
G01 X31.7344 Y5.0642
G01 X31.7290 Y5.0563
G01 X31.6481 Y4.9162
G01 X31.4058 Y4.6739
G01 X31.1092 Y4.5027
G01 X30.7783 Y4.4140
G01 X30.4357 Y4.4140
G01 X30.1048 Y4.5027
G01 X29.8082 Y4.6739
G01 X29.5659 Y4.9162
G01 X29.4850 Y5.0563
G01 X29.4796 Y5.0642
G01 X29.4750 Y5.0699
G01 X29.4701 Y5.0751
G01 X29.4629 Y5.0816
G01 X29.4571 Y5.0859
G01 X29.4510 Y5.0898
G01 X29.4403 Y5.0953
G01 X29.4336 Y5.0980
G01 X29.4267 Y5.1002
G01 X29.4197 Y5.1018
G01 X29.4125 Y5.1030
G01 X29.4005 Y5.1037
G01 X29.2687 Y5.1036
G01 X29.2591 Y5.1026
G01 X29.2496 Y5.1008
G01 X29.2404 Y5.0980
G01 X29.2315 Y5.0943
G01 X29.2230 Y5.0898
G01 X29.2149 Y5.0845
G01 X29.2074 Y5.0784
G01 X29.2006 Y5.0717
G01 X29.1944 Y5.0642
G01 X29.1890 Y5.0563
G01 X29.1081 Y4.9162
G01 X28.8658 Y4.6739
G01 X28.5692 Y4.5027
G01 X28.2383 Y4.4140
G01 X27.8957 Y4.4140
G01 X27.5648 Y4.5027
G01 X27.2682 Y4.6739
G01 X27.0259 Y4.9162
G01 X27.0124 Y4.9394
G01 X27.0054 Y4.9494
G01 X27.0006 Y4.9550
G01 X26.9954 Y4.9602
G01 X26.9879 Y4.9665
G01 X26.9819 Y4.9707
G01 X26.9713 Y4.9767
G01 X26.9623 Y4.9806
G01 X26.9529 Y4.9835
G01 X26.9434 Y4.9855
G01 X26.8126 Y5.0027
G01 X26.8053 Y5.0032
G01 X26.7979 Y5.0032
G01 X26.7857 Y5.0019
G01 X26.7785 Y5.0005
G01 X26.7691 Y4.9976
G01 X26.7623 Y4.9949
G01 X26.7557 Y4.9917
G01 X26.7493 Y4.9880
G01 X26.7432 Y4.9839
G01 X26.7375 Y4.9793
G01 X26.7321 Y4.9743
G01 X24.8849 Y3.1271
G01 X24.8784 Y3.1199
G01 X24.8713 Y3.1101
G01 X24.8654 Y3.0994
G01 X24.8609 Y3.0882
G01 X24.8589 Y3.0812
G01 X24.8574 Y3.0740
G01 X24.8560 Y3.0620
G01 X24.8559 Y3.0547
G01 X24.8564 Y3.0474
G01 X24.8583 Y3.0354
G01 X24.8602 Y3.0284
G01 X24.8625 Y3.0215
G01 X24.9130 Y2.8997
G01 X24.9162 Y2.8931
G01 X24.9212 Y2.8848
G01 X24.9270 Y2.8770
G01 X24.9335 Y2.8698
G01 X24.9407 Y2.8633
G01 X24.9485 Y2.8575
G01 X24.9568 Y2.8525
G01 X24.9656 Y2.8483
G01 X24.9748 Y2.8451
G01 X24.9842 Y2.8427
G01 X24.9938 Y2.8413
G01 X25.0035 Y2.8408
G01 X36.8689 Y2.8408
G01 X36.8762 Y2.8411
G01 X36.8834 Y2.8419
G01 X36.8906 Y2.8432
G01 X36.8976 Y2.8451
G01 X36.9045 Y2.8474
G01 X36.9112 Y2.8503
G01 X36.9177 Y2.8537
G01 X36.9239 Y2.8575
G01 X36.9317 Y2.8633
G01 X36.9389 Y2.8698
G01 X43.9539 Y9.8847
G01 X43.9604 Y9.8919
G01 X43.9675 Y9.9017
G01 X43.9712 Y9.9080
G01 X43.9744 Y9.9146
G01 X43.9786 Y9.9260
G01 X43.9814 Y9.9378
G01 X43.9828 Y9.9498
G01 X43.9826 Y9.9620
G01 X43.9810 Y9.9740
G01 X43.9779 Y9.9858
G01 X43.9754 Y9.9926
G01 X43.9268 Y10.1099
G01 X43.9237 Y10.1165
G01 X43.9202 Y10.1229
G01 X43.9162 Y10.1290
G01 X43.9118 Y10.1348
G01 X43.9070 Y10.1403
G01 X43.9000 Y10.1470
G01 X43.8943 Y10.1515
G01 X43.8883 Y10.1556
G01 X43.8820 Y10.1593
G01 X43.8732 Y10.1635
G01 X43.8664 Y10.1660
G01 X43.8570 Y10.1686
G01 X43.8474 Y10.1703
G01 X43.8377 Y10.1710
G01 X43.2940 Y10.1710
G01 X43.2940 Y10.6270
G01 X43.3500 Y10.6270
G01 X43.3500 Y10.3260
G01 X43.3505 Y10.3163
G01 X43.3515 Y10.3091
G01 X43.3543 Y10.2973
G01 X43.3566 Y10.2904
G01 X43.3595 Y10.2837
G01 X43.3629 Y10.2772
G01 X43.3667 Y10.2710
G01 X43.3710 Y10.2651
G01 X43.3756 Y10.2595
G01 X43.3807 Y10.2543
G01 X43.3862 Y10.2495
G01 X43.3920 Y10.2451
G01 X43.3981 Y10.2411
G01 X43.4045 Y10.2376
G01 X43.4111 Y10.2345
G01 X43.4226 Y10.2306
G01 X43.4297 Y10.2289
G01 X43.4369 Y10.2277
G01 X43.4490 Y10.2270
G01 X44.5514 Y10.2270
G01 X44.5635 Y10.2281
G01 X44.5754 Y10.2306
G01 X44.5869 Y10.2345
G01 X44.5978 Y10.2399
G01 X44.6080 Y10.2465
G01 X44.6173 Y10.2543
G01 X44.6255 Y10.2632
G01 X44.6326 Y10.2730
G01 X44.6363 Y10.2793
G01 X44.6395 Y10.2859
G01 X44.6422 Y10.2926
G01 X44.6444 Y10.2996
G01 X44.6461 Y10.3067
G01 X44.6473 Y10.3139
G01 X44.6480 Y10.3260
G01 X44.6480 Y12.0260
G01 X44.6475 Y12.0357
G01 X44.6456 Y12.0477
G01 X44.6422 Y12.0594
G01 X44.6385 Y12.0683
G01 X44.6351 Y12.0748
G01 X44.6313 Y12.0810
G01 X44.6240 Y12.0907
G01 X44.6155 Y12.0994
G01 X44.6099 Y12.1040
G01 X44.6040 Y12.1083
G01 X44.5978 Y12.1121
G01 X44.5913 Y12.1155
G01 X44.5801 Y12.1200
G01 X44.5731 Y12.1220
G01 X44.5659 Y12.1235
G01 X44.5539 Y12.1249
G01 X43.4490 Y12.1250
G01 X43.4369 Y12.1243
G01 X43.4249 Y12.1220
G01 X43.4134 Y12.1184
G01 X43.4067 Y12.1155
G01 X43.4002 Y12.1121
G01 X43.3940 Y12.1083
G01 X43.3881 Y12.1040
G01 X43.3825 Y12.0994
G01 X43.3773 Y12.0943
G01 X43.3725 Y12.0888
G01 X43.3681 Y12.0830
G01 X43.3617 Y12.0727
G01 X43.3585 Y12.0661
G01 X43.3558 Y12.0594
G01 X43.3536 Y12.0524
G01 X43.3519 Y12.0453
G01 X43.3505 Y12.0357
G01 X43.3500 Y12.0260
G01 X43.3500 Y11.7250
G01 X43.2940 Y11.7250
G01 X43.2940 Y12.2483
G01 X43.3456 Y12.3205
G01 X43.3509 Y12.3287
G01 X43.3563 Y12.3397
G01 X43.3603 Y12.3513
G01 X43.3629 Y12.3633
G01 X43.3639 Y12.3731
G01 X43.3640 Y12.9130
G01 X43.4200 Y12.9130
G01 X43.4200 Y12.6096
G01 X43.4207 Y12.5999
G01 X43.4219 Y12.5927
G01 X43.4243 Y12.5833
G01 X43.4266 Y12.5764
G01 X43.4295 Y12.5697
G01 X43.4329 Y12.5632
G01 X43.4367 Y12.5570
G01 X43.4410 Y12.5511
G01 X43.4456 Y12.5455
G01 X43.4507 Y12.5403
G01 X43.4562 Y12.5355
G01 X43.4620 Y12.5311
G01 X43.4702 Y12.5259
G01 X43.4767 Y12.5225
G01 X43.4834 Y12.5196
G01 X43.4903 Y12.5173
G01 X43.4973 Y12.5154
G01 X43.5045 Y12.5141
G01 X43.5117 Y12.5133
G01 X43.5190 Y12.5130
G01 X44.6190 Y12.5130
G01 X44.6263 Y12.5133
G01 X44.6335 Y12.5141
G01 X44.6431 Y12.5160
G01 X44.6501 Y12.5180
G01 X44.6569 Y12.5205
G01 X44.6635 Y12.5236
G01 X44.6740 Y12.5297
G01 X44.6837 Y12.5370
G01 X44.6890 Y12.5420
G01 X44.6940 Y12.5473
G01 X44.6985 Y12.5530
G01 X44.7026 Y12.5590
G01 X44.7085 Y12.5697
G01 X44.7114 Y12.5764
G01 X44.7137 Y12.5833
G01 X44.7165 Y12.5951
G01 X44.7175 Y12.6023
G01 X44.7180 Y12.6120
G01 X44.7180 Y12.9130
G01 X44.7740 Y12.9130
G01 X44.7740 Y12.3897
G01 X44.7224 Y12.3175
G01 X44.7159 Y12.3071
G01 X44.7117 Y12.2983
G01 X44.7077 Y12.2867
G01 X44.7051 Y12.2747
G01 X44.7040 Y12.2625
G01 X44.7040 Y11.0398
G01 X44.7045 Y11.0301
G01 X44.7064 Y11.0181
G01 X44.7098 Y11.0065
G01 X44.7146 Y10.9953
G01 X44.7207 Y10.9848
G01 X44.7280 Y10.9752
G01 X44.7365 Y10.9665
G01 X44.7420 Y10.9618
G01 X44.7479 Y10.9575
G01 X44.7584 Y10.9514
G01 X44.7650 Y10.9484
G01 X44.8823 Y10.8997
G01 X44.8892 Y10.8971
G01 X44.8962 Y10.8951
G01 X44.9033 Y10.8936
G01 X44.9105 Y10.8926
G01 X44.9202 Y10.8921
G01 X44.9275 Y10.8924
G01 X44.9372 Y10.8936
G01 X44.9443 Y10.8951
G01 X44.9513 Y10.8971
G01 X44.9582 Y10.8996
G01 X44.9670 Y10.9038
G01 X44.9753 Y10.9088
G01 X44.9831 Y10.9146
G01 X44.9903 Y10.9211
G01 X49.6111 Y15.5419
G01 X49.6176 Y15.5491
G01 X49.6234 Y15.5569
G01 X49.6284 Y15.5652
G01 X49.6326 Y15.5740
G01 X49.6351 Y15.5808
G01 X49.6371 Y15.5878
G01 X49.6390 Y15.5974
G01 X49.6398 Y15.6046
G01 X49.6401 Y15.6119
G01 X49.6396 Y15.6216
G01 X49.6386 Y15.6288
G01 X49.6371 Y15.6360
G01 X49.6351 Y15.6430
G01 X49.6326 Y15.6498
G01 X49.5840 Y15.7671
G01 X49.5798 Y15.7759
G01 X49.5761 Y15.7822
G01 X49.5720 Y15.7882
G01 X49.5642 Y15.7975
G01 X49.5553 Y15.8057
G01 X49.5495 Y15.8101
G01 X49.5434 Y15.8141
G01 X49.5370 Y15.8176
G01 X49.5304 Y15.8207
G01 X49.5189 Y15.8246
G01 X49.5070 Y15.8271
G01 X49.4949 Y15.8282
G01 X46.8071 Y15.8281
G01 X46.7999 Y15.8275
G01 X46.7927 Y15.8263
G01 X46.7809 Y15.8232
G01 X46.7697 Y15.8187
G01 X46.7590 Y15.8128
G01 X46.7492 Y15.8057
G01 X46.7437 Y15.8009
G01 X46.7386 Y15.7957
G01 X46.7340 Y15.7901
G01 X46.7297 Y15.7842
G01 X46.7236 Y15.7737
G01 X46.7196 Y15.7648
G01 X46.7166 Y15.7556
G01 X46.7145 Y15.7461
G01 X46.7133 Y15.7365
G01 X46.7130 Y15.6360
G01 X45.3110 Y15.6360
G01 X45.3110 Y16.1367
G01 X45.3103 Y16.1487
G01 X45.3081 Y16.1605
G01 X45.3061 Y16.1675
G01 X45.3036 Y16.1742
G01 X45.3006 Y16.1808
G01 X45.2972 Y16.1872
G01 X45.2933 Y16.1932
G01 X45.2889 Y16.1990
G01 X45.2808 Y16.2079
G01 X45.2545 Y16.2318
G01 X45.2445 Y16.2388
G01 X45.2381 Y16.2423
G01 X45.2315 Y16.2454
G01 X45.2223 Y16.2488
G01 X45.2128 Y16.2512
G01 X45.2032 Y16.2527
G01 X45.1935 Y16.2532
G01 X45.1861 Y16.2530
G01 X45.1764 Y16.2518
G01 X45.1669 Y16.2497
G01 X45.1576 Y16.2467
G01 X45.0261 Y16.1889
G01 X45.0174 Y16.1846
G01 X45.0112 Y16.1807
G01 X45.0053 Y16.1765
G01 X44.9961 Y16.1684
G01 X44.9880 Y16.1593
G01 X44.9838 Y16.1534
G01 X44.9799 Y16.1472
G01 X44.9746 Y16.1363
G01 X44.9706 Y16.1248
G01 X44.9685 Y16.1153
G01 X44.9671 Y16.1032
G01 X44.9670 Y15.7820
G01 X44.9610 Y15.7820
G01 X44.9610 Y17.4920
G01 X44.9670 Y17.4920
G01 X44.9671 Y17.1708
G01 X44.9681 Y17.1611
G01 X44.9706 Y17.1492
G01 X44.9737 Y17.1400
G01 X44.9776 Y17.1311
G01 X44.9811 Y17.1247
G01 X44.9866 Y17.1166
G01 X44.9911 Y17.1109
G01 X44.9961 Y17.1056
G01 X45.0015 Y17.1006
G01 X45.0072 Y17.0961
G01 X45.0153 Y17.0907
G01 X45.0217 Y17.0872
G01 X45.1576 Y17.0273
G01 X45.1669 Y17.0243
G01 X45.1764 Y17.0222
G01 X45.1861 Y17.0210
G01 X45.1935 Y17.0208
G01 X45.2032 Y17.0213
G01 X45.2104 Y17.0223
G01 X45.2176 Y17.0239
G01 X45.2269 Y17.0268
G01 X45.2359 Y17.0306
G01 X45.2424 Y17.0340
G01 X45.2506 Y17.0393
G01 X45.2564 Y17.0438
G01 X45.2825 Y17.0678
G01 X45.2889 Y17.0750
G01 X45.2933 Y17.0808
G01 X45.2984 Y17.0889
G01 X45.3027 Y17.0975
G01 X45.3061 Y17.1065
G01 X45.3091 Y17.1182
G01 X45.3105 Y17.1277
G01 X45.3110 Y17.1373
G01 X45.3110 Y17.6380
G01 X46.7130 Y17.6380
G01 X46.7133 Y17.5375
G01 X46.7145 Y17.5279
G01 X46.7166 Y17.5184
G01 X46.7196 Y17.5092
G01 X46.7236 Y17.5003
G01 X46.7297 Y17.4898
G01 X46.7340 Y17.4839
G01 X46.7386 Y17.4783
G01 X46.7473 Y17.4698
G01 X46.7530 Y17.4653
G01 X46.7590 Y17.4612
G01 X46.7697 Y17.4553
G01 X46.7809 Y17.4508
G01 X46.7879 Y17.4488
G01 X46.7951 Y17.4473
G01 X46.8071 Y17.4459
G01 X50.1700 Y17.4458
G01 X50.1797 Y17.4463
G01 X50.1893 Y17.4477
G01 X50.1987 Y17.4501
G01 X50.2079 Y17.4533
G01 X50.2167 Y17.4575
G01 X50.2250 Y17.4625
G01 X50.2328 Y17.4683
G01 X50.2400 Y17.4748
G01 X50.9572 Y18.1920
G01 X50.9652 Y18.2011
G01 X50.9721 Y18.2111
G01 X50.9777 Y18.2219
G01 X50.9819 Y18.2333
G01 X50.9838 Y18.2403
G01 X50.9851 Y18.2475
G01 X50.9859 Y18.2547
G01 X50.9862 Y18.2620
G01 X50.9862 Y19.9460
G01 X50.9855 Y19.9581
G01 X50.9838 Y19.9677
G01 X50.9819 Y19.9747
G01 X50.9796 Y19.9816
G01 X50.9767 Y19.9883
G01 X50.9733 Y19.9948
G01 X50.9695 Y20.0010
G01 X50.9652 Y20.0069
G01 X50.9606 Y20.0125
G01 X50.9555 Y20.0177
G01 X50.9500 Y20.0225
G01 X50.9442 Y20.0269
G01 X50.9381 Y20.0309
G01 X50.9317 Y20.0344
G01 X50.9251 Y20.0375
G01 X50.9183 Y20.0400
G01 X50.9089 Y20.0426
G01 X50.9017 Y20.0439
G01 X50.8945 Y20.0447
G01 X50.8872 Y20.0450
G01 X50.4190 Y20.0450
G01 X50.4190 Y21.0632
G01 X50.4187 Y21.0705
G01 X50.4179 Y21.0777
G01 X50.4166 Y21.0849
G01 X50.4140 Y21.0943
G01 X50.4115 Y21.1011
G01 X50.4084 Y21.1077
G01 X50.4036 Y21.1162
G01 X50.3980 Y21.1241
G01 X50.3934 Y21.1297
G01 X50.3865 Y21.1366
G01 X50.3809 Y21.1412
G01 X50.3750 Y21.1455
G01 X50.3667 Y21.1505
G01 X50.3601 Y21.1537
G01 X50.3534 Y21.1564
G01 X50.3464 Y21.1586
G01 X50.3369 Y21.1607
G01 X50.3297 Y21.1617
G01 X50.3200 Y21.1622
G01 X42.8055 Y21.1622
G01 X42.5899 Y21.1906
G01 X42.3950 Y21.2714
G01 X42.2225 Y21.4037
G01 X41.8353 Y21.7909
G01 X41.8259 Y21.7987
G01 X41.8157 Y21.8054
G01 X41.8048 Y21.8107
G01 X41.7956 Y21.8140
G01 X41.7838 Y21.8168
G01 X41.7741 Y21.8179
G01 X41.7619 Y21.8181
G01 X41.7498 Y21.8167
G01 X41.7427 Y21.8152
G01 X41.6276 Y21.7860
G01 X40.7455 Y21.7860
G01 X40.7382 Y21.7857
G01 X40.7310 Y21.7849
G01 X40.7214 Y21.7830
G01 X40.7144 Y21.7810
G01 X40.7054 Y21.7775
G01 X40.6988 Y21.7743
G01 X40.6905 Y21.7693
G01 X40.6846 Y21.7650
G01 X40.6772 Y21.7587
G01 X40.0256 Y21.1071
G01 X40.0206 Y21.1018
G01 X40.0161 Y21.0961
G01 X40.0095 Y21.0859
G01 X40.0041 Y21.0750
G01 X40.0002 Y21.0635
G01 X39.9977 Y21.0516
G01 X39.9966 Y21.0395
G01 X39.9966 Y20.7316
G01 X39.9722 Y20.5467
G01 X39.9714 Y20.5369
G01 X39.9715 Y20.5295
G01 X39.9721 Y20.5221
G01 X39.9760 Y20.4966
G01 X39.9778 Y20.4896
G01 X39.9811 Y20.4805
G01 X39.9840 Y20.4739
G01 X39.9875 Y20.4675
G01 X39.9943 Y20.4575
G01 X40.0799 Y20.3464
G01 X40.0862 Y20.3389
G01 X40.0914 Y20.3338
G01 X40.0970 Y20.3290
G01 X40.1030 Y20.3247
G01 X40.1092 Y20.3208
G01 X40.1157 Y20.3174
G01 X40.1224 Y20.3145
G01 X40.1294 Y20.3121
G01 X40.1389 Y20.3097
G01 X40.1485 Y20.3083
G01 X40.1583 Y20.3078
G01 X40.8452 Y20.3078
G01 X41.0310 Y20.2708
G01 X41.1884 Y20.1656
G01 X41.6741 Y19.6800
G01 X41.6794 Y19.6750
G01 X41.6851 Y19.6705
G01 X41.6911 Y19.6664
G01 X41.6974 Y19.6627
G01 X41.7085 Y19.6576
G01 X41.7200 Y19.6540
G01 X41.7296 Y19.6521
G01 X41.7417 Y19.6510
G01 X42.1600 Y19.6510
G01 X42.1600 Y19.3450
G01 X42.1040 Y19.3450
G01 X42.1040 Y19.4960
G01 X42.1035 Y19.5057
G01 X42.1021 Y19.5153
G01 X42.0990 Y19.5271
G01 X42.0955 Y19.5361
G01 X42.0911 Y19.5448
G01 X42.0859 Y19.5530
G01 X42.0800 Y19.5607
G01 X42.0733 Y19.5677
G01 X42.0659 Y19.5740
G01 X42.0559 Y19.5809
G01 X42.0451 Y19.5865
G01 X42.0337 Y19.5907
G01 X42.0267 Y19.5926
G01 X42.0195 Y19.5939
G01 X42.0074 Y19.5950
G01 X41.4582 Y19.5950
G01 X41.0276 Y20.0255
G01 X41.0130 Y20.0385
G01 X40.9974 Y20.0503
G01 X40.9913 Y20.0544
G01 X40.9745 Y20.0645
G01 X40.9503 Y20.0761
G01 X40.9250 Y20.0850
G01 X40.9036 Y20.0903
G01 X40.8842 Y20.0933
G01 X40.8746 Y20.0942
G01 X40.8550 Y20.0951
G01 X39.4600 Y20.0951
G01 X39.4356 Y20.0939
G01 X39.4162 Y20.0911
G01 X39.4067 Y20.0892
G01 X39.3877 Y20.0843
G01 X39.3647 Y20.0761
G01 X39.3469 Y20.0678
G01 X39.3384 Y20.0633
G01 X39.3216 Y20.0531
G01 X39.3039 Y20.0401
G01 X39.2839 Y20.0221
G01 X39.0755 Y19.8136
G01 X39.0625 Y19.7990
G01 X39.0507 Y19.7834
G01 X39.0466 Y19.7773
G01 X39.0365 Y19.7605
G01 X39.0249 Y19.7363
G01 X39.0182 Y19.7179
G01 X39.0154 Y19.7086
G01 X39.0103 Y19.6872
G01 X39.0074 Y19.6678
G01 X39.0068 Y19.6606
G01 X39.0059 Y19.6410
G01 X39.0059 Y19.5369
G01 X38.1071 Y18.6381
G01 X34.9062 Y18.6381
G01 X33.6831 Y19.8611
G01 X33.6687 Y19.8744
G01 X33.6612 Y19.8805
G01 X33.6454 Y19.8921
G01 X33.6265 Y19.9035
G01 X33.6023 Y19.9151
G01 X33.5793 Y19.9233
G01 X33.5556 Y19.9293
G01 X33.5362 Y19.9323
G01 X33.5266 Y19.9332
G01 X33.5070 Y19.9341
G01 X32.9194 Y19.9341
G01 X32.7641 Y19.9397
G01 X32.7031 Y19.9464
G01 X32.6518 Y19.9554
G01 X32.6373 Y19.9593
G01 X30.5003 Y22.0963
G01 X30.4964 Y22.1108
G01 X30.4876 Y22.1608
G01 X30.4764 Y22.2977
G01 X30.4751 Y22.3753
G01 X30.4751 Y23.1456
G01 X31.5157 Y24.1865
G01 X31.5237 Y24.1956
G01 X31.5306 Y24.2056
G01 X31.5362 Y24.2164
G01 X31.5404 Y24.2278
G01 X31.5432 Y24.2396
G01 X31.5446 Y24.2516
G01 X31.5444 Y24.2638
G01 X31.5428 Y24.2758
G01 X31.5397 Y24.2876
G01 X31.5352 Y24.2988
G01 X31.5293 Y24.3095
G01 X31.5222 Y24.3193
G01 X31.5157 Y24.3265
G01 X31.3019 Y24.5403
G01 X31.2945 Y24.5466
G01 X31.2845 Y24.5535
G01 X31.2737 Y24.5591
G01 X31.2623 Y24.5633
G01 X31.2553 Y24.5652
G01 X31.2481 Y24.5665
G01 X31.2360 Y24.5676
G01 X31.2239 Y24.5671
G01 X31.2119 Y24.5652
G01 X31.2002 Y24.5618
G01 X31.1935 Y24.5591
G01 X31.1869 Y24.5559
G01 X31.1766 Y24.5495
G01 X31.1708 Y24.5451
G01 X31.1653 Y24.5403
G01 X30.0499 Y23.4249
G01 X30.0335 Y23.4068
G01 X30.0217 Y23.3912
G01 X30.0163 Y23.3831
G01 X30.0063 Y23.3662
G01 X29.9959 Y23.3441
G01 X29.9892 Y23.3257
G01 X29.9863 Y23.3164
G01 X29.9822 Y23.2998
G01 X29.9809 Y23.2926
G01 X29.9781 Y23.2732
G01 X29.9770 Y23.2537
G01 X29.9769 Y22.3784
G01 X29.9713 Y22.2231
G01 X29.9646 Y22.1621
G01 X29.9556 Y22.1108
G01 X29.9517 Y22.0963
G01 X27.8147 Y19.9593
G01 X27.8002 Y19.9554
G01 X27.7502 Y19.9466
G01 X27.6133 Y19.9354
G01 X27.5357 Y19.9341
G01 X27.2812 Y19.9341
G01 X26.6045 Y20.6106
G01 X26.5864 Y20.6270
G01 X26.5670 Y20.6414
G01 X25.2836 Y21.9250
G01 X25.2836 Y22.1753
G01 X25.2827 Y22.1949
G01 X25.2818 Y22.2045
G01 X25.2788 Y22.2239
G01 X25.2735 Y22.2453
G01 X25.2713 Y22.2522
G01 X25.2637 Y22.2728
G01 X25.2542 Y22.2927
G01 X25.2429 Y22.3116
G01 X25.2300 Y22.3295
G01 X25.2239 Y22.3370
G01 X25.2106 Y22.3514
G01 X23.7963 Y23.7658
G01 X23.7782 Y23.7822
G01 X23.7586 Y23.7968
G01 X23.7376 Y23.8094
G01 X23.7133 Y23.8207
G01 X23.6925 Y23.8280
G01 X23.6688 Y23.8340
G01 X23.6446 Y23.8376
G01 X23.6202 Y23.8388
G01 X17.2265 Y23.8388
G01 X15.9602 Y25.1050
G01 X16.2610 Y25.1050
G01 X17.2873 Y24.0787
G01 X17.2947 Y24.0724
G01 X17.3006 Y24.0681
G01 X17.3068 Y24.0643
G01 X17.3133 Y24.0609
G01 X17.3200 Y24.0580
G01 X17.3269 Y24.0557
G01 X17.3339 Y24.0538
G01 X17.3411 Y24.0525
G01 X17.3483 Y24.0517
G01 X17.3556 Y24.0514
G01 X23.0912 Y24.0514
G01 X23.1033 Y24.0521
G01 X23.1153 Y24.0544
G01 X23.1269 Y24.0580
G01 X23.1357 Y24.0620
G01 X23.1442 Y24.0668
G01 X23.1540 Y24.0739
G01 X23.1629 Y24.0822
G01 X23.1708 Y24.0915
G01 X23.1774 Y24.1017
G01 X23.1817 Y24.1104
G01 X23.2312 Y24.2300
G01 X23.2351 Y24.2415
G01 X23.2373 Y24.2509
G01 X23.2382 Y24.2582
G01 X23.2387 Y24.2654
G01 X23.2384 Y24.2751
G01 X23.2376 Y24.2824
G01 X23.2357 Y24.2919
G01 X23.2337 Y24.2989
G01 X23.2312 Y24.3057
G01 X23.2270 Y24.3145
G01 X23.2220 Y24.3228
G01 X23.2162 Y24.3306
G01 X23.2114 Y24.3361
G01 X23.0218 Y24.5257
G01 X23.0125 Y24.5335
G01 X23.0065 Y24.5376
G01 X23.0002 Y24.5413
G01 X22.9891 Y24.5464
G01 X22.9822 Y24.5487
G01 X22.9752 Y24.5506
G01 X22.9632 Y24.5525
G01 X22.9535 Y24.5530
G01 X21.1780 Y24.5530
G01 X21.1780 Y26.7550
G01 X21.5822 Y26.7550
G01 X21.5919 Y26.7555
G01 X21.5991 Y26.7565
G01 X21.6063 Y26.7580
G01 X21.6133 Y26.7600
G01 X21.6201 Y26.7625
G01 X21.6289 Y26.7667
G01 X21.6352 Y26.7704
G01 X21.6412 Y26.7745
G01 X21.6487 Y26.7806
G01 X21.6539 Y26.7857
G01 X21.6587 Y26.7912
G01 X21.6631 Y26.7970
G01 X21.6683 Y26.8052
G01 X21.6717 Y26.8117
G01 X21.6754 Y26.8206
G01 X21.6776 Y26.8276
G01 X21.6793 Y26.8347
G01 X21.6805 Y26.8419
G01 X21.6812 Y26.8540
G01 X21.6812 Y29.5375
G01 X21.6912 Y29.6135
G01 X21.6920 Y29.6264
G01 X21.6920 Y30.7920
G01 X23.5317 Y30.7920
G01 X23.5414 Y30.7927
G01 X23.5486 Y30.7939
G01 X23.5557 Y30.7956
G01 X23.5649 Y30.7986
G01 X23.5738 Y30.8026
G01 X23.5823 Y30.8074
G01 X23.5902 Y30.8130
G01 X23.5958 Y30.8176
G01 X23.6027 Y30.8245
G01 X23.6088 Y30.8320
G01 X23.6142 Y30.8401
G01 X23.6198 Y30.8509
G01 X23.6233 Y30.8599
G01 X23.6264 Y30.8717
G01 X23.6278 Y30.8813
G01 X23.6283 Y30.8910
G01 X23.6283 Y32.5152
G01 X23.6280 Y32.5225
G01 X23.6272 Y32.5297
G01 X23.6259 Y32.5369
G01 X23.6240 Y32.5439
G01 X23.6217 Y32.5508
G01 X23.6188 Y32.5575
G01 X23.6154 Y32.5640
G01 X23.6116 Y32.5702
G01 X23.6058 Y32.5780
G01 X23.5993 Y32.5852
G01 X20.6612 Y35.5233
G01 X20.6522 Y35.5313
G01 X20.6443 Y35.5369
G01 X20.6381 Y35.5405
G01 X20.6316 Y35.5437
G01 X20.6249 Y35.5464
G01 X20.6180 Y35.5486
G01 X20.6086 Y35.5508
G01 X20.6014 Y35.5518
G01 X20.5918 Y35.5523
G01 X20.5798 Y35.5516
G01 X20.5679 Y35.5495
G01 X20.4913 Y35.5290
G01 X20.1487 Y35.5290
G01 X19.8178 Y35.6177
G01 X19.5212 Y35.7889
G01 X19.2789 Y36.0312
G01 X19.1077 Y36.3278
G01 X19.0190 Y36.6587
G01 X19.0190 Y37.0013
G01 X19.1077 Y37.3322
G01 X19.2789 Y37.6288
G01 X19.4107 Y37.7607
G01 X19.4182 Y37.7702
G01 X19.4246 Y37.7805
G01 X19.4297 Y37.7916
G01 X19.4327 Y37.8008
G01 X19.4344 Y37.8079
G01 X19.4356 Y37.8151
G01 X19.4362 Y37.8223
G01 X19.4363 Y37.8296
G01 X19.4358 Y37.8369
G01 X19.4348 Y37.8441
G01 X19.4320 Y37.8559
G01 X19.4288 Y37.8651
G01 X19.3742 Y37.9965
G01 X19.3696 Y38.0051
G01 X19.3642 Y38.0132
G01 X19.3581 Y38.0207
G01 X19.3512 Y38.0276
G01 X19.3437 Y38.0337
G01 X19.3356 Y38.0391
G01 X19.3270 Y38.0437
G01 X19.3181 Y38.0474
G01 X19.3088 Y38.0502
G01 X19.3016 Y38.0517
G01 X19.2920 Y38.0529
G01 X19.2847 Y38.0532
G01 X7.9960 Y38.0532
G01 X7.9863 Y38.0527
G01 X7.9743 Y38.0508
G01 X7.9673 Y38.0489
G01 X7.9604 Y38.0466
G01 X7.9537 Y38.0437
G01 X7.9472 Y38.0403
G01 X7.9410 Y38.0365
G01 X7.9351 Y38.0322
G01 X7.9260 Y38.0242
G01 X6.7246 Y36.8229
G01 X6.7183 Y36.8155
G01 X6.7140 Y36.8096
G01 X6.7102 Y36.8034
G01 X6.7058 Y36.7947
G01 X6.7023 Y36.7857
G01 X6.7003 Y36.7787
G01 X6.6988 Y36.7715
G01 X6.6976 Y36.7619
G01 X6.6973 Y36.7522
G01 X6.6978 Y36.7449
G01 X6.6988 Y36.7377
G01 X6.7009 Y36.7282
G01 X6.7031 Y36.7212
G01 X6.7068 Y36.7123
G01 X6.7114 Y36.7037
G01 X6.7154 Y36.6976
G01 X6.7198 Y36.6918
G01 X6.8008 Y36.5931
G01 X6.8073 Y36.5859
G01 X6.8145 Y36.5794
G01 X6.8223 Y36.5736
G01 X6.8306 Y36.5686
G01 X6.8394 Y36.5644
G01 X6.8486 Y36.5612
G01 X6.8580 Y36.5588
G01 X6.8676 Y36.5574
G01 X6.8773 Y36.5569
G01 X6.8894 Y36.5576
G01 X6.8990 Y36.5593
G01 X6.9107 Y36.5627
G01 X6.9196 Y36.5664
G01 X6.9282 Y36.5710
G01 X7.0834 Y36.6746
G01 X7.3384 Y36.7802
G01 X7.6090 Y36.8340
G01 X7.8850 Y36.8340
G01 X8.1556 Y36.7802
G01 X8.4106 Y36.6746
G01 X8.6401 Y36.5212
G01 X8.8352 Y36.3261
G01 X8.9886 Y36.0966
G01 X9.0942 Y35.8416
G01 X9.1480 Y35.5708
G01 X9.1487 Y35.5613
G01 X9.1504 Y35.5517
G01 X9.1538 Y35.5400
G01 X9.1586 Y35.5289
G01 X9.1647 Y35.5184
G01 X9.1705 Y35.5106
G01 X9.1770 Y35.5034
G01 X11.3276 Y33.3528
G01 X11.5000 Y33.1281
G01 X11.6059 Y32.8724
G01 X11.6429 Y32.5915
G01 X11.6430 Y29.0771
G01 X11.6444 Y29.0651
G01 X11.6465 Y29.0556
G01 X11.6504 Y29.0441
G01 X11.6558 Y29.0332
G01 X11.6624 Y29.0230
G01 X11.6702 Y29.0137
G01 X11.6791 Y29.0055
G01 X11.6869 Y28.9997
G01 X11.6974 Y28.9936
G01 X11.7063 Y28.9896
G01 X11.7155 Y28.9866
G01 X11.7250 Y28.9845
G01 X11.7322 Y28.9835
G01 X11.7395 Y28.9830
G01 X11.7830 Y28.9830
G01 X11.7830 Y25.8810
G01 X9.3810 Y25.8810
G01 X9.3810 Y28.9830
G01 X9.4245 Y28.9830
G01 X9.4318 Y28.9835
G01 X9.4390 Y28.9845
G01 X9.4485 Y28.9866
G01 X9.4600 Y28.9905
G01 X9.4688 Y28.9947
G01 X9.4791 Y29.0011
G01 X9.4868 Y29.0070
G01 X9.4955 Y29.0155
G01 X9.5030 Y29.0250
G01 X9.5094 Y29.0353
G01 X9.5145 Y29.0464
G01 X9.5175 Y29.0556
G01 X9.5200 Y29.0675
G01 X9.5211 Y29.0796
G01 X9.5211 Y32.1175
G01 X9.5204 Y32.1296
G01 X9.5192 Y32.1368
G01 X9.5175 Y32.1439
G01 X9.5153 Y32.1509
G01 X9.5126 Y32.1576
G01 X9.5070 Y32.1684
G01 X9.5001 Y32.1784
G01 X9.4921 Y32.1875
G01 X7.6766 Y34.0030
G01 X7.6694 Y34.0095
G01 X7.6596 Y34.0166
G01 X7.6511 Y34.0214
G01 X7.6400 Y34.0262
G01 X7.6283 Y34.0296
G01 X7.6187 Y34.0313
G01 X7.6093 Y34.0320
G01 X7.3384 Y34.0859
G01 X7.0834 Y34.1914
G01 X6.8539 Y34.3448
G01 X6.6588 Y34.5399
G01 X6.5054 Y34.7694
G01 X6.3998 Y35.0244
G01 X6.3460 Y35.2950
G01 X6.3460 Y35.5710
G01 X6.3998 Y35.8416
G01 X6.5054 Y36.0966
G01 X6.6064 Y36.2477
G01 X6.6102 Y36.2539
G01 X6.6136 Y36.2604
G01 X6.6165 Y36.2671
G01 X6.6188 Y36.2740
G01 X6.6207 Y36.2810
G01 X6.6220 Y36.2882
G01 X6.6228 Y36.2954
G01 X6.6231 Y36.3027
G01 X6.6228 Y36.3100
G01 X6.6220 Y36.3172
G01 X6.6207 Y36.3244
G01 X6.6188 Y36.3314
G01 X6.6165 Y36.3383
G01 X6.6136 Y36.3450
G01 X6.6102 Y36.3515
G01 X6.6064 Y36.3577
G01 X6.6021 Y36.3636
G01 X6.5958 Y36.3710
G01 X6.5869 Y36.3792
G01 X6.4882 Y36.4602
G01 X6.4784 Y36.4673
G01 X6.4677 Y36.4732
G01 X6.4565 Y36.4777
G01 X6.4447 Y36.4808
G01 X6.4375 Y36.4820
G01 X6.4303 Y36.4826
G01 X6.4181 Y36.4824
G01 X6.4061 Y36.4808
G01 X6.3990 Y36.4791
G01 X6.3920 Y36.4769
G01 X6.3809 Y36.4721
G01 X6.3745 Y36.4686
G01 X6.3664 Y36.4632
G01 X6.3607 Y36.4587
G01 X6.3554 Y36.4537
G01 X2.7168 Y32.8150
G01 X2.7103 Y32.8078
G01 X2.7045 Y32.8000
G01 X2.7007 Y32.7938
G01 X2.6963 Y32.7851
G01 X2.6936 Y32.7784
G01 X2.6908 Y32.7691
G01 X2.6889 Y32.7595
G01 X2.6879 Y32.7499
G01 X2.6878 Y17.1170
G01 X2.6881 Y17.1097
G01 X2.6889 Y17.1025
G01 X2.6902 Y17.0953
G01 X2.6921 Y17.0883
G01 X2.6944 Y17.0814
G01 X2.6973 Y17.0747
G01 X2.7032 Y17.0640
G01 X2.7103 Y17.0542
G01 X2.7151 Y17.0487
G01 X2.7203 Y17.0436
G01 X2.7298 Y17.0361
G01 X2.7359 Y17.0321
G01 X2.7423 Y17.0286
G01 X2.7512 Y17.0246
G01 X2.7604 Y17.0216
G01 X2.7699 Y17.0195
G01 X2.7795 Y17.0183
G01 X2.8800 Y17.0180
G01 X2.8800 Y16.9620
G01 X2.5790 Y16.9620
G01 X2.5717 Y16.9617
G01 X2.5621 Y16.9605
G01 X2.5503 Y16.9577
G01 X2.5434 Y16.9554
G01 X2.5367 Y16.9525
G01 X2.5302 Y16.9491
G01 X2.5240 Y16.9453
G01 X2.5143 Y16.9380
G01 X2.5090 Y16.9330
G01 X2.5040 Y16.9277
G01 X2.4967 Y16.9180
G01 X2.4929 Y16.9118
G01 X2.4895 Y16.9053
G01 X2.4850 Y16.8941
G01 X2.4830 Y16.8871
G01 X2.4815 Y16.8799
G01 X2.4805 Y16.8727
G01 X2.4800 Y16.8630
G01 X2.4800 Y15.7630
G01 X2.4805 Y15.7533
G01 X2.4819 Y15.7437
G01 X2.4836 Y15.7366
G01 X2.4858 Y15.7296
G01 X2.4885 Y15.7229
G01 X2.4917 Y15.7163
G01 X2.4954 Y15.7100
G01 X2.5010 Y15.7021
G01 X2.5056 Y15.6965
G01 X2.5107 Y15.6913
G01 X2.5162 Y15.6865
G01 X2.5220 Y15.6821
G01 X2.5302 Y15.6769
G01 X2.5367 Y15.6735
G01 X2.5434 Y15.6706
G01 X2.5503 Y15.6683
G01 X2.5573 Y15.6664
G01 X2.5669 Y15.6647
G01 X2.5790 Y15.6640
G01 X2.8800 Y15.6640
G01 X2.8800 Y15.6080
G01 X2.7795 Y15.6077
G01 X2.7699 Y15.6065
G01 X2.7627 Y15.6050
G01 X2.7534 Y15.6022
G01 X2.7467 Y15.5995
G01 X2.7359 Y15.5939
G01 X2.7259 Y15.5870
G01 X2.7168 Y15.5790
G01 X2.7088 Y15.5699
G01 X2.7045 Y15.5640
G01 X2.7007 Y15.5578
G01 X2.6953 Y15.5469
G01 X2.6914 Y15.5354
G01 X2.6889 Y15.5235
G01 X2.6881 Y15.5163
G01 X2.6878 Y15.5090
G01 X2.6878 Y14.8630
G01 X2.6881 Y14.8557
G01 X2.6897 Y14.8437
G01 X2.6914 Y14.8366
G01 X2.6936 Y14.8296
G01 X2.6984 Y14.8185
G01 X2.7019 Y14.8121
G01 X2.7059 Y14.8060
G01 X2.7134 Y14.7965
G01 X2.7185 Y14.7913
G01 X2.7240 Y14.7865
G01 X2.7338 Y14.7794
G01 X2.7445 Y14.7735
G01 X2.7534 Y14.7698
G01 X2.7627 Y14.7670
G01 X2.7723 Y14.7651
G01 X2.7844 Y14.7640
G01 X3.0440 Y14.7640
G01 X3.0537 Y14.7645
G01 X3.0657 Y14.7664
G01 X3.0727 Y14.7683
G01 X3.0796 Y14.7706
G01 X3.1872 Y14.8151
G01 X3.4355 Y14.8478
G01 X3.4385 Y14.8478
G01 X3.6867 Y14.8151
G01 X3.7943 Y14.7706
G01 X3.8012 Y14.7683
G01 X3.8082 Y14.7664
G01 X3.8154 Y14.7651
G01 X3.8226 Y14.7643
G01 X3.8299 Y14.7640
G01 X4.5800 Y14.7640
G01 X4.5800 Y13.0620
G01 X4.5514 Y13.0620
G01 X4.5441 Y13.0615
G01 X4.5369 Y13.0605
G01 X4.5274 Y13.0584
G01 X4.5204 Y13.0562
G01 X4.5115 Y13.0525
G01 X4.5029 Y13.0479
G01 X4.4948 Y13.0425
G01 X4.4873 Y13.0364
G01 X4.4821 Y13.0313
G01 X4.4758 Y13.0239
G01 X4.4702 Y13.0160
G01 X4.4654 Y13.0075
G01 X4.4614 Y12.9986
G01 X4.4584 Y12.9894
G01 X4.4567 Y12.9823
G01 X4.4555 Y12.9751
G01 X4.4548 Y12.9630
G01 X4.4548 Y12.6140
G01 X4.4551 Y12.6067
G01 X4.4559 Y12.5995
G01 X4.4572 Y12.5923
G01 X4.4598 Y12.5829
G01 X4.4623 Y12.5761
G01 X4.4654 Y12.5695
G01 X4.4689 Y12.5631
G01 X4.4743 Y12.5550
G01 X4.4788 Y12.5493
G01 X4.4838 Y12.5440
G01 X4.4891 Y12.5390
G01 X4.4968 Y12.5331
G01 X4.5029 Y12.5291
G01 X4.5093 Y12.5256
G01 X4.5159 Y12.5225
G01 X4.5227 Y12.5200
G01 X4.5321 Y12.5174
G01 X4.5441 Y12.5155
G01 X4.5538 Y12.5150
G01 X4.8840 Y12.5150
G01 X4.8840 Y10.7130
G01 X3.5872 Y10.7130
G01 X3.5744 Y10.7122
G01 X3.5199 Y10.7050
G01 X3.4604 Y10.7127
G01 X3.4303 Y10.7130
G01 X3.4182 Y10.7119
G01 X3.4063 Y10.7094
G01 X3.3971 Y10.7064
G01 X3.3882 Y10.7024
G01 X3.3777 Y10.6963
G01 X3.3699 Y10.6905
G01 X3.3610 Y10.6823
G01 X3.3532 Y10.6730
G01 X3.3478 Y10.6649
G01 X3.3443 Y10.6585
G01 X3.3412 Y10.6519
G01 X3.2909 Y10.5301
G01 X3.2875 Y10.5184
G01 X3.2858 Y10.5088
G01 X3.2851 Y10.4991
G01 X3.2854 Y10.4894
G01 X3.2862 Y10.4822
G01 X3.2881 Y10.4726
G01 X3.2909 Y10.4634
G01 X3.2936 Y10.4566
G01 X3.2980 Y10.4479
G01 X3.3018 Y10.4417
G01 X3.3076 Y10.4339
G01 X3.3124 Y10.4284
G01 X3.5985 Y10.1423
G01 X3.6078 Y10.1345
G01 X3.6138 Y10.1304
G01 X3.6201 Y10.1267
G01 X3.6267 Y10.1235
G01 X3.6334 Y10.1208
G01 X3.6451 Y10.1174
G01 X3.6571 Y10.1155
G01 X3.6668 Y10.1150
G01 X4.9016 Y10.1150
G00 Z2.0000
G00 X1.4553 Y10.2943
G01 F60.00
G01 Z-0.0200
G01 F60.00
G01 X2.6840 Y9.0655
G01 X2.6840 Y8.6140
G01 X2.6847 Y8.6019
G01 X2.6859 Y8.5947
G01 X2.6876 Y8.5876
G01 X2.6898 Y8.5806
G01 X2.6925 Y8.5739
G01 X2.6957 Y8.5673
G01 X2.6994 Y8.5610
G01 X2.7035 Y8.5550
G01 X2.7080 Y8.5493
G01 X2.7130 Y8.5440
G01 X2.7183 Y8.5390
G01 X2.7240 Y8.5345
G01 X2.7300 Y8.5304
G01 X2.7363 Y8.5267
G01 X2.7429 Y8.5235
G01 X2.7543 Y8.5193
G01 X2.7613 Y8.5174
G01 X2.7685 Y8.5161
G01 X2.7757 Y8.5153
G01 X2.7830 Y8.5150
G01 X4.5830 Y8.5150
G01 X4.5903 Y8.5153
G01 X4.6023 Y8.5169
G01 X4.6141 Y8.5200
G01 X4.6253 Y8.5245
G01 X4.6360 Y8.5304
G01 X4.6458 Y8.5375
G01 X4.6530 Y8.5440
G01 X4.6610 Y8.5531
G01 X4.6679 Y8.5631
G01 X4.6725 Y8.5717
G01 X4.6762 Y8.5806
G01 X4.6790 Y8.5899
G01 X4.6809 Y8.5995
G01 X4.6820 Y8.6116
G01 X4.6820 Y8.6642
G01 X6.7850 Y8.6642
G01 X6.7850 Y8.2380
G01 X6.7857 Y8.2259
G01 X6.7869 Y8.2187
G01 X6.7886 Y8.2116
G01 X6.7908 Y8.2046
G01 X6.7935 Y8.1979
G01 X6.7991 Y8.1871
G01 X6.8031 Y8.1810
G01 X6.8075 Y8.1752
G01 X6.8123 Y8.1697
G01 X6.8175 Y8.1646
G01 X6.8231 Y8.1600
G01 X6.8290 Y8.1557
G01 X6.8352 Y8.1519
G01 X6.8417 Y8.1485
G01 X6.8529 Y8.1440
G01 X6.8599 Y8.1420
G01 X6.8695 Y8.1401
G01 X6.8767 Y8.1393
G01 X6.8840 Y8.1390
G01 X8.3667 Y8.1390
G01 X8.3667 Y6.4770
G01 X8.3694 Y6.4207
G01 X8.3702 Y6.4134
G01 X8.3783 Y6.3601
G01 X8.3913 Y6.3077
G01 X8.3941 Y6.2984
G01 X8.4124 Y6.2477
G01 X8.4353 Y6.1989
G01 X8.4399 Y6.1903
G01 X8.4670 Y6.1452
G01 X8.4670 Y5.7770
G01 X8.4675 Y5.7673
G01 X8.4694 Y5.7553
G01 X8.4728 Y5.7436
G01 X8.4776 Y5.7325
G01 X8.4811 Y5.7261
G01 X8.4851 Y5.7200
G01 X8.4926 Y5.7105
G01 X8.5013 Y5.7020
G01 X8.5070 Y5.6975
G01 X8.5130 Y5.6934
G01 X8.5237 Y5.6875
G01 X8.5304 Y5.6846
G01 X8.5373 Y5.6823
G01 X8.5443 Y5.6804
G01 X8.5515 Y5.6791
G01 X8.5587 Y5.6783
G01 X8.5660 Y5.6780
G01 X9.3709 Y5.6781
G01 X9.3829 Y5.6795
G01 X9.3901 Y5.6810
G01 X9.3971 Y5.6830
G01 X9.4083 Y5.6875
G01 X9.4148 Y5.6909
G01 X9.4210 Y5.6947
G01 X9.4269 Y5.6990
G01 X9.4325 Y5.7036
G01 X9.4410 Y5.7123
G01 X9.4483 Y5.7220
G01 X9.4521 Y5.7282
G01 X9.4555 Y5.7347
G01 X9.4600 Y5.7459
G01 X9.4626 Y5.7553
G01 X9.4643 Y5.7649
G01 X9.4650 Y5.7746
G01 X9.4650 Y6.1452
G01 X9.4921 Y6.1903
G01 X9.4967 Y6.1989
G01 X9.5196 Y6.2477
G01 X9.5379 Y6.2984
G01 X9.5407 Y6.3077
G01 X9.5537 Y6.3601
G01 X9.5618 Y6.4134
G01 X9.5627 Y6.4231
G01 X9.5653 Y6.4770
G01 X9.5653 Y7.9078
G01 X9.8591 Y7.6588
G01 X10.0539 Y7.4707
G01 X15.8690 Y1.6556
G01 X15.9108 Y1.6178
G01 X15.9541 Y1.5855
G01 X15.9622 Y1.5801
G01 X16.0085 Y1.5525
G01 X16.0572 Y1.5293
G01 X16.0662 Y1.5256
G01 X16.1170 Y1.5076
G01 X16.1694 Y1.4943
G01 X16.1789 Y1.4924
G01 X16.2323 Y1.4846
G01 X16.2910 Y1.4817
G01 X22.6232 Y1.4817
G01 X22.6352 Y1.4766
G01 X22.6860 Y1.4586
G01 X22.7431 Y1.4443
G01 X22.8013 Y1.4356
G01 X22.8600 Y1.4327
G01 X37.2449 Y1.4327
G01 X37.2988 Y1.4353
G01 X37.3085 Y1.4362
G01 X37.3618 Y1.4443
G01 X37.4142 Y1.4573
G01 X37.4235 Y1.4601
G01 X37.4742 Y1.4784
G01 X37.5230 Y1.5013
G01 X37.5316 Y1.5059
G01 X37.5778 Y1.5337
G01 X37.6212 Y1.5658
G01 X37.6287 Y1.5719
G01 X37.6686 Y1.6083
G01 X52.2187 Y16.1584
G01 X52.2582 Y16.2019
G01 X52.2919 Y16.2472
G01 X52.3211 Y16.2954
G01 X52.3257 Y16.3040
G01 X52.3486 Y16.3528
G01 X52.3684 Y16.4081
G01 X52.3817 Y16.4605
G01 X52.3836 Y16.4700
G01 X52.3914 Y16.5234
G01 X52.3942 Y16.5797
G01 X52.3943 Y20.2470
G01 X52.8700 Y20.2470
G01 X52.8773 Y20.2473
G01 X52.8845 Y20.2481
G01 X52.8917 Y20.2494
G01 X52.9011 Y20.2520
G01 X52.9079 Y20.2545
G01 X52.9145 Y20.2576
G01 X52.9230 Y20.2624
G01 X52.9290 Y20.2665
G01 X52.9365 Y20.2726
G01 X52.9417 Y20.2777
G01 X52.9465 Y20.2832
G01 X52.9523 Y20.2910
G01 X52.9561 Y20.2972
G01 X52.9595 Y20.3037
G01 X52.9624 Y20.3104
G01 X52.9654 Y20.3196
G01 X52.9671 Y20.3267
G01 X52.9685 Y20.3363
G01 X52.9690 Y20.3460
G01 X52.9690 Y23.5960
G01 X52.9683 Y23.6081
G01 X52.9660 Y23.6201
G01 X52.9640 Y23.6271
G01 X52.9605 Y23.6361
G01 X52.9561 Y23.6448
G01 X52.9523 Y23.6510
G01 X52.9480 Y23.6569
G01 X52.9417 Y23.6643
G01 X52.9365 Y23.6694
G01 X52.9309 Y23.6740
G01 X52.9250 Y23.6783
G01 X52.9188 Y23.6821
G01 X52.9101 Y23.6865
G01 X52.9034 Y23.6892
G01 X52.8941 Y23.6920
G01 X52.8869 Y23.6935
G01 X52.8797 Y23.6945
G01 X52.8724 Y23.6950
G01 X50.7200 Y23.6950
G01 X50.7103 Y23.6945
G01 X50.7007 Y23.6931
G01 X50.6913 Y23.6907
G01 X50.6799 Y23.6865
G01 X50.6733 Y23.6833
G01 X50.6670 Y23.6796
G01 X50.6572 Y23.6725
G01 X50.6517 Y23.6677
G01 X50.6466 Y23.6625
G01 X50.6420 Y23.6569
G01 X50.6377 Y23.6510
G01 X50.6316 Y23.6405
G01 X50.6285 Y23.6339
G01 X50.6260 Y23.6271
G01 X50.6240 Y23.6201
G01 X50.6225 Y23.6129
G01 X50.6211 Y23.6009
G01 X50.6210 Y22.5703
G01 X43.0472 Y22.5703
G01 X42.4424 Y23.1749
G01 X42.4024 Y23.2110
G01 X42.3551 Y23.2461
G01 X42.3047 Y23.2763
G01 X42.2538 Y23.3005
G01 X42.2470 Y23.3032
G01 X42.1962 Y23.3212
G01 X42.1438 Y23.3345
G01 X42.1343 Y23.3364
G01 X42.0858 Y23.3436
G01 X42.0761 Y23.3445
G01 X42.0222 Y23.3471
G01 X41.3390 Y23.3471
G01 X41.3390 Y23.8870
G01 X41.3385 Y23.8967
G01 X41.3375 Y23.9039
G01 X41.3360 Y23.9111
G01 X41.3324 Y23.9226
G01 X41.3273 Y23.9337
G01 X41.3209 Y23.9440
G01 X41.3134 Y23.9535
G01 X41.3047 Y23.9620
G01 X41.2990 Y23.9665
G01 X41.2930 Y23.9706
G01 X41.2823 Y23.9765
G01 X41.2734 Y23.9802
G01 X41.2617 Y23.9836
G01 X41.2521 Y23.9853
G01 X41.2400 Y23.9860
G01 X40.0400 Y23.9860
G01 X40.0303 Y23.9855
G01 X40.0207 Y23.9841
G01 X40.0136 Y23.9824
G01 X40.0044 Y23.9794
G01 X39.9955 Y23.9754
G01 X39.9891 Y23.9719
G01 X39.9830 Y23.9679
G01 X39.9772 Y23.9635
G01 X39.9717 Y23.9587
G01 X39.9650 Y23.9517
G01 X39.9591 Y23.9440
G01 X39.9551 Y23.9379
G01 X39.9505 Y23.9293
G01 X39.9476 Y23.9226
G01 X39.9453 Y23.9157
G01 X39.9434 Y23.9087
G01 X39.9417 Y23.8991
G01 X39.9411 Y23.8919
G01 X39.9407 Y22.6584
G01 X38.9786 Y21.6962
G01 X38.9473 Y21.6617
G01 X38.9210 Y21.6263
G01 X38.8957 Y21.5844
G01 X38.8778 Y21.5468
G01 X38.8741 Y21.5378
G01 X38.8601 Y21.4985
G01 X38.8499 Y21.4582
G01 X38.8480 Y21.4486
G01 X38.8423 Y21.4098
G01 X38.8397 Y21.3609
G01 X38.8397 Y20.9215
G01 X38.1947 Y20.2766
G01 X38.1635 Y20.2421
G01 X38.1357 Y20.2048
G01 X38.1118 Y20.1649
G01 X38.0919 Y20.1228
G01 X38.0778 Y20.0836
G01 X38.0749 Y20.0743
G01 X38.0649 Y20.0338
G01 X38.0587 Y19.9926
G01 X38.0577 Y19.9829
G01 X38.0559 Y19.9462
G01 X38.0558 Y19.9304
G01 X37.7636 Y19.6382
G01 X36.6380 Y19.6380
G01 X36.6283 Y19.6375
G01 X36.6163 Y19.6356
G01 X36.6046 Y19.6322
G01 X36.5979 Y19.6295
G01 X36.5913 Y19.6263
G01 X36.5810 Y19.6199
G01 X36.5752 Y19.6155
G01 X36.5697 Y19.6107
G01 X36.5615 Y19.6018
G01 X36.5571 Y19.5960
G01 X36.5531 Y19.5899
G01 X36.5475 Y19.5791
G01 X36.5448 Y19.5724
G01 X36.5426 Y19.5654
G01 X36.5401 Y19.5535
G01 X36.5390 Y19.5414
G01 X36.5390 Y19.3507
G01 X34.9006 Y19.3507
G01 X34.3725 Y19.8787
G01 X34.3634 Y19.8867
G01 X34.3555 Y19.8923
G01 X34.3448 Y19.8982
G01 X34.3359 Y19.9019
G01 X34.3242 Y19.9053
G01 X34.3122 Y19.9072
G01 X34.3001 Y19.9077
G01 X34.2880 Y19.9066
G01 X34.2761 Y19.9041
G01 X34.2646 Y19.9002
G01 X34.2537 Y19.8948
G01 X34.2435 Y19.8882
G01 X34.2378 Y19.8837
G01 X34.2325 Y19.8787
G01 X34.0204 Y19.6666
G01 X34.0124 Y19.6575
G01 X34.0081 Y19.6516
G01 X34.0031 Y19.6433
G01 X33.9989 Y19.6345
G01 X33.9964 Y19.6277
G01 X33.9938 Y19.6183
G01 X33.9925 Y19.6111
G01 X33.9917 Y19.6039
G01 X33.9914 Y19.5942
G01 X33.9919 Y19.5869
G01 X33.9933 Y19.5773
G01 X33.9950 Y19.5702
G01 X33.9980 Y19.5610
G01 X34.0020 Y19.5521
G01 X34.0055 Y19.5457
G01 X34.0095 Y19.5396
G01 X34.0154 Y19.5319
G01 X34.0204 Y19.5266
G01 X34.7292 Y18.8178
G01 X34.7385 Y18.8100
G01 X34.7487 Y18.8034
G01 X34.7596 Y18.7980
G01 X34.7664 Y18.7955
G01 X34.7734 Y18.7935
G01 X34.7806 Y18.7920
G01 X34.7902 Y18.7908
G01 X34.7999 Y18.7905
G01 X34.8072 Y18.7910
G01 X34.8168 Y18.7924
G01 X34.8239 Y18.7941
G01 X34.8331 Y18.7971
G01 X34.8398 Y18.8000
G01 X34.8505 Y18.8059
G01 X34.8565 Y18.8100
G01 X34.8622 Y18.8145
G01 X34.9005 Y18.8525
G01 X36.5390 Y18.8525
G01 X36.5391 Y18.7341
G01 X36.5397 Y18.7269
G01 X36.5414 Y18.7173
G01 X36.5433 Y18.7103
G01 X36.5465 Y18.7011
G01 X36.5496 Y18.6945
G01 X36.5531 Y18.6881
G01 X36.5600 Y18.6781
G01 X36.5680 Y18.6690
G01 X36.5733 Y18.6640
G01 X36.5790 Y18.6595
G01 X36.5892 Y18.6529
G01 X36.5957 Y18.6495
G01 X36.6024 Y18.6466
G01 X36.6139 Y18.6430
G01 X36.6259 Y18.6407
G01 X36.6380 Y18.6400
G01 X38.0380 Y18.6400
G01 X38.0453 Y18.6403
G01 X38.0549 Y18.6415
G01 X38.0621 Y18.6430
G01 X38.0691 Y18.6450
G01 X38.0803 Y18.6495
G01 X38.0868 Y18.6529
G01 X38.0930 Y18.6567
G01 X38.1027 Y18.6640
G01 X38.1080 Y18.6690
G01 X38.1130 Y18.6743
G01 X38.1203 Y18.6840
G01 X38.1241 Y18.6902
G01 X38.1275 Y18.6967
G01 X38.1304 Y18.7034
G01 X38.1327 Y18.7103
G01 X38.1358 Y18.7238
G01 X38.1459 Y18.7279
G01 X38.1835 Y18.7458
G01 X38.2234 Y18.7697
G01 X38.2608 Y18.7974
G01 X38.2936 Y18.8270
G01 X38.8653 Y19.3987
G01 X38.8934 Y19.4295
G01 X38.8995 Y19.4370
G01 X38.9243 Y19.4706
G01 X38.9482 Y19.5105
G01 X38.9681 Y19.5525
G01 X38.9822 Y19.5917
G01 X38.9851 Y19.6010
G01 X38.9951 Y19.6415
G01 X39.0013 Y19.6827
G01 X39.0023 Y19.6924
G01 X39.0041 Y19.7291
G01 X39.0042 Y19.7449
G01 X39.6492 Y20.3898
G01 X39.6804 Y20.4243
G01 X39.7082 Y20.4616
G01 X39.7321 Y20.5016
G01 X39.7500 Y20.5392
G01 X39.7537 Y20.5482
G01 X39.7677 Y20.5874
G01 X39.7779 Y20.6278
G01 X39.7798 Y20.6374
G01 X39.7855 Y20.6762
G01 X39.7881 Y20.7251
G01 X39.7881 Y21.1645
G01 X40.6116 Y21.9880
G01 X41.2400 Y21.9880
G01 X41.2521 Y21.9887
G01 X41.2617 Y21.9904
G01 X41.2711 Y21.9930
G01 X41.2823 Y21.9975
G01 X41.2909 Y22.0021
G01 X41.3009 Y22.0090
G01 X41.3100 Y22.0170
G01 X41.3165 Y22.0242
G01 X41.3236 Y22.0340
G01 X41.3284 Y22.0425
G01 X41.3315 Y22.0491
G01 X41.3347 Y22.0583
G01 X41.3371 Y22.0677
G01 X41.3385 Y22.0773
G01 X41.3390 Y22.0870
G01 X41.3390 Y22.1485
G01 X41.7740 Y22.1485
G01 X42.3753 Y21.5473
G01 X42.4152 Y21.5109
G01 X42.4207 Y21.5063
G01 X42.4661 Y21.4727
G01 X42.5123 Y21.4449
G01 X42.5209 Y21.4403
G01 X42.5697 Y21.4174
G01 X42.6250 Y21.3976
G01 X42.6774 Y21.3843
G01 X42.6869 Y21.3824
G01 X42.7427 Y21.3744
G01 X42.7990 Y21.3717
G01 X50.6210 Y21.3717
G01 X50.6210 Y20.3460
G01 X50.6217 Y20.3339
G01 X50.6240 Y20.3219
G01 X50.6276 Y20.3104
G01 X50.6316 Y20.3015
G01 X50.6377 Y20.2910
G01 X50.6450 Y20.2813
G01 X50.6535 Y20.2726
G01 X50.6630 Y20.2651
G01 X50.6733 Y20.2587
G01 X50.6844 Y20.2536
G01 X50.6913 Y20.2513
G01 X50.6983 Y20.2494
G01 X50.7103 Y20.2475
G01 X50.7200 Y20.2470
G01 X51.1957 Y20.2470
G01 X51.1957 Y18.1342
G01 X50.2978 Y17.2363
G01 X46.5110 Y17.2363
G01 X46.5109 Y17.3419
G01 X46.5103 Y17.3491
G01 X46.5086 Y17.3587
G01 X46.5067 Y17.3657
G01 X46.5035 Y17.3749
G01 X46.5004 Y17.3815
G01 X46.4969 Y17.3879
G01 X46.4900 Y17.3979
G01 X46.4820 Y17.4070
G01 X46.4729 Y17.4150
G01 X46.4629 Y17.4219
G01 X46.4521 Y17.4275
G01 X46.4407 Y17.4317
G01 X46.4289 Y17.4345
G01 X46.4217 Y17.4355
G01 X46.4120 Y17.4360
G01 X45.6071 Y17.4359
G01 X45.5951 Y17.4345
G01 X45.5856 Y17.4324
G01 X45.5764 Y17.4294
G01 X45.5675 Y17.4254
G01 X45.5570 Y17.4193
G01 X45.5492 Y17.4135
G01 X45.5420 Y17.4070
G01 X45.5355 Y17.3998
G01 X45.5297 Y17.3920
G01 X45.5259 Y17.3858
G01 X45.5225 Y17.3793
G01 X45.5196 Y17.3726
G01 X45.5173 Y17.3657
G01 X45.5154 Y17.3587
G01 X45.5141 Y17.3515
G01 X45.5131 Y17.3419
G01 X45.5130 Y16.9688
G01 X45.4835 Y16.9195
G01 X45.4603 Y16.8708
G01 X45.4566 Y16.8618
G01 X45.4386 Y16.8110
G01 X45.4243 Y16.7539
G01 X45.4162 Y16.7006
G01 X45.4153 Y16.6909
G01 X45.4128 Y16.6346
G01 X45.4156 Y16.5783
G01 X45.4234 Y16.5249
G01 X45.4253 Y16.5154
G01 X45.4386 Y16.4630
G01 X45.4566 Y16.4122
G01 X45.4603 Y16.4032
G01 X45.4835 Y16.3545
G01 X45.5130 Y16.3052
G01 X45.5130 Y15.9370
G01 X45.5135 Y15.9273
G01 X45.5154 Y15.9153
G01 X45.5188 Y15.9036
G01 X45.5215 Y15.8969
G01 X45.5247 Y15.8903
G01 X45.5284 Y15.8840
G01 X45.5325 Y15.8780
G01 X45.5403 Y15.8687
G01 X45.5492 Y15.8605
G01 X45.5550 Y15.8561
G01 X45.5611 Y15.8521
G01 X45.5675 Y15.8486
G01 X45.5741 Y15.8455
G01 X45.5856 Y15.8416
G01 X45.5975 Y15.8391
G01 X45.6047 Y15.8383
G01 X45.6120 Y15.8380
G01 X46.4120 Y15.8380
G01 X46.4241 Y15.8387
G01 X46.4337 Y15.8404
G01 X46.4454 Y15.8438
G01 X46.4565 Y15.8486
G01 X46.4670 Y15.8547
G01 X46.4767 Y15.8620
G01 X46.4854 Y15.8705
G01 X46.4929 Y15.8800
G01 X46.4993 Y15.8903
G01 X46.5044 Y15.9014
G01 X46.5074 Y15.9106
G01 X46.5091 Y15.9177
G01 X46.5103 Y15.9249
G01 X46.5109 Y15.9321
G01 X46.5110 Y16.0377
G01 X50.4032 Y16.0377
G01 X36.9967 Y2.6313
G01 X24.0949 Y2.6313
G01 X24.1566 Y2.6933
G01 X26.7353 Y5.2721
G01 X26.7632 Y5.3030
G01 X26.7867 Y5.3345
G01 X26.7921 Y5.3426
G01 X26.8121 Y5.3763
G01 X26.8290 Y5.4117
G01 X26.8327 Y5.4206
G01 X26.8451 Y5.4553
G01 X26.8565 Y5.5004
G01 X26.8624 Y5.5392
G01 X26.8634 Y5.5488
G01 X26.8652 Y5.5880
G01 X26.8634 Y5.6272
G01 X26.8624 Y5.6368
G01 X26.8565 Y5.6756
G01 X26.8458 Y5.7184
G01 X26.8327 Y5.7554
G01 X26.8290 Y5.7643
G01 X26.8121 Y5.7997
G01 X26.7921 Y5.8334
G01 X26.7867 Y5.8415
G01 X26.7651 Y5.8705
G01 X26.7651 Y14.4718
G01 X28.9984 Y16.7053
G01 X29.0034 Y16.7106
G01 X29.0079 Y16.7163
G01 X29.0120 Y16.7223
G01 X29.0168 Y16.7308
G01 X29.0199 Y16.7374
G01 X29.0224 Y16.7442
G01 X29.0250 Y16.7536
G01 X29.0263 Y16.7608
G01 X29.0271 Y16.7680
G01 X29.0274 Y16.7753
G01 X29.0271 Y16.7826
G01 X29.0263 Y16.7898
G01 X29.0250 Y16.7970
G01 X29.0224 Y16.8064
G01 X29.0189 Y16.8154
G01 X29.0157 Y16.8220
G01 X29.0120 Y16.8283
G01 X29.0064 Y16.8362
G01 X28.9984 Y16.8453
G01 X28.7863 Y17.0574
G01 X28.7810 Y17.0624
G01 X28.7753 Y17.0669
G01 X28.7672 Y17.0723
G01 X28.7608 Y17.0758
G01 X28.7519 Y17.0798
G01 X28.7427 Y17.0828
G01 X28.7356 Y17.0845
G01 X28.7260 Y17.0859
G01 X28.7163 Y17.0864
G01 X28.7066 Y17.0859
G01 X28.6970 Y17.0845
G01 X28.6876 Y17.0821
G01 X28.6784 Y17.0789
G01 X28.6696 Y17.0747
G01 X28.6613 Y17.0697
G01 X28.6535 Y17.0639
G01 X28.6463 Y17.0574
G01 X26.4128 Y14.8240
G01 X26.3818 Y14.8223
G01 X26.3479 Y14.8173
G01 X26.3147 Y14.8090
G01 X26.2824 Y14.7974
G01 X26.2514 Y14.7828
G01 X26.2220 Y14.7652
G01 X26.1945 Y14.7448
G01 X26.1709 Y14.7235
G01 X26.1493 Y14.7001
G01 X26.1431 Y14.6926
G01 X26.1257 Y14.6689
G01 X26.1081 Y14.6395
G01 X26.0954 Y14.6129
G01 X26.0917 Y14.6040
G01 X26.0819 Y14.5762
G01 X26.0741 Y14.5454
G01 X26.0686 Y14.5091
G01 X26.0669 Y14.4749
G01 X26.0669 Y5.8741
G01 X23.4814 Y3.2886
G01 X22.9556 Y2.7646
G01 X22.8694 Y2.6803
G01 X16.5392 Y2.6803
G01 X10.9047 Y8.3148
G01 X10.6893 Y8.5467
G01 X12.7024 Y8.5467
G01 X12.7710 Y8.5502
G01 X12.8413 Y8.5606
G01 X12.9103 Y8.5779
G01 X12.9726 Y8.6001
G01 X12.9816 Y8.6038
G01 X13.0414 Y8.6322
G01 X13.1024 Y8.6688
G01 X13.1595 Y8.7111
G01 X13.2104 Y8.7571
G01 X15.0320 Y10.5787
G01 X19.3100 Y10.5787
G01 X19.3100 Y10.4006
G01 X19.3105 Y10.3933
G01 X19.3115 Y10.3861
G01 X19.3143 Y10.3743
G01 X19.3166 Y10.3674
G01 X19.3195 Y10.3607
G01 X19.3254 Y10.3500
G01 X19.3325 Y10.3402
G01 X19.3373 Y10.3347
G01 X19.3425 Y10.3296
G01 X19.3481 Y10.3250
G01 X19.3540 Y10.3207
G01 X19.3645 Y10.3146
G01 X19.3711 Y10.3115
G01 X19.3779 Y10.3090
G01 X19.3897 Y10.3059
G01 X19.3993 Y10.3045
G01 X19.4090 Y10.3040
G01 X20.6090 Y10.3040
G01 X20.6163 Y10.3043
G01 X20.6259 Y10.3055
G01 X20.6354 Y10.3076
G01 X20.6446 Y10.3106
G01 X20.6513 Y10.3135
G01 X20.6578 Y10.3169
G01 X20.6680 Y10.3235
G01 X20.6737 Y10.3280
G01 X20.6790 Y10.3330
G01 X20.6870 Y10.3421
G01 X20.6913 Y10.3480
G01 X20.6951 Y10.3542
G01 X20.6985 Y10.3607
G01 X20.7014 Y10.3674
G01 X20.7050 Y10.3789
G01 X20.7065 Y10.3861
G01 X20.7075 Y10.3933
G01 X20.7080 Y10.4030
G01 X20.7080 Y11.1157
G01 X20.7194 Y11.1617
G01 X20.7296 Y11.2296
G01 X20.7302 Y11.2369
G01 X20.7333 Y11.3030
G01 X20.7302 Y11.3691
G01 X20.7296 Y11.3764
G01 X20.7194 Y11.4443
G01 X20.7080 Y11.4903
G01 X20.7080 Y12.2030
G01 X20.7077 Y12.2103
G01 X20.7061 Y12.2223
G01 X20.7037 Y12.2317
G01 X20.6995 Y12.2431
G01 X20.6939 Y12.2539
G01 X20.6870 Y12.2639
G01 X20.6790 Y12.2730
G01 X20.6699 Y12.2810
G01 X20.6599 Y12.2879
G01 X20.6535 Y12.2914
G01 X20.6469 Y12.2945
G01 X20.6354 Y12.2984
G01 X20.6235 Y12.3009
G01 X20.6163 Y12.3017
G01 X20.6090 Y12.3020
G01 X19.4090 Y12.3020
G01 X19.3993 Y12.3015
G01 X19.3897 Y12.3001
G01 X19.3779 Y12.2970
G01 X19.3711 Y12.2945
G01 X19.3645 Y12.2914
G01 X19.3581 Y12.2879
G01 X19.3520 Y12.2839
G01 X19.3425 Y12.2764
G01 X19.3373 Y12.2713
G01 X19.3325 Y12.2658
G01 X19.3254 Y12.2560
G01 X19.3195 Y12.2453
G01 X19.3166 Y12.2386
G01 X19.3143 Y12.2317
G01 X19.3124 Y12.2247
G01 X19.3111 Y12.2175
G01 X19.3100 Y12.2054
G01 X19.3100 Y12.0273
G01 X14.7320 Y12.0273
G01 X14.6659 Y12.0242
G01 X14.6562 Y12.0232
G01 X14.5907 Y12.0134
G01 X14.5241 Y11.9968
G01 X14.5171 Y11.9946
G01 X14.4548 Y11.9722
G01 X14.3949 Y11.9440
G01 X14.3863 Y11.9394
G01 X14.3296 Y11.9052
G01 X14.2763 Y11.8659
G01 X14.2688 Y11.8597
G01 X14.2216 Y11.8169
G01 X12.4000 Y9.9953
G01 X10.2330 Y9.9953
G01 X10.2330 Y10.3880
G01 X10.2325 Y10.3977
G01 X10.2315 Y10.4049
G01 X10.2294 Y10.4144
G01 X10.2272 Y10.4214
G01 X10.2245 Y10.4281
G01 X10.2201 Y10.4368
G01 X10.2163 Y10.4430
G01 X10.2105 Y10.4508
G01 X10.2057 Y10.4563
G01 X10.2005 Y10.4614
G01 X10.1949 Y10.4660
G01 X10.1890 Y10.4703
G01 X10.1807 Y10.4753
G01 X10.1741 Y10.4785
G01 X10.1674 Y10.4812
G01 X10.1604 Y10.4834
G01 X10.1509 Y10.4855
G01 X10.1437 Y10.4865
G01 X10.1340 Y10.4870
G01 X6.8840 Y10.4870
G01 X6.8743 Y10.4865
G01 X6.8647 Y10.4851
G01 X6.8576 Y10.4834
G01 X6.8484 Y10.4804
G01 X6.8395 Y10.4764
G01 X6.8331 Y10.4729
G01 X6.8250 Y10.4675
G01 X6.8193 Y10.4630
G01 X6.8123 Y10.4563
G01 X6.8075 Y10.4508
G01 X6.8017 Y10.4430
G01 X6.7967 Y10.4347
G01 X6.7935 Y10.4281
G01 X6.7900 Y10.4191
G01 X6.7874 Y10.4097
G01 X6.7861 Y10.4025
G01 X6.7853 Y10.3953
G01 X6.7850 Y10.3880
G01 X6.7850 Y9.8628
G01 X4.6692 Y9.8628
G01 X4.6625 Y9.8730
G01 X4.6547 Y9.8823
G01 X4.6458 Y9.8905
G01 X4.6360 Y9.8976
G01 X4.6253 Y9.9035
G01 X4.6141 Y9.9080
G01 X4.6071 Y9.9100
G01 X4.5999 Y9.9115
G01 X4.5879 Y9.9129
G01 X3.5315 Y9.9130
G01 X2.4783 Y10.9662
G01 X2.4783 Y32.8728
G01 X7.8682 Y38.2627
G01 X30.7398 Y38.2627
G01 X31.3404 Y37.6621
G01 X31.3404 Y37.5925
G01 X31.2815 Y37.5272
G01 X31.2172 Y37.4406
G01 X31.1618 Y37.3481
G01 X31.1176 Y37.2550
G01 X31.1139 Y37.2460
G01 X31.0793 Y37.1490
G01 X31.0542 Y37.0491
G01 X31.0527 Y37.0420
G01 X31.0373 Y36.9377
G01 X31.0321 Y36.8349
G01 X31.0321 Y36.8251
G01 X31.0373 Y36.7223
G01 X31.0531 Y36.6156
G01 X31.0780 Y36.5157
G01 X31.0808 Y36.5064
G01 X31.1157 Y36.4094
G01 X31.1618 Y36.3119
G01 X31.2172 Y36.2194
G01 X31.2815 Y36.1328
G01 X31.3539 Y36.0529
G01 X31.4338 Y35.9805
G01 X31.5204 Y35.9162
G01 X31.6087 Y35.8632
G01 X31.6151 Y35.8596
G01 X31.7082 Y35.8156
G01 X31.7319 Y35.8069
G01 X31.7318 Y28.6213
G01 X30.9605 Y27.8500
G01 X30.6260 Y27.8500
G01 X30.6163 Y27.8495
G01 X30.6091 Y27.8485
G01 X30.5973 Y27.8457
G01 X30.5904 Y27.8434
G01 X30.5837 Y27.8405
G01 X30.5772 Y27.8371
G01 X30.5710 Y27.8333
G01 X30.5651 Y27.8290
G01 X30.5595 Y27.8244
G01 X30.5543 Y27.8193
G01 X30.5495 Y27.8138
G01 X30.5451 Y27.8080
G01 X30.5411 Y27.8019
G01 X30.5376 Y27.7955
G01 X30.5345 Y27.7889
G01 X30.5306 Y27.7774
G01 X30.5281 Y27.7655
G01 X30.5273 Y27.7583
G01 X30.5270 Y27.7510
G01 X30.5270 Y26.6323
G01 X30.5225 Y26.6189
G01 X30.5156 Y26.5904
G01 X30.5117 Y26.5637
G01 X30.5103 Y26.5344
G01 X30.5103 Y24.9643
G01 X30.3415 Y24.7953
G01 X30.3251 Y24.7770
G01 X30.3104 Y24.7574
G01 X30.3050 Y24.7494
G01 X30.2914 Y24.7261
G01 X30.2800 Y24.7018
G01 X30.2694 Y24.6718
G01 X30.2625 Y24.6433
G01 X30.2589 Y24.6190
G01 X30.2583 Y24.6118
G01 X30.2572 Y24.5873
G01 X30.2573 Y24.4319
G01 X30.2586 Y24.4075
G01 X30.2621 Y24.3832
G01 X30.2635 Y24.3761
G01 X30.2696 Y24.3516
G01 X30.1030 Y24.1850
G01 X30.0965 Y24.1778
G01 X30.0921 Y24.1720
G01 X30.0881 Y24.1659
G01 X30.0835 Y24.1573
G01 X30.0806 Y24.1506
G01 X30.0783 Y24.1437
G01 X30.0759 Y24.1343
G01 X30.0745 Y24.1247
G01 X30.0740 Y24.1174
G01 X30.0743 Y24.1077
G01 X30.0755 Y24.0981
G01 X30.0770 Y24.0909
G01 X30.0798 Y24.0816
G01 X30.0835 Y24.0727
G01 X30.0869 Y24.0662
G01 X30.0921 Y24.0580
G01 X30.0980 Y24.0503
G01 X30.1030 Y24.0450
G01 X30.3168 Y23.8312
G01 X30.3261 Y23.8234
G01 X30.3363 Y23.8168
G01 X30.3472 Y23.8114
G01 X30.3564 Y23.8082
G01 X30.3682 Y23.8054
G01 X30.3778 Y23.8042
G01 X30.3875 Y23.8039
G01 X30.3996 Y23.8050
G01 X30.4068 Y23.8063
G01 X30.4138 Y23.8082
G01 X30.4207 Y23.8105
G01 X30.4296 Y23.8145
G01 X30.4360 Y23.8180
G01 X30.4421 Y23.8220
G01 X30.4498 Y23.8279
G01 X30.4551 Y23.8329
G01 X31.1622 Y24.5400
G01 X31.1702 Y24.5491
G01 X31.1771 Y24.5591
G01 X31.1817 Y24.5677
G01 X31.1862 Y24.5789
G01 X31.1888 Y24.5883
G01 X31.1905 Y24.5979
G01 X31.1912 Y24.6100
G01 X31.1907 Y24.6197
G01 X31.1893 Y24.6293
G01 X31.1869 Y24.6387
G01 X31.1837 Y24.6479
G01 X31.1795 Y24.6567
G01 X31.1758 Y24.6630
G01 X31.1717 Y24.6690
G01 X31.1639 Y24.6783
G01 X31.0939 Y24.7483
G01 X31.0969 Y24.7583
G01 X31.1032 Y24.7844
G01 X31.1071 Y24.8111
G01 X31.1085 Y24.8380
G01 X31.1085 Y25.9566
G01 X31.1103 Y26.0244
G01 X31.1157 Y26.0855
G01 X31.1243 Y26.1371
G01 X31.1354 Y26.1783
G01 X31.1480 Y26.2092
G01 X31.1607 Y26.2301
G01 X31.1720 Y26.2422
G01 X31.1819 Y26.2488
G01 X31.1911 Y26.2520
G01 X31.4260 Y26.2520
G01 X31.4357 Y26.2525
G01 X31.4453 Y26.2539
G01 X31.4524 Y26.2556
G01 X31.4594 Y26.2578
G01 X31.4705 Y26.2626
G01 X31.4769 Y26.2661
G01 X31.4830 Y26.2701
G01 X31.4925 Y26.2776
G01 X31.5010 Y26.2863
G01 X31.5083 Y26.2960
G01 X31.5121 Y26.3022
G01 X31.5155 Y26.3087
G01 X31.5200 Y26.3199
G01 X31.5226 Y26.3293
G01 X31.5239 Y26.3365
G01 X31.5247 Y26.3437
G01 X31.5250 Y26.3510
G01 X31.5250 Y27.2855
G01 X32.4166 Y28.1773
G01 X32.4395 Y28.2028
G01 X32.4601 Y28.2303
G01 X32.4655 Y28.2383
G01 X32.4830 Y28.2678
G01 X32.4978 Y28.2988
G01 X32.5015 Y28.3078
G01 X32.5130 Y28.3401
G01 X32.5220 Y28.3758
G01 X32.5282 Y28.4169
G01 X32.5301 Y28.4560
G01 X32.5302 Y35.8069
G01 X32.5538 Y35.8156
G01 X32.6447 Y35.8586
G01 X32.6533 Y35.8632
G01 X32.7416 Y35.9162
G01 X32.8244 Y35.9775
G01 X32.8319 Y35.9836
G01 X32.9081 Y36.0529
G01 X32.9805 Y36.1328
G01 X33.0448 Y36.2194
G01 X33.1002 Y36.3119
G01 X33.1463 Y36.4094
G01 X33.1827 Y36.5110
G01 X33.2089 Y36.6156
G01 X33.2241 Y36.7175
G01 X33.2251 Y36.7271
G01 X33.2300 Y36.8300
G01 X33.2251 Y36.9329
G01 X33.2241 Y36.9425
G01 X33.2097 Y37.0396
G01 X33.2078 Y37.0491
G01 X33.1827 Y37.1490
G01 X33.1481 Y37.2460
G01 X33.1444 Y37.2550
G01 X33.1024 Y37.3437
G01 X33.0978 Y37.3523
G01 X33.0448 Y37.4406
G01 X32.9805 Y37.5272
G01 X32.9115 Y37.6036
G01 X32.9046 Y37.6105
G01 X32.8282 Y37.6795
G01 X32.7455 Y37.7410
G01 X32.7375 Y37.7464
G01 X32.6491 Y37.7992
G01 X32.5560 Y37.8434
G01 X32.5493 Y37.8462
G01 X32.5390 Y37.8500
G01 X32.5389 Y37.9127
G01 X32.5361 Y37.9690
G01 X32.5274 Y38.0272
G01 X32.5131 Y38.0843
G01 X32.4933 Y38.1396
G01 X32.4682 Y38.1928
G01 X32.4380 Y38.2432
G01 X32.4059 Y38.2866
G01 X32.3998 Y38.2941
G01 X32.3634 Y38.3340
G01 X31.4117 Y39.2857
G01 X31.3700 Y39.3237
G01 X31.3249 Y39.3575
G01 X31.3168 Y39.3629
G01 X31.2705 Y39.3905
G01 X31.2173 Y39.4156
G01 X31.1620 Y39.4354
G01 X31.1096 Y39.4487
G01 X31.1001 Y39.4506
G01 X31.0467 Y39.4584
G01 X30.9880 Y39.4613
G01 X7.6200 Y39.4613
G01 X7.5661 Y39.4587
G01 X7.5564 Y39.4578
G01 X7.5031 Y39.4497
G01 X7.4507 Y39.4367
G01 X7.4414 Y39.4339
G01 X7.3907 Y39.4156
G01 X7.3419 Y39.3927
G01 X7.3333 Y39.3881
G01 X7.2871 Y39.3603
G01 X7.2437 Y39.3282
G01 X7.2362 Y39.3221
G01 X7.1963 Y39.2857
G01 X1.4553 Y33.5447
G01 X1.4189 Y33.5048
G01 X1.4128 Y33.4973
G01 X1.3807 Y33.4539
G01 X1.3505 Y33.4035
G01 X1.3273 Y33.3548
G01 X1.3236 Y33.3458
G01 X1.3056 Y33.2950
G01 X1.2913 Y33.2379
G01 X1.2826 Y33.1797
G01 X1.2797 Y33.1210
G01 X1.2797 Y10.7180
G01 X1.2826 Y10.6593
G01 X1.2913 Y10.6011
G01 X1.3056 Y10.5440
G01 X1.3254 Y10.4887
G01 X1.3505 Y10.4355
G01 X1.3807 Y10.3851
G01 X1.4158 Y10.3378
G01 X1.4553 Y10.2943
G00 Z2.0000
G00 X2.5790 Y13.2640
G01 F60.00
G01 Z-0.0200
G01 F60.00
G01 X2.7956 Y13.2640
G01 X2.7956 Y12.3130
G01 X2.7806 Y12.3130
G01 X2.7733 Y12.3125
G01 X2.7637 Y12.3111
G01 X2.7543 Y12.3087
G01 X2.7451 Y12.3055
G01 X2.7342 Y12.3001
G01 X2.7260 Y12.2949
G01 X2.7183 Y12.2890
G01 X2.7113 Y12.2823
G01 X2.7050 Y12.2749
G01 X2.6981 Y12.2649
G01 X2.6935 Y12.2563
G01 X2.6898 Y12.2474
G01 X2.6870 Y12.2381
G01 X2.6851 Y12.2285
G01 X2.6841 Y12.2189
G01 X2.6840 Y11.0116
G01 X2.6847 Y11.0019
G01 X2.6859 Y10.9947
G01 X2.6876 Y10.9876
G01 X2.6906 Y10.9784
G01 X2.6935 Y10.9717
G01 X2.6981 Y10.9631
G01 X2.7035 Y10.9550
G01 X2.7096 Y10.9475
G01 X2.7183 Y10.9390
G01 X2.7260 Y10.9331
G01 X2.7342 Y10.9279
G01 X2.7429 Y10.9235
G01 X2.7519 Y10.9200
G01 X2.7637 Y10.9169
G01 X2.7733 Y10.9155
G01 X2.7830 Y10.9150
G01 X3.5111 Y10.9150
G01 X3.5199 Y10.9147
G01 X3.5287 Y10.9150
G01 X4.5854 Y10.9150
G01 X4.5927 Y10.9155
G01 X4.6023 Y10.9169
G01 X4.6117 Y10.9193
G01 X4.6186 Y10.9216
G01 X4.6275 Y10.9256
G01 X4.6360 Y10.9304
G01 X4.6439 Y10.9360
G01 X4.6495 Y10.9406
G01 X4.6564 Y10.9475
G01 X4.6625 Y10.9550
G01 X4.6679 Y10.9631
G01 X4.6725 Y10.9717
G01 X4.6762 Y10.9806
G01 X4.6790 Y10.9899
G01 X4.6809 Y10.9995
G01 X4.6820 Y11.0116
G01 X4.6820 Y12.2140
G01 X4.6817 Y12.2213
G01 X4.6809 Y12.2285
G01 X4.6796 Y12.2357
G01 X4.6777 Y12.2427
G01 X4.6754 Y12.2496
G01 X4.6725 Y12.2563
G01 X4.6691 Y12.2628
G01 X4.6653 Y12.2690
G01 X4.6610 Y12.2749
G01 X4.6564 Y12.2805
G01 X4.6477 Y12.2890
G01 X4.6420 Y12.2935
G01 X4.6360 Y12.2976
G01 X4.6253 Y12.3035
G01 X4.6141 Y12.3080
G01 X4.6071 Y12.3100
G01 X4.5999 Y12.3115
G01 X4.5903 Y12.3127
G01 X4.5830 Y12.3130
G01 X4.2442 Y12.3130
G01 X4.2442 Y13.2640
G01 X4.2814 Y13.2640
G01 X4.2887 Y13.2645
G01 X4.2983 Y13.2659
G01 X4.3101 Y13.2690
G01 X4.3191 Y13.2725
G01 X4.3278 Y13.2769
G01 X4.3360 Y13.2821
G01 X4.3455 Y13.2896
G01 X4.3524 Y13.2965
G01 X4.3585 Y13.3040
G01 X4.3651 Y13.3142
G01 X4.3705 Y13.3251
G01 X4.3744 Y13.3366
G01 X4.3765 Y13.3461
G01 X4.3779 Y13.3581
G01 X4.3780 Y14.4654
G01 X4.3773 Y14.4751
G01 X4.3756 Y14.4847
G01 X4.3730 Y14.4941
G01 X4.3705 Y14.5009
G01 X4.3674 Y14.5075
G01 X4.3626 Y14.5160
G01 X4.3570 Y14.5239
G01 X4.3524 Y14.5295
G01 X4.3455 Y14.5364
G01 X4.3380 Y14.5425
G01 X4.3299 Y14.5479
G01 X4.3213 Y14.5525
G01 X4.3124 Y14.5562
G01 X4.3031 Y14.5590
G01 X4.2935 Y14.5609
G01 X4.2839 Y14.5619
G01 X3.7651 Y14.5620
G01 X3.7222 Y14.5822
G01 X3.6603 Y14.6045
G01 X3.6506 Y14.6074
G01 X3.5891 Y14.6228
G01 X3.5815 Y14.6242
G01 X3.5164 Y14.6338
G01 X3.4455 Y14.6373
G01 X3.4241 Y14.6372
G01 X3.3580 Y14.6338
G01 X3.2925 Y14.6242
G01 X3.2853 Y14.6229
G01 X3.2234 Y14.6074
G01 X3.2141 Y14.6046
G01 X3.1518 Y14.5822
G01 X3.1089 Y14.5620
G01 X2.5766 Y14.5620
G01 X2.5693 Y14.5615
G01 X2.5621 Y14.5605
G01 X2.5549 Y14.5590
G01 X2.5479 Y14.5570
G01 X2.5411 Y14.5545
G01 X2.5345 Y14.5514
G01 X2.5281 Y14.5479
G01 X2.5220 Y14.5439
G01 X2.5125 Y14.5364
G01 X2.5040 Y14.5277
G01 X2.4981 Y14.5200
G01 X2.4917 Y14.5097
G01 X2.4866 Y14.4986
G01 X2.4830 Y14.4871
G01 X2.4807 Y14.4751
G01 X2.4800 Y14.4654
G01 X2.4801 Y13.3581
G01 X2.4811 Y13.3485
G01 X2.4830 Y13.3389
G01 X2.4858 Y13.3296
G01 X2.4895 Y13.3207
G01 X2.4929 Y13.3142
G01 X2.4981 Y13.3060
G01 X2.5040 Y13.2983
G01 X2.5107 Y13.2913
G01 X2.5181 Y13.2850
G01 X2.5260 Y13.2794
G01 X2.5345 Y13.2746
G01 X2.5434 Y13.2706
G01 X2.5503 Y13.2683
G01 X2.5597 Y13.2659
G01 X2.5693 Y13.2645
G01 X2.5790 Y13.2640
G00 Z2.0000
G00 X4.4340 Y15.7640
G01 F60.00
G01 Z-0.0200
G01 F60.00
G01 X4.3780 Y15.7640
G01 X4.3777 Y15.7557
G01 X4.3769 Y15.7485
G01 X4.3756 Y15.7413
G01 X4.3730 Y15.7319
G01 X4.3705 Y15.7251
G01 X4.3663 Y15.7163
G01 X4.3613 Y15.7080
G01 X4.3570 Y15.7021
G01 X4.3524 Y15.6965
G01 X4.3455 Y15.6896
G01 X4.3380 Y15.6835
G01 X4.3320 Y15.6794
G01 X4.3235 Y15.6746
G01 X4.3169 Y15.6715
G01 X4.3077 Y15.6683
G01 X4.3007 Y15.6664
G01 X4.2911 Y15.6647
G01 X4.2790 Y15.6640
G01 X3.9780 Y15.6640
G01 X3.9780 Y15.6080
G01 X4.4340 Y15.6080
G01 X4.4340 Y15.7640
G00 Z2.0000
G00 X4.4340 Y17.0180
G01 F60.00
G01 Z-0.0200
G01 F60.00
G01 X3.9780 Y17.0180
G01 X3.9780 Y16.9620
G01 X4.2790 Y16.9620
G01 X4.2911 Y16.9613
G01 X4.3007 Y16.9596
G01 X4.3101 Y16.9570
G01 X4.3169 Y16.9545
G01 X4.3257 Y16.9503
G01 X4.3320 Y16.9466
G01 X4.3399 Y16.9410
G01 X4.3455 Y16.9364
G01 X4.3524 Y16.9295
G01 X4.3570 Y16.9239
G01 X4.3626 Y16.9160
G01 X4.3663 Y16.9097
G01 X4.3705 Y16.9009
G01 X4.3730 Y16.8941
G01 X4.3750 Y16.8871
G01 X4.3769 Y16.8775
G01 X4.3777 Y16.8703
G01 X4.3780 Y16.8620
G01 X4.4340 Y16.8620
G01 X4.4340 Y17.0180
G00 Z2.0000
G00 X4.0740 Y18.8820
G01 F60.00
G01 Z-0.0200
G01 F60.00
G01 X4.0680 Y18.8820
G01 X4.0680 Y18.5760
G01 X4.0740 Y18.5760
G01 X4.0740 Y18.8820
G00 Z2.0000
G00 X4.0740 Y20.2860
G01 F60.00
G01 Z-0.0200
G01 F60.00
G01 X4.0680 Y20.2860
G01 X4.0680 Y19.9800
G01 X4.0740 Y19.9800
G01 X4.0740 Y20.2860
G00 Z2.0000
G00 X7.7530 Y21.8550
G01 F60.00
G01 Z-0.0200
G01 F60.00
G01 X7.7530 Y20.0550
G01 X7.7533 Y20.0477
G01 X7.7549 Y20.0357
G01 X7.7580 Y20.0239
G01 X7.7625 Y20.0127
G01 X7.7684 Y20.0020
G01 X7.7755 Y19.9922
G01 X7.7820 Y19.9850
G01 X7.7911 Y19.9770
G01 X7.8011 Y19.9701
G01 X7.8097 Y19.9655
G01 X7.8209 Y19.9610
G01 X7.8303 Y19.9584
G01 X7.8399 Y19.9567
G01 X7.8520 Y19.9560
G01 X7.9097 Y19.9560
G01 X7.9098 Y15.1106
G01 X7.9126 Y15.0543
G01 X7.9204 Y15.0009
G01 X7.9223 Y14.9914
G01 X7.9350 Y14.9410
G01 X7.9350 Y14.0380
G01 X7.9355 Y14.0283
G01 X7.9365 Y14.0211
G01 X7.9380 Y14.0139
G01 X7.9400 Y14.0069
G01 X7.9435 Y13.9979
G01 X7.9479 Y13.9892
G01 X7.9517 Y13.9830
G01 X7.9560 Y13.9771
G01 X7.9623 Y13.9697
G01 X7.9675 Y13.9646
G01 X7.9750 Y13.9585
G01 X7.9810 Y13.9544
G01 X7.9895 Y13.9496
G01 X7.9961 Y13.9465
G01 X8.0053 Y13.9433
G01 X8.0123 Y13.9414
G01 X8.0219 Y13.9397
G01 X8.0340 Y13.9390
G01 X8.9840 Y13.9390
G01 X8.9913 Y13.9393
G01 X9.0009 Y13.9405
G01 X9.0081 Y13.9420
G01 X9.0151 Y13.9440
G01 X9.0241 Y13.9475
G01 X9.0307 Y13.9507
G01 X9.0390 Y13.9557
G01 X9.0449 Y13.9600
G01 X9.0523 Y13.9663
G01 X9.0574 Y13.9715
G01 X9.0620 Y13.9771
G01 X9.0663 Y13.9830
G01 X9.0713 Y13.9913
G01 X9.0755 Y14.0001
G01 X9.0780 Y14.0069
G01 X9.0806 Y14.0163
G01 X9.0819 Y14.0235
G01 X9.0827 Y14.0307
G01 X9.0830 Y14.0380
G01 X9.0830 Y14.9410
G01 X9.0967 Y14.9961
G01 X9.1048 Y15.0494
G01 X9.1057 Y15.0591
G01 X9.1083 Y15.1130
G01 X9.1083 Y19.9735
G01 X9.1167 Y19.9800
G01 X9.1254 Y19.9885
G01 X9.1329 Y19.9980
G01 X9.1393 Y20.0083
G01 X9.1444 Y20.0194
G01 X9.1474 Y20.0286
G01 X9.1499 Y20.0405
G01 X9.1510 Y20.0526
G01 X9.1510 Y21.8550
G01 X9.1505 Y21.8647
G01 X9.1491 Y21.8743
G01 X9.1467 Y21.8837
G01 X9.1435 Y21.8929
G01 X9.1393 Y21.9017
G01 X9.1343 Y21.9100
G01 X9.1285 Y21.9178
G01 X9.1220 Y21.9250
G01 X9.1148 Y21.9315
G01 X9.1070 Y21.9373
G01 X9.0987 Y21.9423
G01 X9.0899 Y21.9465
G01 X9.0807 Y21.9497
G01 X9.0713 Y21.9521
G01 X9.0617 Y21.9535
G01 X9.0513 Y21.9540
G01 X9.0513 Y22.6610
G01 X9.2860 Y22.8957
G01 X13.4678 Y22.8957
G01 X14.7783 Y21.5853
G01 X14.8182 Y21.5489
G01 X14.8257 Y21.5428
G01 X14.8651 Y21.5135
G01 X14.8732 Y21.5081
G01 X14.9195 Y21.4805
G01 X14.9727 Y21.4554
G01 X15.0280 Y21.4356
G01 X15.0804 Y21.4223
G01 X15.0899 Y21.4204
G01 X15.1433 Y21.4126
G01 X15.2020 Y21.4097
G01 X23.9988 Y21.4097
G01 X24.0575 Y21.4126
G01 X24.0959 Y21.4182
G01 X25.1154 Y20.3986
G01 X25.1390 Y20.3772
G01 X25.1683 Y20.3552
G01 X25.1935 Y20.3400
G01 X25.2021 Y20.3354
G01 X25.2287 Y20.3230
G01 X25.2563 Y20.3129
G01 X25.2656 Y20.3101
G01 X25.2966 Y20.3026
G01 X25.3233 Y20.2987
G01 X25.3329 Y20.2977
G01 X25.3623 Y20.2964
G01 X25.3941 Y20.2978
G01 X25.4013 Y20.2987
G01 X25.4328 Y20.3036
G01 X25.4613 Y20.3107
G01 X25.4800 Y20.3171
G01 X25.6189 Y20.1781
G01 X25.6220 Y20.1668
G01 X25.6286 Y20.1484
G01 X25.6388 Y20.1262
G01 X25.6525 Y20.1030
G01 X25.6686 Y20.0815
G01 X25.6834 Y20.0653
G01 X25.8192 Y19.9295
G01 X25.8192 Y19.8873
G01 X25.1108 Y19.1787
G01 X25.1058 Y19.1734
G01 X25.0999 Y19.1657
G01 X25.0947 Y19.1575
G01 X25.0903 Y19.1488
G01 X25.0861 Y19.1374
G01 X25.0842 Y19.1304
G01 X25.0829 Y19.1232
G01 X25.0818 Y19.1111
G01 X25.0823 Y19.0990
G01 X25.0842 Y19.0870
G01 X25.0861 Y19.0800
G01 X25.0884 Y19.0731
G01 X25.0935 Y19.0620
G01 X25.0972 Y19.0557
G01 X25.1013 Y19.0497
G01 X25.1058 Y19.0440
G01 X25.1108 Y19.0387
G01 X25.3229 Y18.8266
G01 X25.3282 Y18.8216
G01 X25.3339 Y18.8171
G01 X25.3420 Y18.8117
G01 X25.3484 Y18.8082
G01 X25.3573 Y18.8042
G01 X25.3665 Y18.8012
G01 X25.3760 Y18.7991
G01 X25.3832 Y18.7981
G01 X25.3929 Y18.7976
G01 X25.4002 Y18.7979
G01 X25.4098 Y18.7991
G01 X25.4170 Y18.8006
G01 X25.4240 Y18.8026
G01 X25.4330 Y18.8061
G01 X25.4396 Y18.8093
G01 X25.4479 Y18.8143
G01 X25.4538 Y18.8186
G01 X25.4612 Y18.8249
G01 X26.2478 Y19.6115
G01 X26.2608 Y19.6261
G01 X26.2754 Y19.6457
G01 X26.2880 Y19.6667
G01 X26.2964 Y19.6843
G01 X26.3002 Y19.6933
G01 X26.3073 Y19.7141
G01 X26.3126 Y19.7355
G01 X26.3159 Y19.7573
G01 X26.3174 Y19.7841
G01 X26.3173 Y20.0350
G01 X26.3162 Y20.0570
G01 X26.3134 Y20.0763
G01 X26.3121 Y20.0836
G01 X26.3073 Y20.1025
G01 X26.2984 Y20.1279
G01 X26.2891 Y20.1478
G01 X26.2768 Y20.1689
G01 X26.2639 Y20.1867
G01 X26.2593 Y20.1925
G01 X26.2462 Y20.2069
G01 X26.1705 Y20.2827
G01 X26.1707 Y20.2920
G01 X26.1700 Y20.3017
G01 X26.1688 Y20.3089
G01 X26.1664 Y20.3183
G01 X26.1641 Y20.3252
G01 X26.1601 Y20.3341
G01 X26.1566 Y20.3405
G01 X26.1512 Y20.3486
G01 X26.1467 Y20.3543
G01 X26.1417 Y20.3596
G01 X26.0357 Y20.4657
G01 X24.5896 Y21.9119
G01 X24.5954 Y21.9527
G01 X24.5980 Y22.0114
G01 X24.5952 Y22.0677
G01 X24.5874 Y22.1211
G01 X24.5860 Y22.1283
G01 X24.5722 Y22.1830
G01 X24.5524 Y22.2383
G01 X24.5273 Y22.2915
G01 X24.4984 Y22.3399
G01 X24.4943 Y22.3459
G01 X24.4620 Y22.3892
G01 X24.4259 Y22.4292
G01 X24.4190 Y22.4361
G01 X24.3826 Y22.4691
G01 X24.3751 Y22.4752
G01 X24.3317 Y22.5073
G01 X24.2813 Y22.5375
G01 X24.2281 Y22.5626
G01 X24.1774 Y22.5809
G01 X24.1681 Y22.5837
G01 X24.1204 Y22.5957
G01 X24.1109 Y22.5976
G01 X24.0575 Y22.6054
G01 X23.9988 Y22.6083
G01 X15.4502 Y22.6083
G01 X14.1397 Y23.9187
G01 X14.0998 Y23.9551
G01 X14.0923 Y23.9612
G01 X14.0529 Y23.9905
G01 X14.0448 Y23.9959
G01 X13.9985 Y24.0235
G01 X13.9453 Y24.0486
G01 X13.8946 Y24.0669
G01 X13.8853 Y24.0697
G01 X13.8329 Y24.0827
G01 X13.7772 Y24.0911
G01 X13.7699 Y24.0917
G01 X13.7160 Y24.0943
G01 X9.0378 Y24.0943
G01 X8.9791 Y24.0914
G01 X8.9209 Y24.0827
G01 X8.8638 Y24.0684
G01 X8.8130 Y24.0504
G01 X8.8040 Y24.0467
G01 X8.7553 Y24.0235
G01 X8.7049 Y23.9933
G01 X8.6576 Y23.9582
G01 X8.6158 Y23.9204
G01 X8.0266 Y23.3312
G01 X7.9888 Y23.2894
G01 X7.9565 Y23.2461
G01 X7.9511 Y23.2380
G01 X7.9259 Y23.1959
G01 X7.9213 Y23.1873
G01 X7.8984 Y23.1385
G01 X7.8786 Y23.0832
G01 X7.8643 Y23.0261
G01 X7.8562 Y22.9728
G01 X7.8553 Y22.9631
G01 X7.8527 Y22.9092
G01 X7.8527 Y21.9540
G01 X7.8423 Y21.9535
G01 X7.8327 Y21.9521
G01 X7.8233 Y21.9497
G01 X7.8141 Y21.9465
G01 X7.8053 Y21.9423
G01 X7.7970 Y21.9373
G01 X7.7892 Y21.9315
G01 X7.7820 Y21.9250
G01 X7.7755 Y21.9178
G01 X7.7697 Y21.9100
G01 X7.7647 Y21.9017
G01 X7.7605 Y21.8929
G01 X7.7573 Y21.8837
G01 X7.7549 Y21.8743
G01 X7.7535 Y21.8647
G01 X7.7530 Y21.8550
G00 Z2.0000
G00 X10.0390 Y18.9340
G01 F60.00
G01 Z-0.0200
G01 F60.00
G01 X10.0391 Y17.1291
G01 X10.0401 Y17.1195
G01 X10.0420 Y17.1099
G01 X10.0448 Y17.1006
G01 X10.0485 Y17.0917
G01 X10.0531 Y17.0831
G01 X10.0585 Y17.0750
G01 X10.0630 Y17.0693
G01 X10.0697 Y17.0623
G01 X10.0771 Y17.0560
G01 X10.0850 Y17.0504
G01 X10.0935 Y17.0456
G01 X10.1024 Y17.0416
G01 X10.1116 Y17.0386
G01 X10.1211 Y17.0365
G01 X10.1307 Y17.0353
G01 X10.1387 Y17.0350
G01 X10.1388 Y15.7316
G01 X10.1413 Y15.6801
G01 X10.1422 Y15.6704
G01 X10.1503 Y15.6171
G01 X10.1633 Y15.5647
G01 X10.1661 Y15.5554
G01 X10.1844 Y15.5047
G01 X10.2097 Y15.4511
G01 X10.2097 Y15.1130
G01 X10.2123 Y15.0591
G01 X10.2132 Y15.0494
G01 X10.2213 Y14.9961
G01 X10.2350 Y14.9410
G01 X10.2350 Y14.0380
G01 X10.2357 Y14.0259
G01 X10.2380 Y14.0139
G01 X10.2400 Y14.0069
G01 X10.2425 Y14.0001
G01 X10.2467 Y13.9913
G01 X10.2504 Y13.9850
G01 X10.2545 Y13.9790
G01 X10.2590 Y13.9733
G01 X10.2640 Y13.9680
G01 X10.2712 Y13.9615
G01 X10.2770 Y13.9571
G01 X10.2831 Y13.9531
G01 X10.2895 Y13.9496
G01 X10.2961 Y13.9465
G01 X10.3029 Y13.9440
G01 X10.3099 Y13.9420
G01 X10.3195 Y13.9401
G01 X10.3267 Y13.9393
G01 X10.3340 Y13.9390
G01 X11.2840 Y13.9390
G01 X11.2961 Y13.9397
G01 X11.3081 Y13.9420
G01 X11.3151 Y13.9440
G01 X11.3219 Y13.9465
G01 X11.3307 Y13.9507
G01 X11.3370 Y13.9544
G01 X11.3430 Y13.9585
G01 X11.3505 Y13.9646
G01 X11.3557 Y13.9697
G01 X11.3620 Y13.9771
G01 X11.3663 Y13.9830
G01 X11.3713 Y13.9913
G01 X11.3745 Y13.9979
G01 X11.3772 Y14.0046
G01 X11.3794 Y14.0116
G01 X11.3811 Y14.0187
G01 X11.3825 Y14.0283
G01 X11.3830 Y14.0356
G01 X11.3830 Y14.9410
G01 X11.3957 Y14.9914
G01 X11.3976 Y15.0009
G01 X11.4054 Y15.0543
G01 X11.4082 Y15.1106
G01 X11.4082 Y15.6654
G01 X11.4054 Y15.7217
G01 X11.3976 Y15.7751
G01 X11.3957 Y15.7846
G01 X11.3830 Y15.8350
G01 X11.3830 Y16.1880
G01 X11.3823 Y16.2001
G01 X11.3800 Y16.2121
