(G-CODE GENERATED BY FLATCAM v8.994 - www.flatcam.org - Version Date: 2020/11/7)

(Name: PCB2.GTL_iso_combined_cnc)
(Type: G-code from Geometry)
(Units: MM)

(Created on Monday, 13 March 2023 at 10:48)

(This preprocessor is the default preprocessor used by FlatCAM.)
(It is made to work with MACH3 compatible motion controllers.)

(TOOL DIAMETER: 0.199 mm)
(Feedrate_XY: 60.0 mm/min)
(Feedrate_Z: 60.0 mm/min)
(Feedrate rapids 1500.0 mm/min)

(Z_Cut: -0.02 mm)
(Z_Move: 2.0 mm)
(Z Start: None mm)
(Z End: 15.0 mm)
(X,Y End: None mm)
(Steps per circle: 64)
(Preprocessor Geometry: default)

(X range:   -0.0005 ...   13.4626  mm)
(Y range:   -0.0005 ...   16.1275  mm)

(Spindle Speed: 10000.0 RPM)
G21
G90
G94

G01 F60.00

M5
G00 Z15.0000
G00 X0.0000 Y0.0000
T2
M6    
(MSG, Change to Tool Dia = 0.1990)
M0
G00 Z15.0000

M03 S10000.0
G01 F60.00
G00 X-0.0004 Y4.5683
G01 F60.00
G01 Z-0.0200
G01 F60.00
G01 X0.0007 Y4.5487
G01 X0.0043 Y4.5245
G01 X0.0102 Y4.5007
G01 X0.0185 Y4.4777
G01 X0.0290 Y4.4555
G01 X0.0416 Y4.4345
G01 X0.0562 Y4.4148
G01 X0.0709 Y4.3984
G01 X1.4334 Y3.0359
G01 X1.4498 Y3.0212
G01 X1.4655 Y3.0094
G01 X1.4736 Y3.0039
G01 X1.4905 Y2.9940
G01 X1.5082 Y2.9855
G01 X1.5172 Y2.9817
G01 X1.5357 Y2.9752
G01 X1.5547 Y2.9704
G01 X1.5643 Y2.9685
G01 X1.5837 Y2.9657
G01 X1.6082 Y2.9645
G01 X6.2955 Y2.9646
G01 X6.3028 Y2.9651
G01 X6.3101 Y2.9660
G01 X6.3173 Y2.9676
G01 X6.3266 Y2.9704
G01 X6.3334 Y2.9731
G01 X6.3421 Y2.9775
G01 X6.3484 Y2.9813
G01 X6.3562 Y2.9872
G01 X6.3617 Y2.9920
G01 X6.3668 Y2.9973
G01 X6.3715 Y3.0029
G01 X6.3771 Y3.0108
G01 X6.3808 Y3.0172
G01 X6.3840 Y3.0238
G01 X6.3868 Y3.0306
G01 X6.3896 Y3.0399
G01 X6.3918 Y3.0519
G01 X6.3926 Y3.0641
G01 X6.3926 Y3.3641
G01 X6.3921 Y3.3738
G01 X6.3907 Y3.3835
G01 X6.3890 Y3.3906
G01 X6.3868 Y3.3976
G01 X6.3830 Y3.4066
G01 X6.3796 Y3.4131
G01 X6.3758 Y3.4194
G01 X6.3715 Y3.4253
G01 X6.3651 Y3.4327
G01 X6.3599 Y3.4378
G01 X6.3523 Y3.4440
G01 X6.3463 Y3.4481
G01 X6.3400 Y3.4518
G01 X6.3334 Y3.4550
G01 X6.3266 Y3.4578
G01 X6.3173 Y3.4606
G01 X6.3101 Y3.4621
G01 X6.3028 Y3.4631
G01 X6.2931 Y3.4636
G01 X5.7931 Y3.4636
G01 X1.7116 Y3.4636
G01 X0.4986 Y4.6766
G01 X0.4986 Y5.8371
G01 X0.4978 Y5.8567
G01 X0.4969 Y5.8664
G01 X0.4939 Y5.8858
G01 X0.4886 Y5.9072
G01 X0.4814 Y5.9280
G01 X0.4777 Y5.9370
G01 X0.4692 Y5.9547
G01 X0.4566 Y5.9757
G01 X0.4420 Y5.9954
G01 X0.4289 Y6.0100
G01 X0.4238 Y6.0153
G01 X0.4111 Y6.0268
G01 X0.4036 Y6.0330
G01 X0.3877 Y6.0446
G01 X0.3667 Y6.0572
G01 X0.3490 Y6.0657
G01 X0.3400 Y6.0694
G01 X0.3215 Y6.0759
G01 X0.2978 Y6.0819
G01 X0.2735 Y6.0854
G01 X0.2491 Y6.0866
G01 X0.2246 Y6.0854
G01 X0.2004 Y6.0819
G01 X0.1766 Y6.0759
G01 X0.1536 Y6.0677
G01 X0.1314 Y6.0572
G01 X0.1104 Y6.0446
G01 X0.0907 Y6.0300
G01 X0.0726 Y6.0136
G01 X0.0562 Y5.9954
G01 X0.0416 Y5.9757
G01 X0.0290 Y5.9547
G01 X0.0185 Y5.9326
G01 X0.0102 Y5.9095
G01 X0.0043 Y5.8858
G01 X0.0007 Y5.8615
G01 X-0.0005 Y5.8371
G01 X-0.0004 Y4.5683
G00 Z2.0000
G00 X0.5536 Y4.7978
G01 F60.00
G01 Z-0.0200
G01 F60.00
G01 X0.5547 Y4.7782
G01 X0.5583 Y4.7540
G01 X0.5642 Y4.7302
G01 X0.5725 Y4.7072
G01 X0.5830 Y4.6850
G01 X0.5956 Y4.6640
G01 X0.6102 Y4.6443
G01 X0.6249 Y4.6279
G01 X1.7169 Y3.5359
G01 X1.7333 Y3.5212
G01 X1.7490 Y3.5094
G01 X1.7571 Y3.5039
G01 X1.7740 Y3.4940
G01 X1.7917 Y3.4855
G01 X1.8007 Y3.4817
G01 X1.8192 Y3.4752
G01 X1.8406 Y3.4698
G01 X1.8672 Y3.4657
G01 X1.8917 Y3.4645
G01 X6.2955 Y3.4646
G01 X6.3028 Y3.4651
G01 X6.3101 Y3.4660
G01 X6.3173 Y3.4676
G01 X6.3266 Y3.4704
G01 X6.3334 Y3.4731
G01 X6.3421 Y3.4775
G01 X6.3484 Y3.4813
G01 X6.3562 Y3.4872
G01 X6.3617 Y3.4920
G01 X6.3668 Y3.4973
G01 X6.3715 Y3.5029
G01 X6.3771 Y3.5108
G01 X6.3808 Y3.5172
G01 X6.3850 Y3.5260
G01 X6.3883 Y3.5352
G01 X6.3902 Y3.5423
G01 X6.3918 Y3.5519
G01 X6.3926 Y3.5641
G01 X6.3926 Y3.8641
G01 X6.3921 Y3.8738
G01 X6.3907 Y3.8835
G01 X6.3890 Y3.8906
G01 X6.3868 Y3.8976
G01 X6.3830 Y3.9066
G01 X6.3796 Y3.9131
G01 X6.3758 Y3.9194
G01 X6.3715 Y3.9253
G01 X6.3651 Y3.9327
G01 X6.3599 Y3.9378
G01 X6.3523 Y3.9440
G01 X6.3463 Y3.9481
G01 X6.3400 Y3.9518
G01 X6.3334 Y3.9550
G01 X6.3266 Y3.9578
G01 X6.3173 Y3.9606
G01 X6.3101 Y3.9621
G01 X6.3028 Y3.9631
G01 X6.2931 Y3.9636
G01 X5.7931 Y3.9636
G01 X1.9951 Y3.9636
G01 X1.0526 Y4.9061
G01 X1.0526 Y5.8371
G01 X1.0514 Y5.8615
G01 X1.0483 Y5.8834
G01 X1.0432 Y5.9048
G01 X1.0404 Y5.9142
G01 X1.0337 Y5.9326
G01 X1.0232 Y5.9547
G01 X1.0132 Y5.9716
G01 X1.0078 Y5.9797
G01 X0.9960 Y5.9954
G01 X0.9796 Y6.0136
G01 X0.9614 Y6.0300
G01 X0.9457 Y6.0418
G01 X0.9376 Y6.0472
G01 X0.9207 Y6.0572
G01 X0.9030 Y6.0657
G01 X0.8940 Y6.0694
G01 X0.8755 Y6.0759
G01 X0.8542 Y6.0813
G01 X0.8275 Y6.0854
G01 X0.8031 Y6.0866
G01 X0.7786 Y6.0854
G01 X0.7544 Y6.0819
G01 X0.7306 Y6.0759
G01 X0.7076 Y6.0677
G01 X0.6854 Y6.0572
G01 X0.6644 Y6.0446
G01 X0.6447 Y6.0300
G01 X0.6266 Y6.0136
G01 X0.6102 Y5.9954
G01 X0.5956 Y5.9757
G01 X0.5830 Y5.9547
G01 X0.5725 Y5.9326
G01 X0.5642 Y5.9095
G01 X0.5588 Y5.8882
G01 X0.5547 Y5.8615
G01 X0.5535 Y5.8371
G01 X0.5536 Y4.7978
G00 Z2.0000
G00 X1.1076 Y5.0272
G01 F60.00
G01 Z-0.0200
G01 F60.00
G01 X1.1087 Y5.0076
G01 X1.1123 Y4.9834
G01 X1.1182 Y4.9596
G01 X1.1265 Y4.9366
G01 X1.1370 Y4.9144
G01 X1.1496 Y4.8934
G01 X1.1642 Y4.8737
G01 X1.1789 Y4.8573
G01 X2.0003 Y4.0359
G01 X2.0167 Y4.0212
G01 X2.0324 Y4.0094
G01 X2.0405 Y4.0039
G01 X2.0574 Y3.9940
G01 X2.0796 Y3.9835
G01 X2.0980 Y3.9768
G01 X2.1073 Y3.9739
G01 X2.1288 Y3.9688
G01 X2.1506 Y3.9657
G01 X2.1751 Y3.9645
G01 X6.2955 Y3.9646
G01 X6.3053 Y3.9653
G01 X6.3125 Y3.9665
G01 X6.3220 Y3.9689
G01 X6.3289 Y3.9712
G01 X6.3378 Y3.9752
G01 X6.3442 Y3.9787
G01 X6.3523 Y3.9842
G01 X6.3581 Y3.9887
G01 X6.3634 Y3.9937
G01 X6.3700 Y4.0010
G01 X6.3758 Y4.0088
G01 X6.3796 Y4.0150
G01 X6.3840 Y4.0238
G01 X6.3868 Y4.0306
G01 X6.3890 Y4.0375
G01 X6.3911 Y4.0471
G01 X6.3923 Y4.0568
G01 X6.3926 Y4.0641
G01 X6.3926 Y4.3641
G01 X6.3921 Y4.3738
G01 X6.3902 Y4.3859
G01 X6.3883 Y4.3930
G01 X6.3859 Y4.3999
G01 X6.3830 Y4.4066
G01 X6.3796 Y4.4131
G01 X6.3758 Y4.4194
G01 X6.3715 Y4.4253
G01 X6.3651 Y4.4327
G01 X6.3599 Y4.4378
G01 X6.3543 Y4.4425
G01 X6.3484 Y4.4468
G01 X6.3421 Y4.4506
G01 X6.3334 Y4.4550
G01 X6.3243 Y4.4586
G01 X6.3173 Y4.4606
G01 X6.3101 Y4.4621
G01 X6.3028 Y4.4631
G01 X6.2931 Y4.4636
G01 X5.7931 Y4.4636
G01 X2.2785 Y4.4636
G01 X1.6066 Y5.1355
G01 X1.6066 Y5.7101
G01 X1.6054 Y5.7345
G01 X1.6027 Y5.7540
G01 X1.6008 Y5.7635
G01 X1.5959 Y5.7825
G01 X1.5886 Y5.8033
G01 X1.5857 Y5.8100
G01 X1.5760 Y5.8299
G01 X1.5646 Y5.8487
G01 X1.5530 Y5.8646
G01 X1.5468 Y5.8721
G01 X1.5318 Y5.8883
G01 X1.5154 Y5.9030
G01 X1.4997 Y5.9148
G01 X1.4916 Y5.9202
G01 X1.4747 Y5.9302
G01 X1.4526 Y5.9407
G01 X1.4342 Y5.9474
G01 X1.4248 Y5.9502
G01 X1.4034 Y5.9553
G01 X1.3815 Y5.9584
G01 X1.3571 Y5.9596
G01 X1.3326 Y5.9584
G01 X1.3084 Y5.9549
G01 X1.2846 Y5.9489
G01 X1.2616 Y5.9407
G01 X1.2394 Y5.9302
G01 X1.2225 Y5.9202
G01 X1.2144 Y5.9148
G01 X1.2007 Y5.9045
G01 X1.1950 Y5.8998
G01 X1.1789 Y5.8848
G01 X1.1626 Y5.8665
G01 X1.1496 Y5.8487
G01 X1.1370 Y5.8277
G01 X1.1265 Y5.8056
G01 X1.1190 Y5.7849
G01 X1.1134 Y5.7635
G01 X1.1115 Y5.7540
G01 X1.1087 Y5.7345
G01 X1.1075 Y5.7125
G01 X1.1076 Y5.0272
G00 Z2.0000
G00 X1.7426 Y5.1757
G01 F60.00
G01 Z-0.0200
G01 F60.00
G01 X1.7437 Y5.1561
G01 X1.7473 Y5.1319
G01 X1.7532 Y5.1081
G01 X1.7615 Y5.0851
G01 X1.7720 Y5.0629
G01 X1.7846 Y5.0419
G01 X1.7992 Y5.0222
G01 X1.8139 Y5.0058
G01 X2.2821 Y4.5376
G01 X2.2984 Y4.5227
G01 X2.3159 Y4.5094
G01 X2.3240 Y4.5039
G01 X2.3409 Y4.4940
G01 X2.3631 Y4.4835
G01 X2.3815 Y4.4768
G01 X2.3908 Y4.4739
G01 X2.4099 Y4.4693
G01 X2.4317 Y4.4660
G01 X2.4586 Y4.4645
G01 X6.2955 Y4.4646
G01 X6.3053 Y4.4653
G01 X6.3125 Y4.4665
G01 X6.3220 Y4.4689
G01 X6.3289 Y4.4712
G01 X6.3378 Y4.4752
G01 X6.3463 Y4.4800
G01 X6.3543 Y4.4856
G01 X6.3599 Y4.4904
G01 X6.3668 Y4.4973
G01 X6.3715 Y4.5029
G01 X6.3771 Y4.5108
G01 X6.3820 Y4.5193
G01 X6.3859 Y4.5283
G01 X6.3883 Y4.5352
G01 X6.3907 Y4.5447
G01 X6.3918 Y4.5519
G01 X6.3926 Y4.5641
G01 X6.3926 Y4.8641
G01 X6.3921 Y4.8738
G01 X6.3902 Y4.8859
G01 X6.3883 Y4.8930
G01 X6.3859 Y4.8999
G01 X6.3830 Y4.9066
G01 X6.3796 Y4.9131
G01 X6.3758 Y4.9194
G01 X6.3715 Y4.9253
G01 X6.3651 Y4.9327
G01 X6.3599 Y4.9378
G01 X6.3543 Y4.9425
G01 X6.3484 Y4.9468
G01 X6.3421 Y4.9506
G01 X6.3334 Y4.9550
G01 X6.3243 Y4.9586
G01 X6.3173 Y4.9606
G01 X6.3101 Y4.9621
G01 X6.3028 Y4.9631
G01 X6.2931 Y4.9636
G01 X5.7931 Y4.9636
G01 X2.5620 Y4.9636
G01 X2.2416 Y5.2840
G01 X2.2416 Y5.3315
G01 X2.2404 Y5.3535
G01 X2.2369 Y5.3778
G01 X2.2316 Y5.3992
G01 X2.2227 Y5.4246
G01 X2.2122 Y5.4467
G01 X2.1996 Y5.4677
G01 X2.1880 Y5.4836
G01 X2.1818 Y5.4911
G01 X2.1686 Y5.5056
G01 X2.1504 Y5.5220
G01 X2.1307 Y5.5366
G01 X2.1097 Y5.5492
G01 X2.0876 Y5.5597
G01 X2.0645 Y5.5679
G01 X2.0408 Y5.5739
G01 X2.0190 Y5.5772
G01 X2.0117 Y5.5778
G01 X1.9896 Y5.5786
G01 X1.9676 Y5.5774
G01 X1.9482 Y5.5747
G01 X1.9386 Y5.5728
G01 X1.9196 Y5.5679
G01 X1.9011 Y5.5614
G01 X1.8921 Y5.5577
G01 X1.8744 Y5.5492
G01 X1.8575 Y5.5392
G01 X1.8494 Y5.5338
G01 X1.8337 Y5.5220
G01 X1.8191 Y5.5089
G01 X1.8122 Y5.5020
G01 X1.7992 Y5.4874
G01 X1.7859 Y5.4697
G01 X1.7720 Y5.4467
G01 X1.7606 Y5.4223
G01 X1.7540 Y5.4039
G01 X1.7519 Y5.3968
G01 X1.7473 Y5.3778
G01 X1.7443 Y5.3584
G01 X1.7433 Y5.3487
G01 X1.7425 Y5.3291
G01 X1.7426 Y5.1757
G00 Z2.0000
G00 X2.4506 Y5.1526
G01 F60.00
G01 Z-0.0200
G01 F60.00
G01 X2.5673 Y5.0359
G01 X2.5837 Y5.0212
G01 X2.6034 Y5.0066
G01 X2.6244 Y4.9940
G01 X2.6421 Y4.9855
G01 X2.6511 Y4.9817
G01 X2.6696 Y4.9752
G01 X2.6886 Y4.9704
G01 X2.6982 Y4.9685
G01 X2.7176 Y4.9657
G01 X2.7372 Y4.9646
G01 X6.2980 Y4.9647
G01 X6.3053 Y4.9653
G01 X6.3149 Y4.9670
G01 X6.3220 Y4.9689
G01 X6.3289 Y4.9712
G01 X6.3378 Y4.9752
G01 X6.3442 Y4.9787
G01 X6.3504 Y4.9827
G01 X6.3562 Y4.9872
G01 X6.3617 Y4.9920
G01 X6.3684 Y4.9991
G01 X6.3744 Y5.0068
G01 X6.3784 Y5.0129
G01 X6.3820 Y5.0193
G01 X6.3859 Y5.0283
G01 X6.3883 Y5.0352
G01 X6.3902 Y5.0423
G01 X6.3918 Y5.0519
G01 X6.3926 Y5.0641
G01 X6.3925 Y5.3690
G01 X6.3915 Y5.3787
G01 X6.3896 Y5.3883
G01 X6.3868 Y5.3976
G01 X6.3830 Y5.4066
G01 X6.3796 Y5.4131
G01 X6.3744 Y5.4214
G01 X6.3684 Y5.4291
G01 X6.3617 Y5.4361
G01 X6.3543 Y5.4425
G01 X6.3484 Y5.4468
G01 X6.3400 Y5.4518
G01 X6.3312 Y5.4560
G01 X6.3220 Y5.4593
G01 X6.3125 Y5.4617
G01 X6.3053 Y5.4628
G01 X6.2955 Y5.4635
G01 X2.8455 Y5.4636
G01 X2.8018 Y5.5073
G01 X2.7854 Y5.5220
G01 X2.7657 Y5.5366
G01 X2.7490 Y5.5468
G01 X2.7404 Y5.5514
G01 X2.7226 Y5.5597
G01 X2.7042 Y5.5664
G01 X2.6948 Y5.5692
G01 X2.6758 Y5.5739
G01 X2.6564 Y5.5769
G01 X2.6467 Y5.5778
G01 X2.6271 Y5.5786
G01 X2.6075 Y5.5778
G01 X2.5978 Y5.5769
G01 X2.5760 Y5.5733
G01 X2.5546 Y5.5679
G01 X2.5361 Y5.5614
G01 X2.5271 Y5.5577
G01 X2.5094 Y5.5492
G01 X2.4925 Y5.5392
G01 X2.4844 Y5.5338
G01 X2.4687 Y5.5220
G01 X2.4523 Y5.5073
G01 X2.4373 Y5.4911
G01 X2.4326 Y5.4855
G01 X2.4196 Y5.4677
G01 X2.4081 Y5.4489
G01 X2.3985 Y5.4290
G01 X2.3947 Y5.4200
G01 X2.3882 Y5.4015
G01 X2.3834 Y5.3825
G01 X2.3815 Y5.3730
G01 X2.3787 Y5.3535
G01 X2.3775 Y5.3291
G01 X2.3783 Y5.3095
G01 X2.3793 Y5.2998
G01 X2.3823 Y5.2804
G01 X2.3882 Y5.2566
G01 X2.3947 Y5.2381
G01 X2.3985 Y5.2291
G01 X2.4070 Y5.2114
G01 X2.4169 Y5.1945
G01 X2.4224 Y5.1864
G01 X2.4342 Y5.1707
G01 X2.4506 Y5.1526
G00 Z2.0000
G00 X1.9426 Y6.0416
G01 F60.00
G01 Z-0.0200
G01 F60.00
G01 X1.9483 Y6.0359
G01 X1.9629 Y6.0227
G01 X1.9824 Y6.0079
G01 X2.0054 Y5.9940
G01 X2.0253 Y5.9845
G01 X2.0506 Y5.9752
G01 X2.0744 Y5.9693
G01 X2.0986 Y5.9657
G01 X2.1206 Y5.9645
G01 X6.2931 Y5.9646
G01 X6.3028 Y5.9651
G01 X6.3125 Y5.9665
G01 X6.3196 Y5.9682
G01 X6.3266 Y5.9704
G01 X6.3334 Y5.9731
G01 X6.3400 Y5.9763
G01 X6.3463 Y5.9800
G01 X6.3523 Y5.9842
G01 X6.3581 Y5.9887
G01 X6.3634 Y5.9937
G01 X6.3684 Y5.9991
G01 X6.3730 Y6.0048
G01 X6.3771 Y6.0108
G01 X6.3808 Y6.0172
G01 X6.3840 Y6.0238
G01 X6.3868 Y6.0306
G01 X6.3890 Y6.0375
G01 X6.3907 Y6.0447
G01 X6.3921 Y6.0543
G01 X6.3926 Y6.0641
G01 X6.3925 Y6.3665
G01 X6.3921 Y6.3738
G01 X6.3907 Y6.3835
G01 X6.3883 Y6.3930
G01 X6.3850 Y6.4022
G01 X6.3820 Y6.4088
G01 X6.3771 Y6.4173
G01 X6.3715 Y6.4253
G01 X6.3668 Y6.4309
G01 X6.3599 Y6.4378
G01 X6.3543 Y6.4425
G01 X6.3463 Y6.4481
G01 X6.3378 Y6.4530
G01 X6.3289 Y6.4569
G01 X6.3220 Y6.4593
G01 X6.3125 Y6.4617
G01 X6.3053 Y6.4628
G01 X6.2931 Y6.4636
G01 X2.1632 Y6.4636
G01 X2.1575 Y6.4645
G01 X5.7931 Y6.4645
G01 X6.2931 Y6.4646
G01 X6.3028 Y6.4651
G01 X6.3101 Y6.4660
G01 X6.3173 Y6.4676
G01 X6.3266 Y6.4704
G01 X6.3334 Y6.4731
G01 X6.3400 Y6.4763
G01 X6.3484 Y6.4813
G01 X6.3543 Y6.4856
G01 X6.3599 Y6.4904
G01 X6.3668 Y6.4973
G01 X6.3715 Y6.5029
G01 X6.3758 Y6.5088
G01 X6.3796 Y6.5150
G01 X6.3840 Y6.5238
G01 X6.3868 Y6.5306
G01 X6.3890 Y6.5375
G01 X6.3907 Y6.5447
G01 X6.3921 Y6.5543
G01 X6.3926 Y6.5641
G01 X6.3926 Y6.8641
G01 X6.3921 Y6.8738
G01 X6.3907 Y6.8835
G01 X6.3890 Y6.8906
G01 X6.3868 Y6.8976
G01 X6.3830 Y6.9066
G01 X6.3796 Y6.9131
G01 X6.3744 Y6.9214
G01 X6.3700 Y6.9272
G01 X6.3651 Y6.9327
G01 X6.3581 Y6.9394
G01 X6.3504 Y6.9454
G01 X6.3442 Y6.9494
G01 X6.3378 Y6.9530
G01 X6.3289 Y6.9569
G01 X6.3220 Y6.9593
G01 X6.3125 Y6.9617
G01 X6.3053 Y6.9628
G01 X6.2955 Y6.9635
G01 X2.1493 Y6.9636
G01 X2.1248 Y6.9624
G01 X2.1006 Y6.9589
G01 X2.0768 Y6.9529
G01 X2.0583 Y6.9464
G01 X2.0493 Y6.9427
G01 X2.0316 Y6.9342
G01 X2.0147 Y6.9242
G01 X2.0066 Y6.9188
G01 X1.9909 Y6.9070
G01 X1.9728 Y6.8906
G01 X1.9564 Y6.8724
G01 X1.9446 Y6.8567
G01 X1.9391 Y6.8486
G01 X1.9292 Y6.8317
G01 X1.9187 Y6.8096
G01 X1.9120 Y6.7912
G01 X1.9091 Y6.7818
G01 X1.9040 Y6.7604
G01 X1.9009 Y6.7385
G01 X1.8997 Y6.7141
G01 X1.9009 Y6.6896
G01 X1.9045 Y6.6654
G01 X1.9104 Y6.6416
G01 X1.9187 Y6.6186
G01 X1.9292 Y6.5964
G01 X1.9431 Y6.5734
G01 X1.9564 Y6.5557
G01 X1.9728 Y6.5376
G01 X1.9909 Y6.5212
G01 X2.0127 Y6.5052
G01 X2.0316 Y6.4940
G01 X2.0560 Y6.4826
G01 X2.0792 Y6.4746
G01 X2.0982 Y6.4698
G01 X2.1123 Y6.4674
G01 X2.0946 Y6.4664
G01 X2.0728 Y6.4633
G01 X2.0656 Y6.4618
G01 X2.0443 Y6.4562
G01 X2.0236 Y6.4487
G01 X2.0058 Y6.4404
G01 X1.9972 Y6.4358
G01 X1.9784 Y6.4242
G01 X1.9607 Y6.4110
G01 X1.9461 Y6.3979
G01 X1.9392 Y6.3910
G01 X1.9262 Y6.3764
G01 X1.9116 Y6.3567
G01 X1.9014 Y6.3400
G01 X1.8968 Y6.3314
G01 X1.8876 Y6.3113
G01 X1.8802 Y6.2905
G01 X1.8754 Y6.2715
G01 X1.8735 Y6.2620
G01 X1.8707 Y6.2425
G01 X1.8695 Y6.2181
G01 X1.8703 Y6.1985
G01 X1.8713 Y6.1888
G01 X1.8743 Y6.1694
G01 X1.8802 Y6.1456
G01 X1.8867 Y6.1271
G01 X1.8905 Y6.1181
G01 X1.8990 Y6.1004
G01 X1.9116 Y6.0794
G01 X1.9231 Y6.0636
G01 X1.9293 Y6.0560
G01 X1.9426 Y6.0416
G00 Z2.0000
G00 X2.0696 Y7.0576
G01 F60.00
G01 Z-0.0200
G01 F60.00
G01 X2.0913 Y7.0359
G01 X2.1097 Y7.0196
G01 X2.1295 Y7.0052
G01 X2.1463 Y6.9951
G01 X2.1528 Y6.9918
G01 X2.1683 Y6.9845
G01 X2.1751 Y6.9817
G01 X2.1936 Y6.9752
G01 X2.2126 Y6.9704
G01 X2.2198 Y6.9688
G01 X2.2392 Y6.9660
G01 X2.2636 Y6.9645
G01 X6.2931 Y6.9646
G01 X6.3028 Y6.9651
G01 X6.3125 Y6.9665
G01 X6.3196 Y6.9682
G01 X6.3266 Y6.9704
G01 X6.3334 Y6.9731
G01 X6.3421 Y6.9775
G01 X6.3504 Y6.9827
G01 X6.3562 Y6.9872
G01 X6.3617 Y6.9920
G01 X6.3668 Y6.9973
G01 X6.3715 Y7.0029
G01 X6.3758 Y7.0088
G01 X6.3796 Y7.0150
G01 X6.3840 Y7.0238
G01 X6.3868 Y7.0306
G01 X6.3890 Y7.0375
G01 X6.3907 Y7.0447
G01 X6.3918 Y7.0519
G01 X6.3926 Y7.0641
G01 X6.3925 Y7.3690
G01 X6.3918 Y7.3763
G01 X6.3907 Y7.3835
G01 X6.3890 Y7.3906
G01 X6.3868 Y7.3976
G01 X6.3840 Y7.4044
G01 X6.3808 Y7.4110
G01 X6.3771 Y7.4173
G01 X6.3730 Y7.4233
G01 X6.3668 Y7.4309
G01 X6.3599 Y7.4378
G01 X6.3504 Y7.4454
G01 X6.3421 Y7.4506
G01 X6.3334 Y7.4550
G01 X6.3220 Y7.4593
G01 X6.3125 Y7.4617
G01 X6.3028 Y7.4631
G01 X6.2931 Y7.4636
G01 X5.9468 Y7.4636
G01 X5.9481 Y7.4646
G01 X6.2931 Y7.4646
G01 X6.3004 Y7.4648
G01 X6.3077 Y7.4657
G01 X6.3173 Y7.4676
G01 X6.3243 Y7.4696
G01 X6.3334 Y7.4731
G01 X6.3421 Y7.4775
G01 X6.3484 Y7.4813
G01 X6.3543 Y7.4856
G01 X6.3617 Y7.4920
G01 X6.3668 Y7.4973
G01 X6.3730 Y7.5048
G01 X6.3784 Y7.5129
G01 X6.3830 Y7.5215
G01 X6.3868 Y7.5306
G01 X6.3896 Y7.5399
G01 X6.3911 Y7.5471
G01 X6.3923 Y7.5568
G01 X6.3926 Y7.5641
G01 X6.3926 Y7.8641
G01 X6.3921 Y7.8738
G01 X6.3907 Y7.8835
G01 X6.3890 Y7.8906
G01 X6.3868 Y7.8976
G01 X6.3830 Y7.9066
G01 X6.3796 Y7.9131
G01 X6.3744 Y7.9214
G01 X6.3700 Y7.9272
G01 X6.3651 Y7.9327
G01 X6.3581 Y7.9394
G01 X6.3504 Y7.9454
G01 X6.3442 Y7.9494
G01 X6.3378 Y7.9530
G01 X6.3289 Y7.9569
G01 X6.3220 Y7.9593
G01 X6.3125 Y7.9617
G01 X6.3053 Y7.9628
G01 X6.2980 Y7.9635
G01 X5.2906 Y7.9635
G01 X5.2809 Y7.9628
G01 X5.2737 Y7.9617
G01 X5.2665 Y7.9600
G01 X5.2573 Y7.9569
G01 X5.2483 Y7.9530
G01 X5.2419 Y7.9494
G01 X5.2338 Y7.9440
G01 X5.2281 Y7.9394
G01 X5.2210 Y7.9327
G01 X5.2146 Y7.9253
G01 X5.2090 Y7.9173
G01 X5.2031 Y7.9066
G01 X5.1986 Y7.8953
G01 X5.1960 Y7.8859
G01 X5.1943 Y7.8763
G01 X5.1936 Y7.8665
G01 X5.1936 Y7.5641
G01 X5.1938 Y7.5568
G01 X5.1947 Y7.5495
G01 X5.1960 Y7.5423
G01 X5.1986 Y7.5329
G01 X5.2011 Y7.5260
G01 X5.2042 Y7.5193
G01 X5.2077 Y7.5129
G01 X5.2132 Y7.5048
G01 X5.2177 Y7.4991
G01 X5.2245 Y7.4920
G01 X5.2319 Y7.4856
G01 X5.2398 Y7.4800
G01 X5.2483 Y7.4752
G01 X5.2573 Y7.4712
G01 X5.2665 Y7.4682
G01 X5.2761 Y7.4660
G01 X5.2858 Y7.4648
G01 X5.2931 Y7.4646
G01 X5.6380 Y7.4646
G01 X5.6393 Y7.4636
G01 X2.3439 Y7.4636
G01 X2.3232 Y7.4714
G01 X2.3138 Y7.4742
G01 X2.2948 Y7.4789
G01 X2.2705 Y7.4824
G01 X2.2461 Y7.4836
G01 X2.2265 Y7.4828
G01 X2.2168 Y7.4819
G01 X2.1974 Y7.4789
G01 X2.1783 Y7.4742
G01 X2.1690 Y7.4714
G01 X2.1506 Y7.4647
G01 X2.1328 Y7.4564
G01 X2.1242 Y7.4518
G01 X2.1074 Y7.4416
G01 X2.0916 Y7.4300
G01 X2.0840 Y7.4238
G01 X2.0696 Y7.4106
G01 X2.0563 Y7.3961
G01 X2.0501 Y7.3886
G01 X2.0386 Y7.3727
G01 X2.0260 Y7.3517
G01 X2.0175 Y7.3340
G01 X2.0137 Y7.3250
G01 X2.0072 Y7.3065
G01 X2.0024 Y7.2875
G01 X2.0005 Y7.2780
G01 X1.9977 Y7.2585
G01 X1.9965 Y7.2341
G01 X1.9973 Y7.2145
G01 X1.9983 Y7.2048
G01 X2.0013 Y7.1854
G01 X2.0059 Y7.1663
G01 X2.0088 Y7.1570
G01 X2.0155 Y7.1386
G01 X2.0238 Y7.1208
G01 X2.0284 Y7.1122
G01 X2.0386 Y7.0954
G01 X2.0501 Y7.0796
G01 X2.0563 Y7.0720
G01 X2.0696 Y7.0576
G00 Z2.0000
G00 X2.0696 Y7.8776
G01 F60.00
G01 Z-0.0200
G01 F60.00
G01 X2.1136 Y7.8336
G01 X2.1299 Y7.8187
G01 X2.1514 Y7.8026
G01 X2.1724 Y7.7900
G01 X2.1946 Y7.7795
G01 X2.2130 Y7.7728
G01 X2.2223 Y7.7699
G01 X2.2390 Y7.7658
G01 X2.2462 Y7.7645
G01 X2.2656 Y7.7617
G01 X2.2852 Y7.7606
G01 X4.6391 Y7.7605
G01 X4.6660 Y7.7620
G01 X4.6854 Y7.7648
G01 X4.6925 Y7.7664
G01 X4.7115 Y7.7712
G01 X4.7300 Y7.7777
G01 X4.7390 Y7.7815
G01 X4.7567 Y7.7900
G01 X4.7797 Y7.8039
G01 X4.7974 Y7.8172
G01 X4.8138 Y7.8319
G01 X4.9465 Y7.9645
G01 X6.2931 Y7.9646
G01 X6.3004 Y7.9648
G01 X6.3101 Y7.9660
G01 X6.3173 Y7.9676
G01 X6.3266 Y7.9704
G01 X6.3334 Y7.9731
G01 X6.3400 Y7.9763
G01 X6.3504 Y7.9827
G01 X6.3599 Y7.9904
G01 X6.3651 Y7.9955
G01 X6.3700 Y8.0010
G01 X6.3771 Y8.0108
G01 X6.3808 Y8.0172
G01 X6.3840 Y8.0238
G01 X6.3883 Y8.0352
G01 X6.3902 Y8.0423
G01 X6.3915 Y8.0495
G01 X6.3923 Y8.0568
G01 X6.3926 Y8.0641
G01 X6.3926 Y8.3641
G01 X6.3918 Y8.3763
G01 X6.3902 Y8.3859
G01 X6.3883 Y8.3930
G01 X6.3859 Y8.3999
G01 X6.3820 Y8.4088
G01 X6.3771 Y8.4173
G01 X6.3730 Y8.4233
G01 X6.3684 Y8.4291
G01 X6.3617 Y8.4361
G01 X6.3562 Y8.4410
G01 X6.3484 Y8.4468
G01 X6.3400 Y8.4518
G01 X6.3334 Y8.4550
G01 X6.3243 Y8.4586
G01 X6.3149 Y8.4612
G01 X6.3077 Y8.4625
G01 X6.2980 Y8.4635
G01 X4.8406 Y8.4636
G01 X4.8186 Y8.4624
G01 X4.7992 Y8.4597
G01 X4.7896 Y8.4578
G01 X4.7706 Y8.4529
G01 X4.7521 Y8.4464
G01 X4.7431 Y8.4427
G01 X4.7254 Y8.4342
G01 X4.7044 Y8.4216
G01 X4.6847 Y8.4070
G01 X4.6683 Y8.3923
G01 X4.5357 Y8.2597
G01 X2.3875 Y8.2597
G01 X2.3659 Y8.2730
G01 X2.3460 Y8.2827
G01 X2.3370 Y8.2864
G01 X2.3209 Y8.2922
G01 X2.3138 Y8.2942
G01 X2.2924 Y8.2993
G01 X2.2681 Y8.3027
G01 X2.2461 Y8.3036
G01 X2.2192 Y8.3022
G01 X2.1974 Y8.2989
G01 X2.1783 Y8.2942
G01 X2.1690 Y8.2914
G01 X2.1506 Y8.2847
G01 X2.1284 Y8.2742
G01 X2.1115 Y8.2642
G01 X2.1034 Y8.2588
G01 X2.0877 Y8.2470
G01 X2.0696 Y8.2306
G01 X2.0563 Y8.2161
G01 X2.0501 Y8.2086
G01 X2.0386 Y8.1927
G01 X2.0284 Y8.1760
G01 X2.0238 Y8.1674
G01 X2.0155 Y8.1496
G01 X2.0088 Y8.1312
G01 X2.0059 Y8.1218
G01 X2.0013 Y8.1028
G01 X1.9983 Y8.0834
G01 X1.9973 Y8.0737
G01 X1.9965 Y8.0541
G01 X1.9975 Y8.0320
G01 X2.0005 Y8.0102
G01 X2.0024 Y8.0006
G01 X2.0072 Y7.9816
G01 X2.0137 Y7.9631
G01 X2.0175 Y7.9541
G01 X2.0260 Y7.9364
G01 X2.0359 Y7.9195
G01 X2.0414 Y7.9114
G01 X2.0532 Y7.8957
G01 X2.0696 Y7.8776
G00 Z2.0000
G00 X3.5881 Y8.3584
G01 F60.00
G01 Z-0.0200
G01 F60.00
G01 X3.6171 Y8.3448
G01 X3.6541 Y8.3316
G01 X3.6921 Y8.3221
G01 X3.7261 Y8.3169
G01 X3.7358 Y8.3160
G01 X3.7652 Y8.3145
G01 X3.7750 Y8.3145
G01 X3.8092 Y8.3163
G01 X3.8504 Y8.3226
G01 X3.8861 Y8.3316
G01 X3.9230 Y8.3448
G01 X3.9585 Y8.3616
G01 X3.9880 Y8.3792
G01 X3.9961 Y8.3846
G01 X4.0236 Y8.4051
G01 X4.0491 Y8.4281
G01 X4.0560 Y8.4350
G01 X4.0758 Y8.4568
G01 X4.0821 Y8.4645
G01 X6.2931 Y8.4646
G01 X6.3028 Y8.4651
G01 X6.3125 Y8.4665
G01 X6.3196 Y8.4682
G01 X6.3266 Y8.4704
G01 X6.3334 Y8.4731
G01 X6.3400 Y8.4763
G01 X6.3463 Y8.4800
G01 X6.3523 Y8.4842
G01 X6.3581 Y8.4887
G01 X6.3634 Y8.4937
G01 X6.3684 Y8.4991
G01 X6.3730 Y8.5048
G01 X6.3771 Y8.5108
G01 X6.3808 Y8.5172
G01 X6.3840 Y8.5238
G01 X6.3868 Y8.5306
G01 X6.3890 Y8.5375
G01 X6.3907 Y8.5447
G01 X6.3921 Y8.5543
G01 X6.3926 Y8.5641
G01 X6.3926 Y8.8641
G01 X6.3921 Y8.8738
G01 X6.3907 Y8.8835
G01 X6.3890 Y8.8906
G01 X6.3868 Y8.8976
G01 X6.3830 Y8.9066
G01 X6.3796 Y8.9131
G01 X6.3758 Y8.9194
G01 X6.3700 Y8.9272
G01 X6.3634 Y8.9344
G01 X6.3581 Y8.9394
G01 X6.3504 Y8.9454
G01 X6.3442 Y8.9494
G01 X6.3378 Y8.9530
G01 X6.3289 Y8.9569
G01 X6.3196 Y8.9600
G01 X6.3125 Y8.9617
G01 X6.3028 Y8.9631
G01 X6.2955 Y8.9635
G01 X4.0821 Y8.9636
G01 X4.0758 Y8.9713
G01 X4.0527 Y8.9967
G01 X4.0069 Y9.0424
G01 X3.9833 Y9.0638
G01 X3.9758 Y9.0700
G01 X3.9481 Y9.0904
G01 X3.9187 Y9.1081
G01 X3.9101 Y9.1127
G01 X3.8790 Y9.1273
G01 X3.8421 Y9.1405
G01 X3.8040 Y9.1500
G01 X3.7701 Y9.1552
G01 X3.7604 Y9.1562
G01 X3.7261 Y9.1577
G01 X1.1031 Y9.1577
G01 X1.0639 Y9.1558
G01 X1.0299 Y9.1509
G01 X1.0203 Y9.1490
G01 X0.9918 Y9.1418
G01 X0.9824 Y9.1390
G01 X0.9501 Y9.1273
G01 X0.9147 Y9.1105
G01 X0.8810 Y9.0904
G01 X0.8495 Y9.0670
G01 X0.8205 Y9.0407
G01 X0.7941 Y9.0116
G01 X0.7708 Y8.9801
G01 X0.7530 Y8.9507
G01 X0.7484 Y8.9421
G01 X0.7358 Y8.9155
G01 X0.7321 Y8.9065
G01 X0.7206 Y8.8741
G01 X0.7107 Y8.8336
G01 X0.7053 Y8.7972
G01 X0.7034 Y8.7581
G01 X0.7053 Y8.7189
G01 X0.7111 Y8.6801
G01 X0.7206 Y8.6421
G01 X0.7338 Y8.6051
G01 X0.7506 Y8.5697
G01 X0.7708 Y8.5360
G01 X0.7941 Y8.5045
G01 X0.8205 Y8.4755
G01 X0.8495 Y8.4491
G01 X0.8810 Y8.4258
G01 X0.9147 Y8.4056
G01 X0.9501 Y8.3888
G01 X0.9871 Y8.3756
G01 X1.0275 Y8.3657
G01 X1.0639 Y8.3603
G01 X1.1031 Y8.3584
G01 X3.5881 Y8.3584
G00 Z2.0000
G00 X5.1936 Y5.8641
G01 F60.00
G01 Z-0.0200
G01 F60.00
G01 X5.1936 Y5.5641
G01 X5.1941 Y5.5543
G01 X5.1955 Y5.5447
G01 X5.1972 Y5.5375
G01 X5.1994 Y5.5306
G01 X5.2021 Y5.5238
G01 X5.2053 Y5.5172
G01 X5.2090 Y5.5108
G01 X5.2132 Y5.5048
G01 X5.2177 Y5.4991
G01 X5.2227 Y5.4937
G01 X5.2281 Y5.4887
G01 X5.2338 Y5.4842
G01 X5.2398 Y5.4800
G01 X5.2462 Y5.4763
G01 X5.2528 Y5.4731
G01 X5.2596 Y5.4704
G01 X5.2665 Y5.4682
G01 X5.2737 Y5.4665
G01 X5.2833 Y5.4651
G01 X5.2931 Y5.4646
G01 X6.4635 Y5.4645
G01 X6.4847 Y5.4593
G01 X6.5041 Y5.4563
G01 X6.5113 Y5.4555
G01 X6.5309 Y5.4545
G01 X7.2466 Y5.4545
G01 X7.2345 Y5.4339
G01 X7.2262 Y5.4162
G01 X7.2234 Y5.4093
G01 X7.2177 Y5.3932
G01 X7.2156 Y5.3861
G01 X7.2110 Y5.3671
G01 X7.2080 Y5.3477
G01 X7.2072 Y5.3404
G01 X7.2062 Y5.3184
G01 X7.2074 Y5.2939
G01 X7.2110 Y5.2697
G01 X7.2177 Y5.2436
G01 X7.2262 Y5.2206
G01 X7.2345 Y5.2029
G01 X7.2381 Y5.1965
G01 X7.2483 Y5.1797
G01 X7.2598 Y5.1639
G01 X7.2644 Y5.1582
G01 X7.2776 Y5.1437
G01 X7.2974 Y5.1255
G01 X7.3192 Y5.1095
G01 X7.3403 Y5.0971
G01 X7.3580 Y5.0888
G01 X7.3686 Y5.0847
G01 X7.3686 Y3.9941
G01 X7.3695 Y3.9755
G01 X7.3714 Y3.9619
G01 X7.3727 Y3.9547
G01 X7.3767 Y3.9391
G01 X7.3821 Y3.9238
G01 X7.3850 Y3.9171
G01 X7.3910 Y3.9047
G01 X7.3992 Y3.8908
G01 X7.4086 Y3.8777
G01 X7.4132 Y3.8720
G01 X7.4241 Y3.8601
G01 X7.4342 Y3.8508
G01 X7.4398 Y3.8461
G01 X7.4528 Y3.8365
G01 X7.4666 Y3.8281
G01 X7.4731 Y3.8248
G01 X7.4856 Y3.8190
G01 X7.5007 Y3.8135
G01 X7.5163 Y3.8093
G01 X7.5259 Y3.8074
G01 X7.5395 Y3.8055
G01 X7.5581 Y3.8046
G01 X10.9805 Y3.8046
G01 X10.9966 Y3.8055
G01 X11.0126 Y3.8078
G01 X11.0284 Y3.8114
G01 X11.0354 Y3.8135
G01 X11.0506 Y3.8190
G01 X11.0652 Y3.8258
G01 X11.0792 Y3.8339
G01 X11.0873 Y3.8393
G01 X11.0983 Y3.8476
G01 X11.1121 Y3.8601
G01 X11.1246 Y3.8739
G01 X11.1328 Y3.8848
G01 X11.1383 Y3.8929
G01 X11.1463 Y3.9069
G01 X11.1532 Y3.9216
G01 X11.1587 Y3.9367
G01 X11.1629 Y3.9523
G01 X11.1648 Y3.9619
G01 X11.1667 Y3.9755
G01 X11.1676 Y3.9941
G01 X11.1675 Y7.4165
G01 X11.1667 Y7.4326
G01 X11.1644 Y7.4486
G01 X11.1607 Y7.4644
G01 X11.1587 Y7.4714
G01 X11.1532 Y7.4866
G01 X11.1463 Y7.5012
G01 X11.1383 Y7.5152
G01 X11.1328 Y7.5233
G01 X11.1246 Y7.5343
G01 X11.1121 Y7.5481
G01 X11.0983 Y7.5606
G01 X11.0873 Y7.5688
G01 X11.0792 Y7.5743
G01 X11.0652 Y7.5823
G01 X11.0506 Y7.5892
G01 X11.0354 Y7.5947
G01 X11.0198 Y7.5989
G01 X11.0102 Y7.6008
G01 X10.9966 Y7.6027
G01 X10.9781 Y7.6036
G01 X7.5581 Y7.6036
G01 X7.5419 Y7.6029
G01 X7.5347 Y7.6021
G01 X7.5211 Y7.5999
G01 X7.5031 Y7.5954
G01 X7.4856 Y7.5892
G01 X7.4731 Y7.5834
G01 X7.4666 Y7.5800
G01 X7.4528 Y7.5716
G01 X7.4398 Y7.5621
G01 X7.4342 Y7.5574
G01 X7.4241 Y7.5481
G01 X7.4116 Y7.5343
G01 X7.4019 Y7.5214
G01 X7.3979 Y7.5152
G01 X7.3910 Y7.5034
G01 X7.3830 Y7.4866
G01 X7.3767 Y7.4691
G01 X7.3733 Y7.4558
G01 X7.3714 Y7.4462
G01 X7.3693 Y7.4302
G01 X7.3686 Y7.4141
G01 X7.3686 Y5.9536
G01 X6.5932 Y5.9536
G01 X6.5721 Y5.9589
G01 X6.5527 Y5.9619
G01 X6.5430 Y5.9628
G01 X6.5234 Y5.9636
G01 X5.2882 Y5.9635
G01 X5.2785 Y5.9625
G01 X5.2689 Y5.9606
G01 X5.2619 Y5.9586
G01 X5.2528 Y5.9550
G01 X5.2440 Y5.9506
G01 X5.2358 Y5.9454
G01 X5.2281 Y5.9394
G01 X5.2210 Y5.9327
G01 X5.2146 Y5.9253
G01 X5.2090 Y5.9173
G01 X5.2042 Y5.9088
G01 X5.2002 Y5.8999
G01 X5.1979 Y5.8930
G01 X5.1955 Y5.8835
G01 X5.1941 Y5.8738
G01 X5.1936 Y5.8641
G00 Z2.0000
G00 X6.3386 Y2.4127
G01 F60.00
G01 Z-0.0200
G01 F60.00
G01 X6.3385 Y0.7331
G01 X6.3397 Y0.7086
G01 X6.3425 Y0.6892
G01 X6.3444 Y0.6796
G01 X6.3500 Y0.6583
G01 X6.3566 Y0.6398
G01 X6.3595 Y0.6331
G01 X6.3680 Y0.6154
G01 X6.3779 Y0.5985
G01 X6.3819 Y0.5924
G01 X6.3936 Y0.5767
G01 X6.4099 Y0.5583
G01 X6.8956 Y0.0726
G01 X6.9137 Y0.0562
G01 X6.9294 Y0.0444
G01 X6.9375 Y0.0389
G01 X6.9544 Y0.0290
G01 X6.9721 Y0.0205
G01 X6.9811 Y0.0167
G01 X6.9996 Y0.0102
G01 X7.0234 Y0.0043
G01 X7.0428 Y0.0013
G01 X7.0525 Y0.0003
G01 X7.0721 Y-0.0005
G01 X7.0917 Y0.0003
G01 X7.1014 Y0.0013
G01 X7.1208 Y0.0043
G01 X7.1469 Y0.0110
G01 X7.1676 Y0.0185
G01 X7.1919 Y0.0301
G01 X7.2127 Y0.0429
G01 X7.2285 Y0.0546
G01 X7.2341 Y0.0593
G01 X7.2486 Y0.0726
G01 X7.2618 Y0.0870
G01 X7.2665 Y0.0927
G01 X7.2768 Y0.1064
G01 X7.2809 Y0.1125
G01 X7.2910 Y0.1293
G01 X7.3007 Y0.1491
G01 X7.3036 Y0.1558
G01 X7.3102 Y0.1743
G01 X7.3163 Y0.1980
G01 X7.3204 Y0.2246
G01 X7.3216 Y0.2466
G01 X7.3204 Y0.2735
G01 X7.3169 Y0.2978
G01 X7.3109 Y0.3215
G01 X7.3036 Y0.3423
G01 X7.2922 Y0.3667
G01 X7.2796 Y0.3877
G01 X7.2650 Y0.4074
G01 X7.2503 Y0.4238
G01 X6.8376 Y0.8365
G01 X6.8375 Y2.9115
G01 X6.8368 Y2.9213
G01 X6.8346 Y2.9333
G01 X6.8318 Y2.9426
G01 X6.8270 Y2.9538
G01 X6.8221 Y2.9623
G01 X6.8150 Y2.9722
G01 X6.8084 Y2.9794
G01 X6.8012 Y2.9860
G01 X6.7954 Y2.9904
G01 X6.7892 Y2.9944
G01 X6.7828 Y2.9980
G01 X6.7762 Y3.0010
G01 X6.7670 Y3.0043
G01 X6.7599 Y3.0062
G01 X6.7527 Y3.0075
G01 X6.7454 Y3.0083
G01 X6.7381 Y3.0086
G01 X6.4356 Y3.0085
G01 X6.4259 Y3.0078
G01 X6.4139 Y3.0056
G01 X6.4046 Y3.0028
G01 X6.3955 Y2.9990
G01 X6.3869 Y2.9944
G01 X6.3769 Y2.9875
G01 X6.3695 Y2.9811
G01 X6.3612 Y2.9722
G01 X6.3553 Y2.9644
G01 X6.3515 Y2.9581
G01 X6.3481 Y2.9516
G01 X6.3452 Y2.9449
G01 X6.3429 Y2.9380
G01 X6.3405 Y2.9285
G01 X6.3393 Y2.9213
G01 X6.3387 Y2.9140
G01 X6.3386 Y2.4127
G00 Z2.0000
G00 X6.8386 Y2.4127
G01 F60.00
G01 Z-0.0200
G01 F60.00
G01 X6.8385 Y1.4566
G01 X6.8397 Y1.4346
G01 X6.8433 Y1.4104
G01 X6.8492 Y1.3866
G01 X6.8566 Y1.3658
G01 X6.8680 Y1.3414
G01 X6.8792 Y1.3225
G01 X6.8936 Y1.3027
G01 X6.9082 Y1.2861
G01 X7.2035 Y0.9907
G01 X7.2035 Y0.7571
G01 X7.2043 Y0.7375
G01 X7.2053 Y0.7278
G01 X7.2083 Y0.7084
G01 X7.2129 Y0.6893
G01 X7.2158 Y0.6800
G01 X7.2225 Y0.6616
G01 X7.2330 Y0.6394
G01 X7.2429 Y0.6225
G01 X7.2484 Y0.6144
G01 X7.2602 Y0.5987
G01 X7.2766 Y0.5806
G01 X7.2910 Y0.5673
G01 X7.2986 Y0.5611
G01 X7.3144 Y0.5496
G01 X7.3354 Y0.5370
G01 X7.3531 Y0.5285
G01 X7.3621 Y0.5247
G01 X7.3783 Y0.5190
G01 X7.3853 Y0.5169
G01 X7.4044 Y0.5123
G01 X7.4286 Y0.5087
G01 X7.4531 Y0.5075
G01 X7.4727 Y0.5083
G01 X7.4824 Y0.5093
G01 X7.5042 Y0.5128
G01 X7.5255 Y0.5182
G01 X7.5463 Y0.5256
G01 X7.5707 Y0.5370
G01 X7.5937 Y0.5509
G01 X7.6095 Y0.5626
G01 X7.6151 Y0.5673
G01 X7.6296 Y0.5806
G01 X7.6428 Y0.5950
G01 X7.6490 Y0.6026
G01 X7.6606 Y0.6184
G01 X7.6732 Y0.6394
G01 X7.6837 Y0.6616
G01 X7.6904 Y0.6800
G01 X7.6932 Y0.6893
G01 X7.6979 Y0.7084
G01 X7.7009 Y0.7278
G01 X7.7017 Y0.7350
G01 X7.7026 Y0.7546
G01 X7.7026 Y1.0941
G01 X7.7014 Y1.1185
G01 X7.6987 Y1.1380
G01 X7.6968 Y1.1475
G01 X7.6919 Y1.1665
G01 X7.6837 Y1.1896
G01 X7.6732 Y1.2117
G01 X7.6632 Y1.2286
G01 X7.6578 Y1.2367
G01 X7.6460 Y1.2524
G01 X7.6296 Y1.2706
G01 X7.3376 Y1.5625
G01 X7.3375 Y2.9115
G01 X7.3368 Y2.9213
G01 X7.3346 Y2.9333
G01 X7.3318 Y2.9426
G01 X7.3270 Y2.9538
G01 X7.3221 Y2.9623
G01 X7.3150 Y2.9722
G01 X7.3084 Y2.9794
G01 X7.3012 Y2.9860
G01 X7.2954 Y2.9904
G01 X7.2892 Y2.9944
G01 X7.2828 Y2.9980
G01 X7.2762 Y3.0010
G01 X7.2670 Y3.0043
G01 X7.2599 Y3.0062
G01 X7.2527 Y3.0075
G01 X7.2454 Y3.0083
G01 X7.2381 Y3.0086
G01 X6.9356 Y3.0085
G01 X6.9259 Y3.0078
G01 X6.9139 Y3.0056
G01 X6.9046 Y3.0028
G01 X6.8955 Y2.9990
G01 X6.8869 Y2.9944
G01 X6.8769 Y2.9875
G01 X6.8695 Y2.9811
G01 X6.8612 Y2.9722
G01 X6.8553 Y2.9644
G01 X6.8515 Y2.9581
G01 X6.8481 Y2.9516
G01 X6.8452 Y2.9449
G01 X6.8429 Y2.9380
G01 X6.8405 Y2.9285
G01 X6.8393 Y2.9213
G01 X6.8387 Y2.9140
G01 X6.8386 Y2.4127
G00 Z2.0000
G00 X7.8386 Y2.5628
G01 F60.00
G01 Z-0.0200
G01 F60.00
G01 X7.8376 Y2.5641
G01 X7.8376 Y2.9091
G01 X7.8373 Y2.9164
G01 X7.8361 Y2.9261
G01 X7.8340 Y2.9356
G01 X7.8309 Y2.9449
G01 X7.8270 Y2.9538
G01 X7.8221 Y2.9623
G01 X7.8165 Y2.9703
G01 X7.8101 Y2.9777
G01 X7.8031 Y2.9844
G01 X7.7973 Y2.9890
G01 X7.7892 Y2.9944
G01 X7.7828 Y2.9980
G01 X7.7762 Y3.0010
G01 X7.7693 Y3.0036
G01 X7.7599 Y3.0062
G01 X7.7527 Y3.0075
G01 X7.7454 Y3.0083
G01 X7.7381 Y3.0086
G01 X7.4356 Y3.0085
G01 X7.4259 Y3.0078
G01 X7.4139 Y3.0056
G01 X7.4046 Y3.0028
G01 X7.3955 Y2.9990
G01 X7.3869 Y2.9944
G01 X7.3788 Y2.9890
G01 X7.3695 Y2.9811
G01 X7.3627 Y2.9741
G01 X7.3567 Y2.9664
G01 X7.3527 Y2.9602
G01 X7.3492 Y2.9538
G01 X7.3452 Y2.9449
G01 X7.3429 Y2.9380
G01 X7.3405 Y2.9285
G01 X7.3393 Y2.9213
G01 X7.3386 Y2.9115
G01 X7.3386 Y1.9066
G01 X7.3397 Y1.8945
G01 X7.3410 Y1.8873
G01 X7.3429 Y1.8802
G01 X7.3471 Y1.8688
G01 X7.3503 Y1.8622
G01 X7.3540 Y1.8558
G01 X7.3612 Y1.8460
G01 X7.3660 Y1.8405
G01 X7.3713 Y1.8354
G01 X7.3808 Y1.8277
G01 X7.3925 Y1.8206
G01 X7.3925 Y1.6886
G01 X7.3933 Y1.6690
G01 X7.3943 Y1.6593
G01 X7.3973 Y1.6399
G01 X7.4040 Y1.6138
G01 X7.4125 Y1.5908
G01 X7.4208 Y1.5731
G01 X7.4244 Y1.5667
G01 X7.4346 Y1.5499
G01 X7.4461 Y1.5341
G01 X7.4507 Y1.5284
G01 X7.4622 Y1.5156
G01 X7.8385 Y1.1392
G01 X7.8385 Y0.7571
G01 X7.8397 Y0.7326
G01 X7.8438 Y0.7060
G01 X7.8500 Y0.6823
G01 X7.8566 Y0.6638
G01 X7.8595 Y0.6571
G01 X7.8680 Y0.6394
G01 X7.8779 Y0.6225
G01 X7.8819 Y0.6164
G01 X7.8921 Y0.6026
G01 X7.8983 Y0.5950
G01 X7.9116 Y0.5806
G01 X7.9297 Y0.5642
G01 X7.9494 Y0.5496
G01 X7.9726 Y0.5358
G01 X7.9926 Y0.5265
G01 X8.0156 Y0.5182
G01 X8.0394 Y0.5123
G01 X8.0612 Y0.5090
G01 X8.0856 Y0.5075
G01 X8.1077 Y0.5083
G01 X8.1150 Y0.5090
G01 X8.1320 Y0.5115
G01 X8.1415 Y0.5134
G01 X8.1605 Y0.5182
G01 X8.1836 Y0.5265
G01 X8.2057 Y0.5370
G01 X8.2267 Y0.5496
G01 X8.2464 Y0.5642
G01 X8.2646 Y0.5806
G01 X8.2810 Y0.5987
G01 X8.2928 Y0.6144
G01 X8.2982 Y0.6225
G01 X8.3082 Y0.6394
G01 X8.3167 Y0.6571
G01 X8.3204 Y0.6661
G01 X8.3269 Y0.6846
G01 X8.3323 Y0.7060
G01 X8.3337 Y0.7132
G01 X8.3367 Y0.7350
G01 X8.3376 Y0.7571
G01 X8.3376 Y1.1705
G01 X8.3925 Y1.1157
G01 X8.3925 Y0.5202
G01 X8.3872 Y0.5127
G01 X8.3771 Y0.4959
G01 X8.3655 Y0.4716
G01 X8.3572 Y0.4485
G01 X8.3508 Y0.4224
G01 X8.3480 Y0.4030
G01 X8.3473 Y0.3957
G01 X8.3465 Y0.3761
G01 X8.3473 Y0.3565
G01 X8.3480 Y0.3492
G01 X8.3508 Y0.3298
G01 X8.3566 Y0.3060
G01 X8.3655 Y0.2806
G01 X8.3760 Y0.2584
G01 X8.3886 Y0.2374
G01 X8.4032 Y0.2177
G01 X8.4196 Y0.1996
G01 X8.4377 Y0.1832
G01 X8.4574 Y0.1686
G01 X8.4784 Y0.1560
G01 X8.5006 Y0.1455
G01 X8.5236 Y0.1372
G01 X8.5474 Y0.1313
G01 X8.5716 Y0.1277
G01 X8.5961 Y0.1265
G01 X8.6205 Y0.1277
G01 X8.6448 Y0.1313
G01 X8.6709 Y0.1380
G01 X8.6916 Y0.1455
G01 X8.7116 Y0.1548
G01 X8.7306 Y0.1659
G01 X8.7387 Y0.1714
G01 X8.7544 Y0.1832
G01 X8.7708 Y0.1979
G01 X8.8219 Y0.2491
G01 X8.8350 Y0.2637
G01 X8.8468 Y0.2794
G01 X8.8522 Y0.2875
G01 X8.8622 Y0.3044
G01 X8.8707 Y0.3221
G01 X8.8744 Y0.3311
G01 X8.8809 Y0.3496
G01 X8.8869 Y0.3734
G01 X8.8904 Y0.3976
G01 X8.8916 Y0.4221
G01 X8.8916 Y1.2191
G01 X8.8904 Y1.2435
G01 X8.8873 Y1.2654
G01 X8.8858 Y1.2725
G01 X8.8802 Y1.2939
G01 X8.8727 Y1.3146
G01 X8.8644 Y1.3324
G01 X8.8598 Y1.3410
G01 X8.8496 Y1.3577
G01 X8.8380 Y1.3736
G01 X8.8318 Y1.3811
G01 X8.8186 Y1.3956
G01 X8.3944 Y1.8197
G01 X8.4046 Y1.8154
G01 X8.4139 Y1.8126
G01 X8.4235 Y1.8107
G01 X8.4356 Y1.8096
G01 X8.7430 Y1.8097
G01 X8.7527 Y1.8107
G01 X8.7623 Y1.8126
G01 X8.7716 Y1.8154
G01 X8.7806 Y1.8191
G01 X8.7892 Y1.8237
G01 X8.7973 Y1.8292
G01 X8.8049 Y1.8354
G01 X8.8118 Y1.8423
G01 X8.8180 Y1.8498
G01 X8.8221 Y1.8558
G01 X8.8270 Y1.8643
G01 X8.8300 Y1.8710
G01 X8.8326 Y1.8779
G01 X8.8352 Y1.8873
G01 X8.8365 Y1.8945
G01 X8.8375 Y1.9042
G01 X8.8376 Y2.3080
G01 X8.8386 Y2.3094
G01 X8.8386 Y1.9091
G01 X8.8388 Y1.9018
G01 X8.8400 Y1.8921
G01 X8.8422 Y1.8825
G01 X8.8452 Y1.8733
G01 X8.8492 Y1.8643
G01 X8.8540 Y1.8558
G01 X8.8612 Y1.8460
G01 X8.8677 Y1.8387
G01 X8.8750 Y1.8322
G01 X8.8808 Y1.8277
G01 X8.8869 Y1.8237
G01 X8.8955 Y1.8191
G01 X8.9023 Y1.8162
G01 X8.9092 Y1.8139
G01 X8.9163 Y1.8120
G01 X8.9259 Y1.8103
G01 X8.9332 Y1.8097
G01 X9.2381 Y1.8096
G01 X9.2454 Y1.8098
G01 X9.2527 Y1.8107
G01 X9.2623 Y1.8126
G01 X9.2693 Y1.8146
G01 X9.2784 Y1.8181
G01 X9.2850 Y1.8213
G01 X9.2913 Y1.8250
G01 X9.2993 Y1.8306
G01 X9.3067 Y1.8370
G01 X9.3118 Y1.8423
G01 X9.3180 Y1.8498
G01 X9.3221 Y1.8558
G01 X9.3258 Y1.8622
G01 X9.3300 Y1.8710
G01 X9.3326 Y1.8779
G01 X9.3352 Y1.8873
G01 X9.3365 Y1.8945
G01 X9.3373 Y1.9018
G01 X9.3376 Y1.9091
G01 X9.3376 Y2.9091
G01 X9.3373 Y2.9164
G01 X9.3361 Y2.9261
G01 X9.3340 Y2.9356
G01 X9.3309 Y2.9449
G01 X9.3280 Y2.9516
G01 X9.3246 Y2.9581
G01 X9.3180 Y2.9683
G01 X9.3101 Y2.9777
G01 X9.3049 Y2.9828
G01 X9.2993 Y2.9875
G01 X9.2892 Y2.9944
G01 X9.2784 Y3.0000
G01 X9.2716 Y3.0028
G01 X9.2646 Y3.0050
G01 X9.2527 Y3.0075
G01 X9.2454 Y3.0083
G01 X9.2381 Y3.0086
G01 X8.9381 Y3.0086
G01 X8.9308 Y3.0083
G01 X8.9235 Y3.0075
G01 X8.9107 Y3.0047
G01 X9.0805 Y3.1745
G01 X11.3901 Y3.1745
G01 X11.4145 Y3.1757
G01 X11.4340 Y3.1785
G01 X11.4435 Y3.1804
G01 X11.4625 Y3.1852
G01 X11.4810 Y3.1917
G01 X11.4878 Y3.1945
G01 X11.5034 Y3.2018
G01 X11.5120 Y3.2064
G01 X11.5307 Y3.2179
G01 X11.5484 Y3.2312
G01 X11.5648 Y3.2459
G01 X11.8223 Y3.5033
G01 X11.8354 Y3.5179
G01 X11.8400 Y3.5236
G01 X11.8516 Y3.5394
G01 X11.8618 Y3.5562
G01 X11.8664 Y3.5648
G01 X11.8747 Y3.5826
G01 X11.8829 Y3.6056
G01 X11.8878 Y3.6246
G01 X11.8897 Y3.6342
G01 X11.8924 Y3.6536
G01 X11.8936 Y3.6756
G01 X11.8936 Y4.3155
G01 X11.8924 Y4.3375
G01 X11.8883 Y4.3642
G01 X11.8822 Y4.3879
G01 X11.8756 Y4.4063
G01 X11.8727 Y4.4130
G01 X11.8642 Y4.4307
G01 X11.8542 Y4.4476
G01 X11.8488 Y4.4557
G01 X11.8370 Y4.4714
G01 X11.8239 Y4.4860
G01 X11.8170 Y4.4929
G01 X11.8024 Y4.5060
G01 X11.7867 Y4.5178
G01 X11.7786 Y4.5232
G01 X11.7617 Y4.5332
G01 X11.7373 Y4.5446
G01 X11.7165 Y4.5519
G01 X11.6975 Y4.5568
G01 X11.6904 Y4.5583
G01 X11.6710 Y4.5612
G01 X11.6441 Y4.5626
G01 X11.6245 Y4.5618
G01 X11.6148 Y4.5609
G01 X11.5954 Y4.5579
G01 X11.5763 Y4.5532
G01 X11.5670 Y4.5504
G01 X11.5486 Y4.5437
G01 X11.5308 Y4.5354
G01 X11.5222 Y4.5308
G01 X11.5054 Y4.5206
G01 X11.4896 Y4.5090
G01 X11.4820 Y4.5028
G01 X11.4676 Y4.4896
G01 X11.4496 Y4.4695
G01 X11.4366 Y4.4517
G01 X11.4264 Y4.4350
G01 X11.4218 Y4.4264
G01 X11.4135 Y4.4086
G01 X11.4052 Y4.3855
G01 X11.4004 Y4.3665
G01 X11.3985 Y4.3570
G01 X11.3955 Y4.3351
G01 X11.3945 Y4.3131
G01 X11.3945 Y3.7815
G01 X11.2867 Y3.6736
G01 X8.9746 Y3.6736
G01 X8.9526 Y3.6724
G01 X8.9332 Y3.6697
G01 X8.9236 Y3.6678
G01 X8.9023 Y3.6622
G01 X8.8816 Y3.6547
G01 X8.8616 Y3.6453
G01 X8.8425 Y3.6342
G01 X8.8344 Y3.6288
G01 X8.8187 Y3.6170
G01 X8.8006 Y3.6006
G01 X8.4622 Y3.2620
G01 X8.4492 Y3.2474
G01 X8.4374 Y3.2317
G01 X8.4332 Y3.2257
G01 X8.4231 Y3.2089
G01 X8.4115 Y3.1846
G01 X8.4026 Y3.1592
G01 X8.3973 Y3.1378
G01 X8.3935 Y3.1111
G01 X8.3925 Y3.0891
G01 X8.3925 Y2.9975
G01 X8.3808 Y2.9904
G01 X8.3713 Y2.9828
G01 X8.3627 Y2.9741
G01 X8.3582 Y2.9683
G01 X8.3540 Y2.9623
G01 X8.3503 Y2.9560
G01 X8.3471 Y2.9494
G01 X8.3429 Y2.9380
G01 X8.3400 Y2.9261
G01 X8.3387 Y2.9140
G01 X8.3386 Y1.9091
G01 X8.3393 Y1.8969
G01 X8.3410 Y1.8873
G01 X8.3444 Y1.8756
G01 X8.3487 Y1.8654
G01 X8.3376 Y1.8765
G01 X8.3375 Y2.9115
G01 X8.3371 Y2.9188
G01 X8.3357 Y2.9285
G01 X8.3333 Y2.9380
G01 X8.3309 Y2.9449
G01 X8.3270 Y2.9538
G01 X8.3234 Y2.9602
G01 X8.3180 Y2.9683
G01 X8.3134 Y2.9741
G01 X8.3067 Y2.9811
G01 X8.2993 Y2.9875
G01 X8.2892 Y2.9944
G01 X8.2806 Y2.9990
G01 X8.2693 Y3.0036
G01 X8.2599 Y3.0062
G01 X8.2503 Y3.0078
G01 X8.2405 Y3.0085
G01 X7.9381 Y3.0086
G01 X7.9308 Y3.0083
G01 X7.9211 Y3.0071
G01 X7.9139 Y3.0056
G01 X7.9069 Y3.0036
G01 X7.9000 Y3.0010
G01 X7.8933 Y2.9980
G01 X7.8869 Y2.9944
G01 X7.8788 Y2.9890
G01 X7.8731 Y2.9844
G01 X7.8660 Y2.9777
G01 X7.8596 Y2.9703
G01 X7.8540 Y2.9623
G01 X7.8492 Y2.9538
G01 X7.8452 Y2.9449
G01 X7.8422 Y2.9356
G01 X7.8400 Y2.9261
G01 X7.8388 Y2.9164
G01 X7.8386 Y2.9091
G01 X7.8386 Y2.5628
G00 Z2.0000
G00 X9.4381 Y1.8096
G01 F60.00
G01 Z-0.0200
G01 F60.00
G01 X9.7381 Y1.8096
G01 X9.7454 Y1.8098
G01 X9.7551 Y1.8110
G01 X9.7623 Y1.8126
G01 X9.7693 Y1.8146
G01 X9.7762 Y1.8171
G01 X9.7828 Y1.8202
G01 X9.7934 Y1.8263
G01 X9.7993 Y1.8306
G01 X9.8049 Y1.8354
G01 X9.8134 Y1.8441
G01 X9.8180 Y1.8498
G01 X9.8221 Y1.8558
G01 X9.8258 Y1.8622
G01 X9.8290 Y1.8688
G01 X9.8318 Y1.8756
G01 X9.8340 Y1.8825
G01 X9.8365 Y1.8945
G01 X9.8373 Y1.9018
G01 X9.8376 Y1.9091
G01 X9.8376 Y2.9091
G01 X9.8373 Y2.9164
G01 X9.8365 Y2.9237
G01 X9.8352 Y2.9309
G01 X9.8333 Y2.9380
G01 X9.8300 Y2.9472
G01 X9.8270 Y2.9538
G01 X9.8234 Y2.9602
G01 X9.8194 Y2.9664
G01 X9.8150 Y2.9722
G01 X9.8101 Y2.9777
G01 X9.8031 Y2.9844
G01 X9.7973 Y2.9890
G01 X9.7913 Y2.9931
G01 X9.7850 Y2.9968
G01 X9.7784 Y3.0000
G01 X9.7716 Y3.0028
G01 X9.7646 Y3.0050
G01 X9.7575 Y3.0067
G01 X9.7503 Y3.0078
G01 X9.7381 Y3.0086
G01 X9.4381 Y3.0086
G01 X9.4283 Y3.0081
G01 X9.4211 Y3.0071
G01 X9.4092 Y3.0043
G01 X9.4023 Y3.0019
G01 X9.3955 Y2.9990
G01 X9.3890 Y2.9956
G01 X9.3828 Y2.9918
G01 X9.3769 Y2.9875
G01 X9.3713 Y2.9828
G01 X9.3660 Y2.9777
G01 X9.3612 Y2.9722
G01 X9.3567 Y2.9664
G01 X9.3527 Y2.9602
G01 X9.3471 Y2.9494
G01 X9.3444 Y2.9426
G01 X9.3422 Y2.9356
G01 X9.3397 Y2.9237
G01 X9.3388 Y2.9164
G01 X9.3386 Y2.9091
G01 X9.3386 Y1.9091
G01 X9.3388 Y1.9018
G01 X9.3400 Y1.8921
G01 X9.3422 Y1.8825
G01 X9.3452 Y1.8733
G01 X9.3481 Y1.8665
G01 X9.3515 Y1.8600
G01 X9.3567 Y1.8518
G01 X9.3627 Y1.8441
G01 X9.3695 Y1.8370
G01 X9.3769 Y1.8306
G01 X9.3848 Y1.8250
G01 X9.3933 Y1.8202
G01 X9.4023 Y1.8162
G01 X9.4115 Y1.8132
G01 X9.4211 Y1.8110
G01 X9.4308 Y1.8098
G01 X9.4381 Y1.8096
G00 Z2.0000
G00 X9.9381 Y1.8096
G01 F60.00
G01 Z-0.0200
G01 F60.00
G01 X10.2381 Y1.8096
G01 X10.2454 Y1.8098
G01 X10.2551 Y1.8110
G01 X10.2623 Y1.8126
G01 X10.2693 Y1.8146
G01 X10.2762 Y1.8171
G01 X10.2828 Y1.8202
G01 X10.2934 Y1.8263
G01 X10.2993 Y1.8306
G01 X10.3049 Y1.8354
G01 X10.3134 Y1.8441
G01 X10.3180 Y1.8498
G01 X10.3221 Y1.8558
G01 X10.3258 Y1.8622
G01 X10.3290 Y1.8688
G01 X10.3318 Y1.8756
G01 X10.3340 Y1.8825
G01 X10.3365 Y1.8945
G01 X10.3373 Y1.9018
G01 X10.3376 Y1.9091
G01 X10.3376 Y2.9091
G01 X10.3373 Y2.9164
G01 X10.3365 Y2.9237
G01 X10.3352 Y2.9309
G01 X10.3333 Y2.9380
G01 X10.3300 Y2.9472
G01 X10.3270 Y2.9538
G01 X10.3234 Y2.9602
G01 X10.3194 Y2.9664
G01 X10.3150 Y2.9722
G01 X10.3101 Y2.9777
G01 X10.3031 Y2.9844
G01 X10.2973 Y2.9890
G01 X10.2913 Y2.9931
G01 X10.2850 Y2.9968
G01 X10.2784 Y3.0000
G01 X10.2716 Y3.0028
G01 X10.2646 Y3.0050
G01 X10.2575 Y3.0067
G01 X10.2503 Y3.0078
G01 X10.2381 Y3.0086
G01 X9.9381 Y3.0086
G01 X9.9283 Y3.0081
G01 X9.9211 Y3.0071
G01 X9.9092 Y3.0043
G01 X9.9023 Y3.0019
G01 X9.8955 Y2.9990
G01 X9.8890 Y2.9956
G01 X9.8828 Y2.9918
G01 X9.8769 Y2.9875
G01 X9.8713 Y2.9828
G01 X9.8660 Y2.9777
G01 X9.8612 Y2.9722
G01 X9.8567 Y2.9664
G01 X9.8527 Y2.9602
G01 X9.8471 Y2.9494
G01 X9.8444 Y2.9426
G01 X9.8422 Y2.9356
G01 X9.8397 Y2.9237
G01 X9.8388 Y2.9164
G01 X9.8386 Y2.9091
G01 X9.8386 Y1.9091
G01 X9.8388 Y1.9018
G01 X9.8400 Y1.8921
G01 X9.8422 Y1.8825
G01 X9.8452 Y1.8733
G01 X9.8481 Y1.8665
G01 X9.8515 Y1.8600
G01 X9.8567 Y1.8518
G01 X9.8627 Y1.8441
G01 X9.8695 Y1.8370
G01 X9.8769 Y1.8306
G01 X9.8848 Y1.8250
G01 X9.8933 Y1.8202
G01 X9.9023 Y1.8162
G01 X9.9115 Y1.8132
G01 X9.9211 Y1.8110
G01 X9.9308 Y1.8098
G01 X9.9381 Y1.8096
G00 Z2.0000
G00 X10.4381 Y1.8096
G01 F60.00
G01 Z-0.0200
G01 F60.00
G01 X10.7381 Y1.8096
G01 X10.7454 Y1.8098
G01 X10.7551 Y1.8110
G01 X10.7623 Y1.8126
G01 X10.7693 Y1.8146
G01 X10.7762 Y1.8171
G01 X10.7828 Y1.8202
G01 X10.7934 Y1.8263
G01 X10.7993 Y1.8306
G01 X10.8049 Y1.8354
G01 X10.8134 Y1.8441
G01 X10.8180 Y1.8498
G01 X10.8221 Y1.8558
G01 X10.8258 Y1.8622
G01 X10.8290 Y1.8688
G01 X10.8318 Y1.8756
G01 X10.8340 Y1.8825
G01 X10.8365 Y1.8945
G01 X10.8373 Y1.9018
G01 X10.8376 Y1.9091
G01 X10.8376 Y2.9091
G01 X10.8373 Y2.9164
G01 X10.8365 Y2.9237
G01 X10.8352 Y2.9309
G01 X10.8333 Y2.9380
G01 X10.8300 Y2.9472
G01 X10.8270 Y2.9538
G01 X10.8234 Y2.9602
G01 X10.8194 Y2.9664
G01 X10.8150 Y2.9722
G01 X10.8101 Y2.9777
G01 X10.8031 Y2.9844
G01 X10.7973 Y2.9890
G01 X10.7913 Y2.9931
G01 X10.7850 Y2.9968
G01 X10.7784 Y3.0000
G01 X10.7716 Y3.0028
G01 X10.7646 Y3.0050
G01 X10.7575 Y3.0067
G01 X10.7503 Y3.0078
G01 X10.7381 Y3.0086
G01 X10.4381 Y3.0086
G01 X10.4283 Y3.0081
G01 X10.4211 Y3.0071
G01 X10.4092 Y3.0043
G01 X10.4023 Y3.0019
G01 X10.3955 Y2.9990
G01 X10.3890 Y2.9956
G01 X10.3828 Y2.9918
G01 X10.3769 Y2.9875
G01 X10.3713 Y2.9828
G01 X10.3660 Y2.9777
G01 X10.3612 Y2.9722
G01 X10.3567 Y2.9664
G01 X10.3527 Y2.9602
G01 X10.3471 Y2.9494
G01 X10.3444 Y2.9426
G01 X10.3422 Y2.9356
G01 X10.3397 Y2.9237
G01 X10.3388 Y2.9164
G01 X10.3386 Y2.9091
G01 X10.3386 Y1.9091
G01 X10.3388 Y1.9018
G01 X10.3400 Y1.8921
G01 X10.3422 Y1.8825
G01 X10.3452 Y1.8733
G01 X10.3481 Y1.8665
G01 X10.3515 Y1.8600
G01 X10.3567 Y1.8518
G01 X10.3627 Y1.8441
G01 X10.3695 Y1.8370
G01 X10.3769 Y1.8306
G01 X10.3848 Y1.8250
G01 X10.3933 Y1.8202
G01 X10.4023 Y1.8162
G01 X10.4115 Y1.8132
G01 X10.4211 Y1.8110
G01 X10.4308 Y1.8098
G01 X10.4381 Y1.8096
G00 Z2.0000
G00 X10.9381 Y1.8096
G01 F60.00
G01 Z-0.0200
G01 F60.00
G01 X11.2381 Y1.8096
G01 X11.2454 Y1.8098
G01 X11.2551 Y1.8110
G01 X11.2623 Y1.8126
G01 X11.2693 Y1.8146
G01 X11.2762 Y1.8171
G01 X11.2828 Y1.8202
G01 X11.2934 Y1.8263
G01 X11.2993 Y1.8306
G01 X11.3049 Y1.8354
G01 X11.3134 Y1.8441
G01 X11.3180 Y1.8498
G01 X11.3221 Y1.8558
G01 X11.3258 Y1.8622
G01 X11.3290 Y1.8688
G01 X11.3318 Y1.8756
G01 X11.3340 Y1.8825
G01 X11.3365 Y1.8945
G01 X11.3373 Y1.9018
G01 X11.3376 Y1.9091
G01 X11.3376 Y2.9091
G01 X11.3373 Y2.9164
G01 X11.3365 Y2.9237
G01 X11.3352 Y2.9309
G01 X11.3333 Y2.9380
G01 X11.3300 Y2.9472
G01 X11.3270 Y2.9538
G01 X11.3234 Y2.9602
G01 X11.3194 Y2.9664
G01 X11.3150 Y2.9722
G01 X11.3101 Y2.9777
G01 X11.3031 Y2.9844
G01 X11.2973 Y2.9890
G01 X11.2913 Y2.9931
G01 X11.2850 Y2.9968
G01 X11.2784 Y3.0000
G01 X11.2716 Y3.0028
G01 X11.2646 Y3.0050
G01 X11.2575 Y3.0067
G01 X11.2503 Y3.0078
G01 X11.2381 Y3.0086
G01 X10.9381 Y3.0086
G01 X10.9283 Y3.0081
G01 X10.9211 Y3.0071
G01 X10.9092 Y3.0043
G01 X10.9023 Y3.0019
G01 X10.8955 Y2.9990
G01 X10.8890 Y2.9956
G01 X10.8828 Y2.9918
G01 X10.8769 Y2.9875
G01 X10.8713 Y2.9828
G01 X10.8660 Y2.9777
G01 X10.8612 Y2.9722
G01 X10.8567 Y2.9664
G01 X10.8527 Y2.9602
G01 X10.8471 Y2.9494
G01 X10.8444 Y2.9426
G01 X10.8422 Y2.9356
G01 X10.8397 Y2.9237
G01 X10.8388 Y2.9164
G01 X10.8386 Y2.9091
G01 X10.8386 Y1.9091
G01 X10.8388 Y1.9018
G01 X10.8400 Y1.8921
G01 X10.8422 Y1.8825
G01 X10.8452 Y1.8733
G01 X10.8481 Y1.8665
G01 X10.8515 Y1.8600
G01 X10.8567 Y1.8518
G01 X10.8627 Y1.8441
G01 X10.8695 Y1.8370
G01 X10.8769 Y1.8306
G01 X10.8848 Y1.8250
G01 X10.8933 Y1.8202
G01 X10.9023 Y1.8162
G01 X10.9115 Y1.8132
G01 X10.9211 Y1.8110
G01 X10.9308 Y1.8098
G01 X10.9381 Y1.8096
G00 Z2.0000
G00 X11.4381 Y1.8096
G01 F60.00
G01 Z-0.0200
G01 F60.00
G01 X11.7381 Y1.8096
G01 X11.7454 Y1.8098
G01 X11.7551 Y1.8110
G01 X11.7623 Y1.8126
G01 X11.7693 Y1.8146
G01 X11.7762 Y1.8171
G01 X11.7828 Y1.8202
G01 X11.7934 Y1.8263
G01 X11.7993 Y1.8306
G01 X11.8049 Y1.8354
G01 X11.8134 Y1.8441
G01 X11.8180 Y1.8498
G01 X11.8221 Y1.8558
G01 X11.8258 Y1.8622
G01 X11.8290 Y1.8688
G01 X11.8318 Y1.8756
G01 X11.8340 Y1.8825
G01 X11.8365 Y1.8945
G01 X11.8373 Y1.9018
G01 X11.8376 Y1.9091
G01 X11.8376 Y2.9091
G01 X11.8373 Y2.9164
G01 X11.8365 Y2.9237
G01 X11.8352 Y2.9309
G01 X11.8333 Y2.9380
G01 X11.8300 Y2.9472
G01 X11.8270 Y2.9538
G01 X11.8234 Y2.9602
G01 X11.8194 Y2.9664
G01 X11.8150 Y2.9722
G01 X11.8101 Y2.9777
G01 X11.8031 Y2.9844
G01 X11.7973 Y2.9890
G01 X11.7913 Y2.9931
G01 X11.7850 Y2.9968
G01 X11.7784 Y3.0000
G01 X11.7716 Y3.0028
G01 X11.7646 Y3.0050
G01 X11.7575 Y3.0067
G01 X11.7503 Y3.0078
G01 X11.7381 Y3.0086
G01 X11.4381 Y3.0086
G01 X11.4283 Y3.0081
G01 X11.4211 Y3.0071
G01 X11.4092 Y3.0043
G01 X11.4023 Y3.0019
G01 X11.3955 Y2.9990
G01 X11.3890 Y2.9956
G01 X11.3828 Y2.9918
G01 X11.3769 Y2.9875
G01 X11.3713 Y2.9828
G01 X11.3660 Y2.9777
G01 X11.3612 Y2.9722
G01 X11.3567 Y2.9664
G01 X11.3527 Y2.9602
G01 X11.3471 Y2.9494
G01 X11.3444 Y2.9426
G01 X11.3422 Y2.9356
G01 X11.3397 Y2.9237
G01 X11.3388 Y2.9164
G01 X11.3386 Y2.9091
G01 X11.3386 Y1.9091
G01 X11.3388 Y1.9018
G01 X11.3400 Y1.8921
G01 X11.3422 Y1.8825
G01 X11.3452 Y1.8733
G01 X11.3481 Y1.8665
G01 X11.3515 Y1.8600
G01 X11.3567 Y1.8518
G01 X11.3627 Y1.8441
G01 X11.3695 Y1.8370
G01 X11.3769 Y1.8306
G01 X11.3848 Y1.8250
G01 X11.3933 Y1.8202
G01 X11.4023 Y1.8162
G01 X11.4115 Y1.8132
G01 X11.4211 Y1.8110
G01 X11.4308 Y1.8098
G01 X11.4381 Y1.8096
G00 Z2.0000
G00 X11.9381 Y1.8096
G01 F60.00
G01 Z-0.0200
G01 F60.00
G01 X12.2381 Y1.8096
G01 X12.2454 Y1.8098
G01 X12.2551 Y1.8110
G01 X12.2623 Y1.8126
G01 X12.2693 Y1.8146
G01 X12.2762 Y1.8171
G01 X12.2828 Y1.8202
G01 X12.2934 Y1.8263
G01 X12.2993 Y1.8306
G01 X12.3049 Y1.8354
G01 X12.3134 Y1.8441
G01 X12.3180 Y1.8498
G01 X12.3221 Y1.8558
G01 X12.3258 Y1.8622
G01 X12.3290 Y1.8688
G01 X12.3318 Y1.8756
G01 X12.3340 Y1.8825
G01 X12.3365 Y1.8945
G01 X12.3373 Y1.9018
G01 X12.3376 Y1.9091
G01 X12.3376 Y2.9091
G01 X12.3373 Y2.9164
G01 X12.3365 Y2.9237
G01 X12.3352 Y2.9309
G01 X12.3333 Y2.9380
G01 X12.3300 Y2.9472
G01 X12.3270 Y2.9538
G01 X12.3234 Y2.9602
G01 X12.3194 Y2.9664
G01 X12.3150 Y2.9722
G01 X12.3101 Y2.9777
G01 X12.3031 Y2.9844
G01 X12.2973 Y2.9890
G01 X12.2913 Y2.9931
G01 X12.2850 Y2.9968
G01 X12.2784 Y3.0000
G01 X12.2716 Y3.0028
G01 X12.2646 Y3.0050
G01 X12.2575 Y3.0067
G01 X12.2503 Y3.0078
G01 X12.2381 Y3.0086
G01 X11.9381 Y3.0086
G01 X11.9283 Y3.0081
G01 X11.9211 Y3.0071
G01 X11.9092 Y3.0043
G01 X11.9023 Y3.0019
G01 X11.8955 Y2.9990
G01 X11.8890 Y2.9956
G01 X11.8828 Y2.9918
G01 X11.8769 Y2.9875
G01 X11.8713 Y2.9828
G01 X11.8660 Y2.9777
G01 X11.8612 Y2.9722
G01 X11.8567 Y2.9664
G01 X11.8527 Y2.9602
G01 X11.8471 Y2.9494
G01 X11.8444 Y2.9426
G01 X11.8422 Y2.9356
G01 X11.8397 Y2.9237
G01 X11.8388 Y2.9164
G01 X11.8386 Y2.9091
G01 X11.8386 Y1.9091
G01 X11.8388 Y1.9018
G01 X11.8400 Y1.8921
G01 X11.8422 Y1.8825
G01 X11.8452 Y1.8733
G01 X11.8481 Y1.8665
G01 X11.8515 Y1.8600
G01 X11.8567 Y1.8518
G01 X11.8627 Y1.8441
G01 X11.8695 Y1.8370
G01 X11.8769 Y1.8306
G01 X11.8848 Y1.8250
G01 X11.8933 Y1.8202
G01 X11.9023 Y1.8162
G01 X11.9115 Y1.8132
G01 X11.9211 Y1.8110
G01 X11.9308 Y1.8098
G01 X11.9381 Y1.8096
G00 Z2.0000
G00 X12.3631 Y2.9746
G01 F60.00
G01 Z-0.0200
G01 F60.00
G01 X13.3631 Y2.9746
G01 X13.3704 Y2.9748
G01 X13.3801 Y2.9760
G01 X13.3896 Y2.9782
G01 X13.3989 Y2.9812
G01 X13.4056 Y2.9841
G01 X13.4121 Y2.9875
G01 X13.4223 Y2.9942
G01 X13.4281 Y2.9987
G01 X13.4334 Y3.0037
G01 X13.4415 Y3.0129
G01 X13.4484 Y3.0229
G01 X13.4520 Y3.0293
G01 X13.4550 Y3.0360
G01 X13.4590 Y3.0475
G01 X13.4607 Y3.0547
G01 X13.4618 Y3.0619
G01 X13.4626 Y3.0741
G01 X13.4625 Y3.3765
G01 X13.4621 Y3.3838
G01 X13.4607 Y3.3935
G01 X13.4583 Y3.4030
G01 X13.4559 Y3.4099
G01 X13.4530 Y3.4166
G01 X13.4496 Y3.4231
G01 X13.4458 Y3.4294
G01 X13.4415 Y3.4353
G01 X13.4368 Y3.4409
G01 X13.4317 Y3.4461
G01 X13.4262 Y3.4510
G01 X13.4204 Y3.4554
G01 X13.4142 Y3.4594
G01 X13.4078 Y3.4630
G01 X13.3966 Y3.4678
G01 X13.3896 Y3.4700
G01 X13.3825 Y3.4717
G01 X13.3753 Y3.4728
G01 X13.3680 Y3.4735
G01 X12.3631 Y3.4736
G01 X12.3533 Y3.4731
G01 X12.3461 Y3.4721
G01 X12.3365 Y3.4700
G01 X12.3273 Y3.4669
G01 X12.3162 Y3.4618
G01 X12.3098 Y3.4581
G01 X12.3038 Y3.4540
G01 X12.2945 Y3.4461
G01 X12.2862 Y3.4372
G01 X12.2817 Y3.4314
G01 X12.2777 Y3.4252
G01 X12.2721 Y3.4144
G01 X12.2694 Y3.4076
G01 X12.2672 Y3.4006
G01 X12.2647 Y3.3887
G01 X12.2638 Y3.3814
G01 X12.2636 Y3.3741
G01 X12.2636 Y3.0741
G01 X12.2638 Y3.0668
G01 X12.2647 Y3.0595
G01 X12.2666 Y3.0499
G01 X12.2694 Y3.0406
G01 X12.2731 Y3.0315
G01 X12.2777 Y3.0229
G01 X12.2832 Y3.0148
G01 X12.2894 Y3.0073
G01 X12.2963 Y3.0004
G01 X12.3038 Y2.9942
G01 X12.3098 Y2.9900
G01 X12.3183 Y2.9852
G01 X12.3273 Y2.9812
G01 X12.3365 Y2.9782
G01 X12.3461 Y2.9760
G01 X12.3533 Y2.9751
G01 X12.3631 Y2.9746
G00 Z2.0000
G00 X12.3631 Y3.4746
G01 F60.00
G01 Z-0.0200
G01 F60.00
G01 X13.3631 Y3.4746
G01 X13.3704 Y3.4748
G01 X13.3801 Y3.4760
G01 X13.3896 Y3.4782
G01 X13.3989 Y3.4812
G01 X13.4056 Y3.4841
G01 X13.4121 Y3.4875
G01 X13.4223 Y3.4942
G01 X13.4281 Y3.4987
G01 X13.4334 Y3.5037
G01 X13.4415 Y3.5129
G01 X13.4484 Y3.5229
G01 X13.4520 Y3.5293
G01 X13.4550 Y3.5360
G01 X13.4590 Y3.5475
G01 X13.4607 Y3.5547
G01 X13.4618 Y3.5619
G01 X13.4626 Y3.5741
G01 X13.4625 Y3.8765
G01 X13.4621 Y3.8838
G01 X13.4607 Y3.8935
G01 X13.4583 Y3.9030
G01 X13.4559 Y3.9099
G01 X13.4530 Y3.9166
G01 X13.4496 Y3.9231
G01 X13.4458 Y3.9294
G01 X13.4415 Y3.9353
G01 X13.4368 Y3.9409
G01 X13.4317 Y3.9461
G01 X13.4262 Y3.9510
G01 X13.4204 Y3.9554
G01 X13.4142 Y3.9594
G01 X13.4078 Y3.9630
G01 X13.3966 Y3.9678
G01 X13.3896 Y3.9700
G01 X13.3825 Y3.9717
G01 X13.3753 Y3.9728
G01 X13.3680 Y3.9735
G01 X12.3631 Y3.9736
G01 X12.3533 Y3.9731
G01 X12.3461 Y3.9721
G01 X12.3365 Y3.9700
G01 X12.3273 Y3.9669
G01 X12.3162 Y3.9618
G01 X12.3098 Y3.9581
G01 X12.3038 Y3.9540
G01 X12.2945 Y3.9461
G01 X12.2862 Y3.9372
G01 X12.2817 Y3.9314
G01 X12.2777 Y3.9252
G01 X12.2721 Y3.9144
G01 X12.2694 Y3.9076
G01 X12.2672 Y3.9006
G01 X12.2647 Y3.8887
G01 X12.2638 Y3.8814
G01 X12.2636 Y3.8741
G01 X12.2636 Y3.5741
G01 X12.2638 Y3.5668
G01 X12.2647 Y3.5595
G01 X12.2666 Y3.5499
G01 X12.2694 Y3.5406
G01 X12.2731 Y3.5315
G01 X12.2777 Y3.5229
G01 X12.2832 Y3.5148
G01 X12.2894 Y3.5073
G01 X12.2963 Y3.5004
G01 X12.3038 Y3.4942
G01 X12.3098 Y3.4900
G01 X12.3183 Y3.4852
G01 X12.3273 Y3.4812
G01 X12.3365 Y3.4782
G01 X12.3461 Y3.4760
G01 X12.3533 Y3.4751
G01 X12.3631 Y3.4746
G00 Z2.0000
G00 X12.3631 Y3.9746
G01 F60.00
G01 Z-0.0200
G01 F60.00
G01 X13.3631 Y3.9746
G01 X13.3704 Y3.9748
G01 X13.3801 Y3.9760
G01 X13.3896 Y3.9782
G01 X13.3989 Y3.9812
G01 X13.4056 Y3.9841
G01 X13.4121 Y3.9875
G01 X13.4223 Y3.9942
G01 X13.4281 Y3.9987
G01 X13.4334 Y4.0037
G01 X13.4415 Y4.0129
G01 X13.4458 Y4.0188
G01 X13.4496 Y4.0250
G01 X13.4550 Y4.0360
G01 X13.4590 Y4.0475
G01 X13.4607 Y4.0547
G01 X13.4618 Y4.0619
G01 X13.4626 Y4.0741
G01 X13.4625 Y4.3765
G01 X13.4621 Y4.3838
G01 X13.4607 Y4.3935
G01 X13.4583 Y4.4030
G01 X13.4559 Y4.4099
G01 X13.4530 Y4.4166
G01 X13.4496 Y4.4231
G01 X13.4458 Y4.4294
G01 X13.4415 Y4.4353
G01 X13.4368 Y4.4409
G01 X13.4317 Y4.4461
G01 X13.4262 Y4.4510
G01 X13.4204 Y4.4554
G01 X13.4142 Y4.4594
G01 X13.4078 Y4.4630
G01 X13.4012 Y4.4660
G01 X13.3943 Y4.4686
G01 X13.3873 Y4.4706
G01 X13.3801 Y4.4721
G01 X13.3680 Y4.4735
G01 X12.3631 Y4.4736
G01 X12.3533 Y4.4731
G01 X12.3437 Y4.4717
G01 X12.3365 Y4.4700
G01 X12.3273 Y4.4669
G01 X12.3162 Y4.4618
G01 X12.3058 Y4.4554
G01 X12.3000 Y4.4510
G01 X12.2945 Y4.4461
G01 X12.2862 Y4.4372
G01 X12.2817 Y4.4314
G01 X12.2777 Y4.4252
G01 X12.2721 Y4.4144
G01 X12.2694 Y4.4076
G01 X12.2672 Y4.4006
G01 X12.2647 Y4.3887
G01 X12.2638 Y4.3814
G01 X12.2636 Y4.3741
G01 X12.2636 Y4.0741
G01 X12.2638 Y4.0668
G01 X12.2647 Y4.0595
G01 X12.2666 Y4.0499
G01 X12.2694 Y4.0406
G01 X12.2731 Y4.0315
G01 X12.2777 Y4.0229
G01 X12.2832 Y4.0148
G01 X12.2894 Y4.0073
G01 X12.2963 Y4.0004
G01 X12.3038 Y3.9942
G01 X12.3098 Y3.9900
G01 X12.3183 Y3.9852
G01 X12.3273 Y3.9812
G01 X12.3365 Y3.9782
G01 X12.3461 Y3.9760
G01 X12.3533 Y3.9751
G01 X12.3631 Y3.9746
G00 Z2.0000
G00 X12.3631 Y4.4746
G01 F60.00
G01 Z-0.0200
G01 F60.00
G01 X13.3631 Y4.4746
G01 X13.3728 Y4.4751
G01 X13.3825 Y4.4765
G01 X13.3920 Y4.4789
G01 X13.3989 Y4.4812
G01 X13.4056 Y4.4841
G01 X13.4121 Y4.4875
G01 X13.4223 Y4.4942
G01 X13.4281 Y4.4987
G01 X13.4334 Y4.5037
G01 X13.4415 Y4.5129
G01 X13.4458 Y4.5188
G01 X13.4496 Y4.5250
G01 X13.4550 Y4.5360
G01 X13.4590 Y4.5475
G01 X13.4607 Y4.5547
G01 X13.4618 Y4.5619
G01 X13.4626 Y4.5741
G01 X13.4625 Y4.8765
G01 X13.4621 Y4.8838
G01 X13.4607 Y4.8935
G01 X13.4583 Y4.9030
G01 X13.4559 Y4.9099
G01 X13.4530 Y4.9166
G01 X13.4496 Y4.9231
G01 X13.4458 Y4.9294
G01 X13.4415 Y4.9353
G01 X13.4368 Y4.9409
G01 X13.4317 Y4.9461
G01 X13.4262 Y4.9510
G01 X13.4204 Y4.9554
G01 X13.4142 Y4.9594
G01 X13.4078 Y4.9630
G01 X13.4012 Y4.9660
G01 X13.3943 Y4.9686
G01 X13.3873 Y4.9706
G01 X13.3801 Y4.9721
G01 X13.3680 Y4.9735
G01 X12.3631 Y4.9736
G01 X12.3533 Y4.9731
G01 X12.3437 Y4.9717
G01 X12.3365 Y4.9700
G01 X12.3273 Y4.9669
G01 X12.3162 Y4.9618
G01 X12.3058 Y4.9554
G01 X12.3000 Y4.9510
G01 X12.2945 Y4.9461
G01 X12.2862 Y4.9372
G01 X12.2817 Y4.9314
G01 X12.2777 Y4.9252
G01 X12.2721 Y4.9144
G01 X12.2694 Y4.9076
G01 X12.2672 Y4.9006
G01 X12.2647 Y4.8887
G01 X12.2638 Y4.8814
G01 X12.2636 Y4.8741
G01 X12.2636 Y4.5741
G01 X12.2638 Y4.5668
G01 X12.2647 Y4.5595
G01 X12.2666 Y4.5499
G01 X12.2694 Y4.5406
G01 X12.2731 Y4.5315
G01 X12.2777 Y4.5229
G01 X12.2832 Y4.5148
G01 X12.2894 Y4.5073
G01 X12.2963 Y4.5004
G01 X12.3038 Y4.4942
G01 X12.3098 Y4.4900
G01 X12.3183 Y4.4852
G01 X12.3273 Y4.4812
G01 X12.3342 Y4.4789
G01 X12.3437 Y4.4765
G01 X12.3533 Y4.4751
G01 X12.3631 Y4.4746
G00 Z2.0000
G00 X12.3631 Y4.9746
G01 F60.00
G01 Z-0.0200
G01 F60.00
G01 X13.3631 Y4.9746
G01 X13.3728 Y4.9751
G01 X13.3825 Y4.9765
G01 X13.3920 Y4.9789
G01 X13.3989 Y4.9812
G01 X13.4056 Y4.9841
G01 X13.4121 Y4.9875
G01 X13.4223 Y4.9942
G01 X13.4281 Y4.9987
G01 X13.4334 Y5.0037
G01 X13.4415 Y5.0129
G01 X13.4458 Y5.0188
G01 X13.4496 Y5.0250
G01 X13.4550 Y5.0360
G01 X13.4590 Y5.0475
G01 X13.4607 Y5.0547
G01 X13.4618 Y5.0619
G01 X13.4626 Y5.0741
G01 X13.4625 Y5.3765
G01 X13.4621 Y5.3838
G01 X13.4607 Y5.3935
G01 X13.4583 Y5.4030
G01 X13.4559 Y5.4099
G01 X13.4530 Y5.4166
G01 X13.4496 Y5.4231
G01 X13.4458 Y5.4294
G01 X13.4415 Y5.4353
G01 X13.4368 Y5.4409
G01 X13.4317 Y5.4461
G01 X13.4262 Y5.4510
G01 X13.4204 Y5.4554
G01 X13.4142 Y5.4594
G01 X13.4078 Y5.4630
G01 X13.4012 Y5.4660
G01 X13.3943 Y5.4686
G01 X13.3873 Y5.4706
G01 X13.3801 Y5.4721
G01 X13.3680 Y5.4735
G01 X12.3631 Y5.4736
G01 X12.3533 Y5.4731
G01 X12.3437 Y5.4717
G01 X12.3365 Y5.4700
G01 X12.3273 Y5.4669
G01 X12.3162 Y5.4618
G01 X12.3058 Y5.4554
G01 X12.3000 Y5.4510
G01 X12.2945 Y5.4461
G01 X12.2862 Y5.4372
G01 X12.2817 Y5.4314
G01 X12.2777 Y5.4252
G01 X12.2721 Y5.4144
G01 X12.2694 Y5.4076
G01 X12.2672 Y5.4006
G01 X12.2647 Y5.3887
G01 X12.2638 Y5.3814
G01 X12.2636 Y5.3741
G01 X12.2636 Y5.0741
G01 X12.2638 Y5.0668
G01 X12.2647 Y5.0595
G01 X12.2666 Y5.0499
G01 X12.2694 Y5.0406
G01 X12.2731 Y5.0315
G01 X12.2777 Y5.0229
G01 X12.2832 Y5.0148
G01 X12.2894 Y5.0073
G01 X12.2963 Y5.0004
G01 X12.3038 Y4.9942
G01 X12.3098 Y4.9900
G01 X12.3183 Y4.9852
G01 X12.3273 Y4.9812
G01 X12.3342 Y4.9789
G01 X12.3437 Y4.9765
G01 X12.3533 Y4.9751
G01 X12.3631 Y4.9746
G00 Z2.0000
G00 X12.3631 Y5.4746
G01 F60.00
G01 Z-0.0200
G01 F60.00
G01 X13.3631 Y5.4746
G01 X13.3728 Y5.4751
G01 X13.3825 Y5.4765
G01 X13.3920 Y5.4789
G01 X13.3989 Y5.4812
G01 X13.4056 Y5.4841
G01 X13.4121 Y5.4875
G01 X13.4223 Y5.4942
G01 X13.4281 Y5.4987
G01 X13.4334 Y5.5037
G01 X13.4415 Y5.5129
G01 X13.4458 Y5.5188
G01 X13.4496 Y5.5250
G01 X13.4550 Y5.5360
G01 X13.4590 Y5.5475
G01 X13.4607 Y5.5547
G01 X13.4618 Y5.5619
G01 X13.4626 Y5.5741
G01 X13.4625 Y5.8765
G01 X13.4621 Y5.8838
G01 X13.4607 Y5.8935
G01 X13.4583 Y5.9030
G01 X13.4559 Y5.9099
G01 X13.4530 Y5.9166
G01 X13.4496 Y5.9231
G01 X13.4458 Y5.9294
G01 X13.4415 Y5.9353
G01 X13.4368 Y5.9409
G01 X13.4317 Y5.9461
G01 X13.4262 Y5.9510
G01 X13.4204 Y5.9554
G01 X13.4142 Y5.9594
G01 X13.4078 Y5.9630
G01 X13.4012 Y5.9660
G01 X13.3943 Y5.9686
G01 X13.3873 Y5.9706
G01 X13.3801 Y5.9721
G01 X13.3680 Y5.9735
G01 X12.3631 Y5.9736
G01 X12.3533 Y5.9731
G01 X12.3437 Y5.9717
G01 X12.3365 Y5.9700
G01 X12.3273 Y5.9669
G01 X12.3162 Y5.9618
G01 X12.3058 Y5.9554
G01 X12.3000 Y5.9510
G01 X12.2945 Y5.9461
G01 X12.2862 Y5.9372
G01 X12.2817 Y5.9314
G01 X12.2777 Y5.9252
G01 X12.2721 Y5.9144
G01 X12.2694 Y5.9076
G01 X12.2672 Y5.9006
G01 X12.2647 Y5.8887
G01 X12.2638 Y5.8814
G01 X12.2636 Y5.8741
G01 X12.2636 Y5.5741
G01 X12.2638 Y5.5668
G01 X12.2647 Y5.5595
G01 X12.2666 Y5.5499
G01 X12.2694 Y5.5406
G01 X12.2731 Y5.5315
G01 X12.2777 Y5.5229
G01 X12.2832 Y5.5148
G01 X12.2894 Y5.5073
G01 X12.2963 Y5.5004
G01 X12.3038 Y5.4942
G01 X12.3098 Y5.4900
G01 X12.3183 Y5.4852
G01 X12.3273 Y5.4812
G01 X12.3342 Y5.4789
G01 X12.3437 Y5.4765
G01 X12.3533 Y5.4751
G01 X12.3631 Y5.4746
G00 Z2.0000
G00 X12.3631 Y5.9746
G01 F60.00
G01 Z-0.0200
G01 F60.00
G01 X13.3631 Y5.9746
G01 X13.3728 Y5.9751
G01 X13.3825 Y5.9765
G01 X13.3920 Y5.9789
G01 X13.3989 Y5.9812
G01 X13.4056 Y5.9841
G01 X13.4121 Y5.9875
G01 X13.4223 Y5.9942
G01 X13.4281 Y5.9987
G01 X13.4334 Y6.0037
G01 X13.4415 Y6.0129
G01 X13.4458 Y6.0188
G01 X13.4496 Y6.0250
G01 X13.4550 Y6.0360
G01 X13.4590 Y6.0475
G01 X13.4607 Y6.0547
G01 X13.4618 Y6.0619
G01 X13.4626 Y6.0741
G01 X13.4625 Y6.3765
G01 X13.4621 Y6.3838
G01 X13.4607 Y6.3935
G01 X13.4583 Y6.4030
G01 X13.4559 Y6.4099
G01 X13.4530 Y6.4166
G01 X13.4496 Y6.4231
G01 X13.4458 Y6.4294
G01 X13.4415 Y6.4353
G01 X13.4368 Y6.4409
G01 X13.4317 Y6.4461
G01 X13.4262 Y6.4510
G01 X13.4204 Y6.4554
G01 X13.4142 Y6.4594
G01 X13.4078 Y6.4630
G01 X13.4012 Y6.4660
G01 X13.3943 Y6.4686
G01 X13.3873 Y6.4706
G01 X13.3801 Y6.4721
G01 X13.3680 Y6.4735
G01 X12.3631 Y6.4736
G01 X12.3533 Y6.4731
G01 X12.3437 Y6.4717
G01 X12.3365 Y6.4700
G01 X12.3273 Y6.4669
G01 X12.3162 Y6.4618
G01 X12.3058 Y6.4554
G01 X12.3000 Y6.4510
G01 X12.2945 Y6.4461
G01 X12.2862 Y6.4372
G01 X12.2817 Y6.4314
G01 X12.2777 Y6.4252
G01 X12.2721 Y6.4144
G01 X12.2694 Y6.4076
G01 X12.2672 Y6.4006
G01 X12.2647 Y6.3887
G01 X12.2638 Y6.3814
G01 X12.2636 Y6.3741
G01 X12.2636 Y6.0741
G01 X12.2638 Y6.0668
G01 X12.2647 Y6.0595
G01 X12.2666 Y6.0499
G01 X12.2694 Y6.0406
G01 X12.2731 Y6.0315
G01 X12.2777 Y6.0229
G01 X12.2832 Y6.0148
G01 X12.2894 Y6.0073
G01 X12.2963 Y6.0004
G01 X12.3038 Y5.9942
G01 X12.3098 Y5.9900
G01 X12.3183 Y5.9852
G01 X12.3273 Y5.9812
G01 X12.3342 Y5.9789
G01 X12.3437 Y5.9765
G01 X12.3533 Y5.9751
G01 X12.3631 Y5.9746
G00 Z2.0000
G00 X12.3631 Y6.4746
G01 F60.00
G01 Z-0.0200
G01 F60.00
G01 X13.3631 Y6.4746
G01 X13.3728 Y6.4751
G01 X13.3825 Y6.4765
G01 X13.3920 Y6.4789
G01 X13.3989 Y6.4812
G01 X13.4056 Y6.4841
G01 X13.4121 Y6.4875
G01 X13.4223 Y6.4942
G01 X13.4281 Y6.4987
G01 X13.4334 Y6.5037
G01 X13.4415 Y6.5129
G01 X13.4458 Y6.5188
G01 X13.4496 Y6.5250
G01 X13.4550 Y6.5360
G01 X13.4590 Y6.5475
G01 X13.4607 Y6.5547
G01 X13.4618 Y6.5619
G01 X13.4626 Y6.5741
G01 X13.4625 Y6.8765
G01 X13.4621 Y6.8838
G01 X13.4607 Y6.8935
G01 X13.4583 Y6.9030
G01 X13.4559 Y6.9099
G01 X13.4530 Y6.9166
G01 X13.4496 Y6.9231
G01 X13.4458 Y6.9294
G01 X13.4415 Y6.9353
G01 X13.4368 Y6.9409
G01 X13.4317 Y6.9461
G01 X13.4262 Y6.9510
G01 X13.4204 Y6.9554
G01 X13.4142 Y6.9594
G01 X13.4078 Y6.9630
G01 X13.4012 Y6.9660
G01 X13.3943 Y6.9686
G01 X13.3873 Y6.9706
G01 X13.3801 Y6.9721
G01 X13.3680 Y6.9735
G01 X12.3631 Y6.9736
G01 X12.3533 Y6.9731
G01 X12.3437 Y6.9717
G01 X12.3365 Y6.9700
G01 X12.3273 Y6.9669
G01 X12.3162 Y6.9618
G01 X12.3058 Y6.9554
G01 X12.3000 Y6.9510
G01 X12.2945 Y6.9461
G01 X12.2862 Y6.9372
G01 X12.2817 Y6.9314
G01 X12.2777 Y6.9252
G01 X12.2721 Y6.9144
G01 X12.2694 Y6.9076
G01 X12.2672 Y6.9006
G01 X12.2647 Y6.8887
G01 X12.2638 Y6.8814
G01 X12.2636 Y6.8741
G01 X12.2636 Y6.5741
G01 X12.2638 Y6.5668
G01 X12.2647 Y6.5595
G01 X12.2666 Y6.5499
G01 X12.2694 Y6.5406
G01 X12.2731 Y6.5315
G01 X12.2777 Y6.5229
G01 X12.2832 Y6.5148
G01 X12.2894 Y6.5073
G01 X12.2963 Y6.5004
G01 X12.3038 Y6.4942
G01 X12.3098 Y6.4900
G01 X12.3183 Y6.4852
G01 X12.3273 Y6.4812
G01 X12.3342 Y6.4789
G01 X12.3437 Y6.4765
G01 X12.3533 Y6.4751
G01 X12.3631 Y6.4746
G00 Z2.0000
G00 X12.3631 Y6.9746
G01 F60.00
G01 Z-0.0200
G01 F60.00
G01 X13.3631 Y6.9746
G01 X13.3728 Y6.9751
G01 X13.3825 Y6.9765
G01 X13.3920 Y6.9789
G01 X13.3989 Y6.9812
G01 X13.4056 Y6.9841
G01 X13.4121 Y6.9875
G01 X13.4223 Y6.9942
G01 X13.4281 Y6.9987
G01 X13.4334 Y7.0037
G01 X13.4415 Y7.0129
G01 X13.4458 Y7.0188
G01 X13.4496 Y7.0250
G01 X13.4550 Y7.0360
G01 X13.4590 Y7.0475
G01 X13.4607 Y7.0547
G01 X13.4618 Y7.0619
G01 X13.4626 Y7.0741
G01 X13.4625 Y7.3765
G01 X13.4621 Y7.3838
G01 X13.4607 Y7.3935
G01 X13.4583 Y7.4030
G01 X13.4559 Y7.4099
G01 X13.4530 Y7.4166
G01 X13.4496 Y7.4231
G01 X13.4458 Y7.4294
G01 X13.4415 Y7.4353
G01 X13.4368 Y7.4409
G01 X13.4317 Y7.4461
G01 X13.4262 Y7.4510
G01 X13.4204 Y7.4554
G01 X13.4142 Y7.4594
G01 X13.4078 Y7.4630
G01 X13.4012 Y7.4660
G01 X13.3943 Y7.4686
G01 X13.3873 Y7.4706
G01 X13.3801 Y7.4721
G01 X13.3680 Y7.4735
G01 X12.3631 Y7.4736
G01 X12.3533 Y7.4731
G01 X12.3437 Y7.4717
G01 X12.3365 Y7.4700
G01 X12.3273 Y7.4669
G01 X12.3162 Y7.4618
G01 X12.3058 Y7.4554
G01 X12.3000 Y7.4510
G01 X12.2945 Y7.4461
G01 X12.2862 Y7.4372
G01 X12.2817 Y7.4314
G01 X12.2777 Y7.4252
G01 X12.2721 Y7.4144
G01 X12.2694 Y7.4076
G01 X12.2672 Y7.4006
G01 X12.2647 Y7.3887
G01 X12.2638 Y7.3814
G01 X12.2636 Y7.3741
G01 X12.2636 Y7.0741
G01 X12.2638 Y7.0668
G01 X12.2647 Y7.0595
G01 X12.2666 Y7.0499
G01 X12.2694 Y7.0406
G01 X12.2731 Y7.0315
G01 X12.2777 Y7.0229
G01 X12.2832 Y7.0148
G01 X12.2894 Y7.0073
G01 X12.2963 Y7.0004
G01 X12.3038 Y6.9942
G01 X12.3098 Y6.9900
G01 X12.3183 Y6.9852
G01 X12.3273 Y6.9812
G01 X12.3342 Y6.9789
G01 X12.3437 Y6.9765
G01 X12.3533 Y6.9751
G01 X12.3631 Y6.9746
G00 Z2.0000
G00 X12.3631 Y7.4746
G01 F60.00
G01 Z-0.0200
G01 F60.00
G01 X13.3631 Y7.4746
G01 X13.3728 Y7.4751
G01 X13.3825 Y7.4765
G01 X13.3920 Y7.4789
G01 X13.3989 Y7.4812
G01 X13.4056 Y7.4841
G01 X13.4121 Y7.4875
G01 X13.4223 Y7.4942
G01 X13.4281 Y7.4987
G01 X13.4334 Y7.5037
G01 X13.4415 Y7.5129
G01 X13.4458 Y7.5188
G01 X13.4496 Y7.5250
G01 X13.4550 Y7.5360
G01 X13.4590 Y7.5475
G01 X13.4607 Y7.5547
G01 X13.4618 Y7.5619
G01 X13.4626 Y7.5741
G01 X13.4625 Y7.8765
G01 X13.4621 Y7.8838
G01 X13.4607 Y7.8935
G01 X13.4583 Y7.9030
G01 X13.4559 Y7.9099
G01 X13.4530 Y7.9166
G01 X13.4496 Y7.9231
G01 X13.4458 Y7.9294
G01 X13.4415 Y7.9353
G01 X13.4368 Y7.9409
G01 X13.4317 Y7.9461
G01 X13.4262 Y7.9510
G01 X13.4204 Y7.9554
G01 X13.4142 Y7.9594
G01 X13.4078 Y7.9630
G01 X13.4012 Y7.9660
G01 X13.3943 Y7.9686
G01 X13.3873 Y7.9706
G01 X13.3801 Y7.9721
G01 X13.3680 Y7.9735
G01 X12.3631 Y7.9736
G01 X12.3533 Y7.9731
G01 X12.3437 Y7.9717
G01 X12.3365 Y7.9700
G01 X12.3273 Y7.9669
G01 X12.3162 Y7.9618
G01 X12.3058 Y7.9554
G01 X12.3000 Y7.9510
G01 X12.2945 Y7.9461
G01 X12.2862 Y7.9372
G01 X12.2817 Y7.9314
G01 X12.2777 Y7.9252
G01 X12.2721 Y7.9144
G01 X12.2694 Y7.9076
G01 X12.2672 Y7.9006
G01 X12.2647 Y7.8887
G01 X12.2638 Y7.8814
G01 X12.2636 Y7.8741
G01 X12.2636 Y7.5741
G01 X12.2638 Y7.5668
G01 X12.2647 Y7.5595
G01 X12.2666 Y7.5499
G01 X12.2694 Y7.5406
G01 X12.2731 Y7.5315
G01 X12.2777 Y7.5229
G01 X12.2832 Y7.5148
G01 X12.2894 Y7.5073
G01 X12.2963 Y7.5004
G01 X12.3038 Y7.4942
G01 X12.3098 Y7.4900
G01 X12.3183 Y7.4852
G01 X12.3273 Y7.4812
G01 X12.3342 Y7.4789
G01 X12.3437 Y7.4765
G01 X12.3533 Y7.4751
G01 X12.3631 Y7.4746
G00 Z2.0000
G00 X12.3631 Y7.9746
G01 F60.00
G01 Z-0.0200
G01 F60.00
G01 X13.3631 Y7.9746
G01 X13.3728 Y7.9751
G01 X13.3825 Y7.9765
G01 X13.3920 Y7.9789
G01 X13.3989 Y7.9812
G01 X13.4100 Y7.9863
G01 X13.4163 Y7.9900
G01 X13.4223 Y7.9942
G01 X13.4317 Y8.0020
G01 X13.4368 Y8.0073
G01 X13.4415 Y8.0129
G01 X13.4458 Y8.0188
G01 X13.4496 Y8.0250
G01 X13.4550 Y8.0360
G01 X13.4576 Y8.0429
G01 X13.4596 Y8.0499
G01 X13.4618 Y8.0619
G01 X13.4626 Y8.0741
G01 X13.4625 Y8.3765
G01 X13.4621 Y8.3838
G01 X13.4607 Y8.3935
G01 X13.4583 Y8.4030
G01 X13.4559 Y8.4099
G01 X13.4530 Y8.4166
G01 X13.4496 Y8.4231
G01 X13.4458 Y8.4294
G01 X13.4415 Y8.4353
G01 X13.4334 Y8.4444
G01 X13.4281 Y8.4494
G01 X13.4223 Y8.4540
G01 X13.4163 Y8.4581
G01 X13.4100 Y8.4618
G01 X13.4034 Y8.4650
G01 X13.3966 Y8.4678
G01 X13.3896 Y8.4700
G01 X13.3825 Y8.4717
G01 X13.3753 Y8.4728
G01 X13.3680 Y8.4735
G01 X12.3631 Y8.4736
G01 X12.3533 Y8.4731
G01 X12.3461 Y8.4721
G01 X12.3365 Y8.4700
G01 X12.3273 Y8.4669
G01 X12.3162 Y8.4618
G01 X12.3058 Y8.4554
G01 X12.2963 Y8.4478
G01 X12.2910 Y8.4427
G01 X12.2862 Y8.4372
G01 X12.2817 Y8.4314
G01 X12.2777 Y8.4252
G01 X12.2721 Y8.4144
G01 X12.2694 Y8.4076
G01 X12.2672 Y8.4006
G01 X12.2647 Y8.3887
G01 X12.2638 Y8.3814
G01 X12.2636 Y8.3741
G01 X12.2636 Y8.0741
G01 X12.2638 Y8.0668
G01 X12.2650 Y8.0571
G01 X12.2666 Y8.0499
G01 X12.2694 Y8.0406
G01 X12.2731 Y8.0315
G01 X12.2777 Y8.0229
G01 X12.2832 Y8.0148
G01 X12.2894 Y8.0073
G01 X12.2963 Y8.0004
G01 X12.3019 Y7.9956
G01 X12.3098 Y7.9900
G01 X12.3183 Y7.9852
G01 X12.3273 Y7.9812
G01 X12.3365 Y7.9782
G01 X12.3437 Y7.9765
G01 X12.3533 Y7.9751
G01 X12.3631 Y7.9746
G00 Z2.0000
G00 X12.3631 Y8.4746
G01 F60.00
G01 Z-0.0200
G01 F60.00
G01 X13.3631 Y8.4746
G01 X13.3704 Y8.4748
G01 X13.3801 Y8.4760
G01 X13.3896 Y8.4782
G01 X13.3989 Y8.4812
G01 X13.4056 Y8.4841
G01 X13.4121 Y8.4875
G01 X13.4223 Y8.4942
G01 X13.4317 Y8.5020
G01 X13.4368 Y8.5073
G01 X13.4415 Y8.5129
G01 X13.4458 Y8.5188
G01 X13.4496 Y8.5250
G01 X13.4550 Y8.5360
G01 X13.4576 Y8.5429
G01 X13.4596 Y8.5499
G01 X13.4618 Y8.5619
G01 X13.4626 Y8.5741
G01 X13.4625 Y8.8765
G01 X13.4621 Y8.8838
G01 X13.4607 Y8.8935
G01 X13.4583 Y8.9030
G01 X13.4559 Y8.9099
G01 X13.4530 Y8.9166
G01 X13.4496 Y8.9231
G01 X13.4458 Y8.9294
G01 X13.4415 Y8.9353
G01 X13.4334 Y8.9444
G01 X13.4281 Y8.9494
G01 X13.4223 Y8.9540
G01 X13.4163 Y8.9581
G01 X13.4100 Y8.9618
G01 X13.4034 Y8.9650
G01 X13.3966 Y8.9678
G01 X13.3896 Y8.9700
G01 X13.3825 Y8.9717
G01 X13.3753 Y8.9728
G01 X13.3680 Y8.9735
G01 X12.3631 Y8.9736
G01 X12.3533 Y8.9731
G01 X12.3461 Y8.9721
G01 X12.3365 Y8.9700
G01 X12.3273 Y8.9669
G01 X12.3162 Y8.9618
G01 X12.3058 Y8.9554
G01 X12.2963 Y8.9478
G01 X12.2910 Y8.9427
G01 X12.2862 Y8.9372
G01 X12.2817 Y8.9314
G01 X12.2777 Y8.9252
G01 X12.2721 Y8.9144
G01 X12.2694 Y8.9076
G01 X12.2672 Y8.9006
G01 X12.2647 Y8.8887
G01 X12.2638 Y8.8814
G01 X12.2636 Y8.8741
G01 X12.2636 Y8.5741
G01 X12.2638 Y8.5668
G01 X12.2650 Y8.5571
G01 X12.2666 Y8.5499
G01 X12.2694 Y8.5406
G01 X12.2731 Y8.5315
G01 X12.2777 Y8.5229
G01 X12.2832 Y8.5148
G01 X12.2894 Y8.5073
G01 X12.2963 Y8.5004
G01 X12.3019 Y8.4956
G01 X12.3098 Y8.4900
G01 X12.3183 Y8.4852
G01 X12.3273 Y8.4812
G01 X12.3365 Y8.4782
G01 X12.3461 Y8.4760
G01 X12.3558 Y8.4748
G01 X12.3631 Y8.4746
G00 Z2.0000
G00 X11.8586 Y10.0691
G01 F60.00
G01 Z-0.0200
G01 F60.00
G01 X11.8586 Y9.0691
G01 X11.8588 Y9.0618
G01 X11.8600 Y9.0521
G01 X11.8622 Y9.0425
G01 X11.8652 Y9.0333
G01 X11.8703 Y9.0222
G01 X11.8740 Y9.0158
G01 X11.8782 Y9.0098
G01 X11.8860 Y9.0005
G01 X11.8913 Y8.9954
G01 X11.8969 Y8.9906
G01 X11.9069 Y8.9837
G01 X11.9133 Y8.9802
G01 X11.9200 Y8.9771
G01 X11.9269 Y8.9746
G01 X11.9339 Y8.9726
G01 X11.9459 Y8.9703
G01 X11.9581 Y8.9696
G01 X12.2605 Y8.9696
G01 X12.2703 Y8.9703
G01 X12.2775 Y8.9715
G01 X12.2870 Y8.9739
G01 X12.2939 Y8.9762
G01 X12.3006 Y8.9791
G01 X12.3071 Y8.9825
G01 X12.3134 Y8.9863
G01 X12.3193 Y8.9906
G01 X12.3284 Y8.9987
G01 X12.3334 Y9.0041
G01 X12.3380 Y9.0098
G01 X12.3421 Y9.0158
G01 X12.3458 Y9.0222
G01 X12.3490 Y9.0288
G01 X12.3518 Y9.0356
G01 X12.3540 Y9.0425
G01 X12.3557 Y9.0497
G01 X12.3568 Y9.0569
G01 X12.3575 Y9.0642
G01 X12.3576 Y10.0691
G01 X12.3571 Y10.0788
G01 X12.3561 Y10.0861
G01 X12.3540 Y10.0956
G01 X12.3509 Y10.1049
G01 X12.3458 Y10.1160
G01 X12.3394 Y10.1264
G01 X12.3350 Y10.1322
G01 X12.3301 Y10.1377
G01 X12.3212 Y10.1460
G01 X12.3154 Y10.1504
G01 X12.3092 Y10.1544
G01 X12.2984 Y10.1600
G01 X12.2916 Y10.1628
G01 X12.2846 Y10.1650
G01 X12.2727 Y10.1675
G01 X12.2654 Y10.1683
G01 X12.2581 Y10.1686
G01 X11.9581 Y10.1686
G01 X11.9508 Y10.1683
G01 X11.9435 Y10.1675
G01 X11.9339 Y10.1656
G01 X11.9246 Y10.1628
G01 X11.9155 Y10.1590
G01 X11.9069 Y10.1544
G01 X11.8988 Y10.1490
G01 X11.8913 Y10.1428
G01 X11.8844 Y10.1359
G01 X11.8782 Y10.1283
G01 X11.8740 Y10.1223
G01 X11.8692 Y10.1138
G01 X11.8652 Y10.1049
G01 X11.8622 Y10.0956
G01 X11.8600 Y10.0861
G01 X11.8588 Y10.0764
G01 X11.8586 Y10.0691
G00 Z2.0000
G00 X11.3586 Y10.0691
G01 F60.00
G01 Z-0.0200
G01 F60.00
G01 X11.3586 Y9.0691
G01 X11.3588 Y9.0618
G01 X11.3600 Y9.0521
G01 X11.3622 Y9.0425
G01 X11.3652 Y9.0333
G01 X11.3703 Y9.0222
G01 X11.3740 Y9.0158
G01 X11.3782 Y9.0098
G01 X11.3860 Y9.0005
G01 X11.3913 Y8.9954
G01 X11.3969 Y8.9906
G01 X11.4069 Y8.9837
G01 X11.4133 Y8.9802
G01 X11.4200 Y8.9771
G01 X11.4269 Y8.9746
G01 X11.4339 Y8.9726
G01 X11.4459 Y8.9703
G01 X11.4581 Y8.9696
G01 X11.7605 Y8.9696
G01 X11.7703 Y8.9703
G01 X11.7775 Y8.9715
G01 X11.7870 Y8.9739
G01 X11.7939 Y8.9762
G01 X11.8006 Y8.9791
G01 X11.8071 Y8.9825
G01 X11.8134 Y8.9863
G01 X11.8193 Y8.9906
G01 X11.8284 Y8.9987
G01 X11.8334 Y9.0041
G01 X11.8380 Y9.0098
G01 X11.8421 Y9.0158
G01 X11.8458 Y9.0222
G01 X11.8490 Y9.0288
G01 X11.8518 Y9.0356
G01 X11.8540 Y9.0425
G01 X11.8557 Y9.0497
G01 X11.8568 Y9.0569
G01 X11.8575 Y9.0642
G01 X11.8576 Y10.0691
G01 X11.8571 Y10.0788
G01 X11.8561 Y10.0861
G01 X11.8540 Y10.0956
G01 X11.8509 Y10.1049
G01 X11.8458 Y10.1160
G01 X11.8394 Y10.1264
G01 X11.8350 Y10.1322
G01 X11.8301 Y10.1377
G01 X11.8212 Y10.1460
G01 X11.8154 Y10.1504
G01 X11.8092 Y10.1544
G01 X11.7984 Y10.1600
G01 X11.7916 Y10.1628
G01 X11.7846 Y10.1650
G01 X11.7727 Y10.1675
G01 X11.7654 Y10.1683
G01 X11.7581 Y10.1686
G01 X11.4581 Y10.1686
G01 X11.4508 Y10.1683
G01 X11.4435 Y10.1675
G01 X11.4339 Y10.1656
G01 X11.4246 Y10.1628
G01 X11.4155 Y10.1590
G01 X11.4069 Y10.1544
G01 X11.3988 Y10.1490
G01 X11.3913 Y10.1428
G01 X11.3844 Y10.1359
G01 X11.3782 Y10.1283
G01 X11.3740 Y10.1223
G01 X11.3692 Y10.1138
G01 X11.3652 Y10.1049
G01 X11.3622 Y10.0956
G01 X11.3600 Y10.0861
G01 X11.3588 Y10.0764
G01 X11.3586 Y10.0691
G00 Z2.0000
G00 X10.8586 Y10.0691
G01 F60.00
G01 Z-0.0200
G01 F60.00
G01 X10.8586 Y9.0691
G01 X10.8588 Y9.0618
G01 X10.8600 Y9.0521
G01 X10.8622 Y9.0425
G01 X10.8652 Y9.0333
G01 X10.8703 Y9.0222
G01 X10.8740 Y9.0158
G01 X10.8782 Y9.0098
G01 X10.8860 Y9.0005
G01 X10.8913 Y8.9954
G01 X10.8969 Y8.9906
G01 X10.9069 Y8.9837
G01 X10.9133 Y8.9802
G01 X10.9200 Y8.9771
G01 X10.9269 Y8.9746
G01 X10.9339 Y8.9726
G01 X10.9459 Y8.9703
G01 X10.9581 Y8.9696
G01 X11.2605 Y8.9696
G01 X11.2703 Y8.9703
G01 X11.2775 Y8.9715
G01 X11.2870 Y8.9739
G01 X11.2939 Y8.9762
G01 X11.3006 Y8.9791
G01 X11.3071 Y8.9825
G01 X11.3134 Y8.9863
G01 X11.3193 Y8.9906
G01 X11.3284 Y8.9987
G01 X11.3334 Y9.0041
G01 X11.3380 Y9.0098
G01 X11.3421 Y9.0158
G01 X11.3458 Y9.0222
G01 X11.3490 Y9.0288
G01 X11.3518 Y9.0356
G01 X11.3540 Y9.0425
G01 X11.3557 Y9.0497
G01 X11.3568 Y9.0569
G01 X11.3575 Y9.0642
G01 X11.3576 Y10.0691
G01 X11.3571 Y10.0788
G01 X11.3561 Y10.0861
G01 X11.3540 Y10.0956
G01 X11.3509 Y10.1049
G01 X11.3458 Y10.1160
G01 X11.3394 Y10.1264
G01 X11.3350 Y10.1322
G01 X11.3301 Y10.1377
G01 X11.3212 Y10.1460
G01 X11.3154 Y10.1504
G01 X11.3092 Y10.1544
G01 X11.2984 Y10.1600
G01 X11.2916 Y10.1628
G01 X11.2846 Y10.1650
G01 X11.2727 Y10.1675
G01 X11.2654 Y10.1683
G01 X11.2581 Y10.1686
G01 X10.9581 Y10.1686
G01 X10.9508 Y10.1683
G01 X10.9435 Y10.1675
G01 X10.9339 Y10.1656
G01 X10.9246 Y10.1628
G01 X10.9155 Y10.1590
G01 X10.9069 Y10.1544
G01 X10.8988 Y10.1490
G01 X10.8913 Y10.1428
G01 X10.8844 Y10.1359
G01 X10.8782 Y10.1283
G01 X10.8740 Y10.1223
G01 X10.8692 Y10.1138
G01 X10.8652 Y10.1049
G01 X10.8622 Y10.0956
G01 X10.8600 Y10.0861
G01 X10.8588 Y10.0764
G01 X10.8586 Y10.0691
G00 Z2.0000
G00 X10.3586 Y10.0691
G01 F60.00
G01 Z-0.0200
G01 F60.00
G01 X10.3586 Y9.0691
G01 X10.3588 Y9.0618
G01 X10.3600 Y9.0521
G01 X10.3622 Y9.0425
G01 X10.3652 Y9.0333
G01 X10.3703 Y9.0222
G01 X10.3740 Y9.0158
G01 X10.3782 Y9.0098
G01 X10.3860 Y9.0005
G01 X10.3913 Y8.9954
G01 X10.3969 Y8.9906
G01 X10.4069 Y8.9837
G01 X10.4133 Y8.9802
G01 X10.4200 Y8.9771
G01 X10.4269 Y8.9746
G01 X10.4339 Y8.9726
G01 X10.4459 Y8.9703
G01 X10.4581 Y8.9696
G01 X10.7605 Y8.9696
G01 X10.7703 Y8.9703
G01 X10.7775 Y8.9715
G01 X10.7870 Y8.9739
G01 X10.7939 Y8.9762
G01 X10.8006 Y8.9791
G01 X10.8071 Y8.9825
G01 X10.8134 Y8.9863
G01 X10.8193 Y8.9906
G01 X10.8284 Y8.9987
G01 X10.8334 Y9.0041
G01 X10.8380 Y9.0098
G01 X10.8421 Y9.0158
G01 X10.8458 Y9.0222
G01 X10.8490 Y9.0288
G01 X10.8518 Y9.0356
G01 X10.8540 Y9.0425
G01 X10.8557 Y9.0497
G01 X10.8568 Y9.0569
G01 X10.8575 Y9.0642
G01 X10.8576 Y10.0691
G01 X10.8571 Y10.0788
G01 X10.8561 Y10.0861
G01 X10.8540 Y10.0956
G01 X10.8509 Y10.1049
G01 X10.8458 Y10.1160
G01 X10.8394 Y10.1264
G01 X10.8350 Y10.1322
G01 X10.8301 Y10.1377
G01 X10.8212 Y10.1460
G01 X10.8154 Y10.1504
G01 X10.8092 Y10.1544
G01 X10.7984 Y10.1600
G01 X10.7916 Y10.1628
G01 X10.7846 Y10.1650
G01 X10.7727 Y10.1675
G01 X10.7654 Y10.1683
G01 X10.7581 Y10.1686
G01 X10.4581 Y10.1686
G01 X10.4508 Y10.1683
G01 X10.4435 Y10.1675
G01 X10.4339 Y10.1656
G01 X10.4246 Y10.1628
G01 X10.4155 Y10.1590
G01 X10.4069 Y10.1544
G01 X10.3988 Y10.1490
G01 X10.3913 Y10.1428
G01 X10.3844 Y10.1359
G01 X10.3782 Y10.1283
G01 X10.3740 Y10.1223
G01 X10.3692 Y10.1138
G01 X10.3652 Y10.1049
G01 X10.3622 Y10.0956
G01 X10.3600 Y10.0861
G01 X10.3588 Y10.0764
G01 X10.3586 Y10.0691
G00 Z2.0000
G00 X9.8586 Y10.0691
G01 F60.00
G01 Z-0.0200
G01 F60.00
G01 X9.8586 Y9.0691
G01 X9.8588 Y9.0618
G01 X9.8600 Y9.0521
G01 X9.8622 Y9.0425
G01 X9.8652 Y9.0333
G01 X9.8703 Y9.0222
G01 X9.8740 Y9.0158
G01 X9.8782 Y9.0098
G01 X9.8860 Y9.0005
G01 X9.8913 Y8.9954
G01 X9.8969 Y8.9906
G01 X9.9069 Y8.9837
G01 X9.9133 Y8.9802
G01 X9.9200 Y8.9771
G01 X9.9269 Y8.9746
G01 X9.9339 Y8.9726
G01 X9.9459 Y8.9703
G01 X9.9581 Y8.9696
G01 X10.2605 Y8.9696
G01 X10.2703 Y8.9703
G01 X10.2775 Y8.9715
G01 X10.2870 Y8.9739
G01 X10.2939 Y8.9762
G01 X10.3006 Y8.9791
G01 X10.3071 Y8.9825
G01 X10.3134 Y8.9863
G01 X10.3193 Y8.9906
G01 X10.3284 Y8.9987
G01 X10.3334 Y9.0041
G01 X10.3380 Y9.0098
G01 X10.3421 Y9.0158
G01 X10.3458 Y9.0222
G01 X10.3490 Y9.0288
G01 X10.3518 Y9.0356
G01 X10.3540 Y9.0425
G01 X10.3557 Y9.0497
G01 X10.3568 Y9.0569
G01 X10.3575 Y9.0642
G01 X10.3576 Y10.0691
G01 X10.3571 Y10.0788
G01 X10.3561 Y10.0861
G01 X10.3540 Y10.0956
G01 X10.3509 Y10.1049
G01 X10.3458 Y10.1160
G01 X10.3394 Y10.1264
G01 X10.3350 Y10.1322
G01 X10.3301 Y10.1377
G01 X10.3212 Y10.1460
G01 X10.3154 Y10.1504
G01 X10.3092 Y10.1544
G01 X10.2984 Y10.1600
G01 X10.2916 Y10.1628
G01 X10.2846 Y10.1650
G01 X10.2727 Y10.1675
G01 X10.2654 Y10.1683
G01 X10.2581 Y10.1686
G01 X9.9581 Y10.1686
G01 X9.9508 Y10.1683
G01 X9.9435 Y10.1675
G01 X9.9339 Y10.1656
G01 X9.9246 Y10.1628
G01 X9.9155 Y10.1590
G01 X9.9069 Y10.1544
G01 X9.8988 Y10.1490
G01 X9.8913 Y10.1428
G01 X9.8844 Y10.1359
G01 X9.8782 Y10.1283
G01 X9.8740 Y10.1223
G01 X9.8692 Y10.1138
G01 X9.8652 Y10.1049
G01 X9.8622 Y10.0956
G01 X9.8600 Y10.0861
G01 X9.8588 Y10.0764
G01 X9.8586 Y10.0691
G00 Z2.0000
G00 X6.0808 Y13.4818
G01 F60.00
G01 Z-0.0200
G01 F60.00
G01 X6.9125 Y12.6502
G01 X6.9125 Y10.1575
G01 X6.9008 Y10.1504
G01 X6.8913 Y10.1428
G01 X6.8827 Y10.1341
G01 X6.8782 Y10.1283
G01 X6.8740 Y10.1223
G01 X6.8681 Y10.1116
G01 X6.8636 Y10.1003
G01 X6.8605 Y10.0885
G01 X6.8593 Y10.0813
G01 X6.8587 Y10.0740
G01 X6.8586 Y9.0691
G01 X6.8591 Y9.0593
G01 X6.8605 Y9.0497
G01 X6.8622 Y9.0425
G01 X6.8652 Y9.0333
G01 X6.8703 Y9.0222
G01 X6.8740 Y9.0158
G01 X6.8782 Y9.0098
G01 X6.8827 Y9.0041
G01 X6.8877 Y8.9987
G01 X6.8931 Y8.9937
G01 X6.8988 Y8.9892
G01 X6.9090 Y8.9825
G01 X6.9155 Y8.9791
G01 X6.9223 Y8.9762
G01 X6.9292 Y8.9739
G01 X6.9363 Y8.9720
G01 X6.9483 Y8.9701
G01 X6.9581 Y8.9696
G01 X7.2630 Y8.9697
G01 X7.2703 Y8.9703
G01 X7.2775 Y8.9715
G01 X7.2846 Y8.9732
G01 X7.2916 Y8.9754
G01 X7.3006 Y8.9791
G01 X7.3071 Y8.9825
G01 X7.3134 Y8.9863
G01 X7.3193 Y8.9906
G01 X7.3284 Y8.9987
G01 X7.3350 Y9.0060
G01 X7.3408 Y9.0138
G01 X7.3458 Y9.0222
G01 X7.3500 Y9.0310
G01 X7.3533 Y9.0402
G01 X7.3557 Y9.0497
G01 X7.3571 Y9.0593
G01 X7.3576 Y9.0691
G01 X7.3576 Y9.4140
G01 X7.3586 Y9.4154
G01 X7.3586 Y9.0691
G01 X7.3588 Y9.0618
G01 X7.3600 Y9.0521
G01 X7.3616 Y9.0449
G01 X7.3636 Y9.0379
G01 X7.3671 Y9.0288
G01 X7.3715 Y9.0200
G01 X7.3767 Y9.0118
G01 X7.3827 Y9.0041
G01 X7.3877 Y8.9987
G01 X7.3950 Y8.9922
G01 X7.4008 Y8.9877
G01 X7.4090 Y8.9825
G01 X7.4178 Y8.9781
G01 X7.4269 Y8.9746
G01 X7.4363 Y8.9720
G01 X7.4459 Y8.9703
G01 X7.4532 Y8.9697
G01 X7.7605 Y8.9696
G01 X7.7703 Y8.9703
G01 X7.7775 Y8.9715
G01 X7.7846 Y8.9732
G01 X7.7939 Y8.9762
G01 X7.8006 Y8.9791
G01 X7.8071 Y8.9825
G01 X7.8134 Y8.9863
G01 X7.8193 Y8.9906
G01 X7.8249 Y8.9954
G01 X7.8301 Y9.0005
G01 X7.8350 Y9.0060
G01 X7.8394 Y9.0118
G01 X7.8434 Y9.0179
G01 X7.8470 Y9.0243
G01 X7.8509 Y9.0333
G01 X7.8533 Y9.0402
G01 X7.8552 Y9.0473
G01 X7.8565 Y9.0545
G01 X7.8573 Y9.0618
G01 X7.8576 Y9.0691
G01 X7.8576 Y13.0911
G01 X7.8564 Y13.1155
G01 X7.8529 Y13.1398
G01 X7.8469 Y13.1635
G01 X7.8396 Y13.1843
G01 X7.8282 Y13.2087
G01 X7.8156 Y13.2297
G01 X7.8010 Y13.2494
G01 X7.7846 Y13.2676
G01 X6.6615 Y14.3905
G01 X6.6451 Y14.4052
G01 X6.6294 Y14.4170
G01 X6.6213 Y14.4224
G01 X6.6044 Y14.4324
G01 X6.5823 Y14.4429
G01 X6.5639 Y14.4496
G01 X6.5545 Y14.4524
G01 X6.5331 Y14.4575
G01 X6.5112 Y14.4606
G01 X6.4868 Y14.4618
G01 X6.0230 Y14.4617
G01 X6.0034 Y14.4606
G01 X5.9840 Y14.4579
G01 X5.9768 Y14.4565
G01 X5.9578 Y14.4518
G01 X5.9324 Y14.4429
G01 X5.9081 Y14.4312
G01 X5.8913 Y14.4211
G01 X5.8852 Y14.4170
G01 X5.8695 Y14.4052
G01 X5.8549 Y14.3921
G01 X5.7402 Y14.2775
G01 X5.7255 Y14.2611
G01 X5.7109 Y14.2414
G01 X5.6983 Y14.2204
G01 X5.6898 Y14.2027
G01 X5.6860 Y14.1937
G01 X5.6795 Y14.1752
G01 X5.6736 Y14.1515
G01 X5.6700 Y14.1272
G01 X5.6689 Y14.1077
G01 X5.6689 Y14.0979
G01 X5.6700 Y14.0783
G01 X5.6728 Y14.0589
G01 X5.6741 Y14.0517
G01 X5.6782 Y14.0350
G01 X5.6811 Y14.0257
G01 X5.6878 Y14.0073
G01 X5.6983 Y13.9851
G01 X5.7082 Y13.9682
G01 X5.7137 Y13.9601
G01 X5.7255 Y13.9444
G01 X5.7385 Y13.9298
G01 X5.7454 Y13.9229
G01 X5.7600 Y13.9099
G01 X5.7757 Y13.8981
G01 X5.7838 Y13.8926
G01 X5.8007 Y13.8827
G01 X5.8184 Y13.8742
G01 X5.8274 Y13.8704
G01 X5.8459 Y13.8639
G01 X5.8649 Y13.8591
G01 X5.8745 Y13.8572
G01 X5.8939 Y13.8544
G01 X5.9159 Y13.8532
G01 X5.9428 Y13.8544
G01 X5.9623 Y13.8572
G01 X5.9718 Y13.8591
G01 X5.9908 Y13.8639
G01 X6.0093 Y13.8704
G01 X6.0161 Y13.8732
G01 X6.0339 Y13.8815
G01 X6.0570 Y13.8953
G01 X6.0767 Y13.9099
G01 X6.0931 Y13.9246
G01 X6.1313 Y13.9627
G01 X6.3834 Y13.9627
G01 X7.3585 Y12.9877
G01 X7.3585 Y12.9074
G01 X7.3534 Y12.9138
G01 X7.3386 Y12.9301
G01 X6.4337 Y13.8348
G01 X6.4156 Y13.8512
G01 X6.3959 Y13.8658
G01 X6.3749 Y13.8784
G01 X6.3550 Y13.8879
G01 X6.3320 Y13.8964
G01 X6.3107 Y13.9020
G01 X6.3011 Y13.9039
G01 X6.2842 Y13.9064
G01 X6.2769 Y13.9070
G01 X6.2573 Y13.9078
G01 X6.2328 Y13.9066
G01 X6.2086 Y13.9031
G01 X6.1848 Y13.8971
G01 X6.1618 Y13.8888
G01 X6.1440 Y13.8806
G01 X6.1354 Y13.8760
G01 X6.1207 Y13.8671
G01 X6.1146 Y13.8630
G01 X6.0989 Y13.8512
G01 X6.0808 Y13.8347
G01 X6.0643 Y13.8166
G01 X6.0498 Y13.7969
G01 X6.0372 Y13.7759
G01 X6.0267 Y13.7538
G01 X6.0184 Y13.7307
G01 X6.0136 Y13.7117
G01 X6.0117 Y13.7021
G01 X6.0092 Y13.6852
G01 X6.0085 Y13.6779
G01 X6.0077 Y13.6583
G01 X6.0089 Y13.6338
G01 X6.0125 Y13.6096
G01 X6.0185 Y13.5858
G01 X6.0267 Y13.5628
G01 X6.0350 Y13.5450
G01 X6.0396 Y13.5364
G01 X6.0484 Y13.5217
G01 X6.0526 Y13.5156
G01 X6.0644 Y13.4999
G01 X6.0808 Y13.4818
G00 Z2.0000
G00 X5.6256 Y13.1536
G01 F60.00
G01 Z-0.0200
G01 F60.00
G01 X6.3585 Y12.4207
G01 X6.3586 Y9.0691
G01 X6.3593 Y9.0569
G01 X6.3605 Y9.0497
G01 X6.3622 Y9.0425
G01 X6.3652 Y9.0333
G01 X6.3681 Y9.0265
G01 X6.3727 Y9.0179
G01 X6.3767 Y9.0118
G01 X6.3812 Y9.0060
G01 X6.3860 Y9.0005
G01 X6.3913 Y8.9954
G01 X6.3969 Y8.9906
G01 X6.4028 Y8.9863
G01 X6.4090 Y8.9825
G01 X6.4155 Y8.9791
G01 X6.4223 Y8.9762
G01 X6.4292 Y8.9739
G01 X6.4387 Y8.9715
G01 X6.4483 Y8.9701
G01 X6.4581 Y8.9696
G01 X6.7581 Y8.9696
G01 X6.7703 Y8.9703
G01 X6.7775 Y8.9715
G01 X6.7846 Y8.9732
G01 X6.7939 Y8.9762
G01 X6.8006 Y8.9791
G01 X6.8071 Y8.9825
G01 X6.8134 Y8.9863
G01 X6.8193 Y8.9906
G01 X6.8267 Y8.9970
G01 X6.8318 Y9.0023
G01 X6.8365 Y9.0079
G01 X6.8408 Y9.0138
G01 X6.8446 Y9.0200
G01 X6.8490 Y9.0288
G01 X6.8518 Y9.0356
G01 X6.8540 Y9.0425
G01 X6.8557 Y9.0497
G01 X6.8571 Y9.0593
G01 X6.8575 Y9.0666
G01 X6.8576 Y12.5241
G01 X6.8568 Y12.5437
G01 X6.8559 Y12.5534
G01 X6.8529 Y12.5728
G01 X6.8476 Y12.5942
G01 X6.8387 Y12.6196
G01 X6.8304 Y12.6374
G01 X6.8258 Y12.6460
G01 X6.8156 Y12.6627
G01 X6.8040 Y12.6786
G01 X6.7978 Y12.6861
G01 X6.7846 Y12.7006
G01 X5.9768 Y13.5083
G01 X5.9604 Y13.5230
G01 X5.9407 Y13.5376
G01 X5.9197 Y13.5502
G01 X5.8998 Y13.5597
G01 X5.8769 Y13.5682
G01 X5.8555 Y13.5738
G01 X5.8460 Y13.5757
G01 X5.8290 Y13.5782
G01 X5.8217 Y13.5788
G01 X5.8021 Y13.5796
G01 X5.7776 Y13.5784
G01 X5.7534 Y13.5749
G01 X5.7296 Y13.5689
G01 X5.7066 Y13.5607
G01 X5.6888 Y13.5524
G01 X5.6823 Y13.5490
G01 X5.6675 Y13.5402
G01 X5.6594 Y13.5348
G01 X5.6437 Y13.5230
G01 X5.6256 Y13.5066
G01 X5.6092 Y13.4884
G01 X5.5946 Y13.4687
G01 X5.5820 Y13.4477
G01 X5.5715 Y13.4256
G01 X5.5632 Y13.4025
G01 X5.5584 Y13.3835
G01 X5.5565 Y13.3740
G01 X5.5540 Y13.3570
G01 X5.5533 Y13.3497
G01 X5.5525 Y13.3301
G01 X5.5537 Y13.3056
G01 X5.5573 Y13.2814
G01 X5.5619 Y13.2623
G01 X5.5640 Y13.2553
G01 X5.5697 Y13.2391
G01 X5.5735 Y13.2301
G01 X5.5820 Y13.2124
G01 X5.5946 Y13.1914
G01 X5.6092 Y13.1717
G01 X5.6256 Y13.1536
G00 Z2.0000
G00 X6.7021 Y14.4276
G01 F60.00
G01 Z-0.0200
G01 F60.00
G01 X7.8585 Y13.2711
G01 X7.8585 Y9.5691
G01 X7.8586 Y9.0691
G01 X7.8591 Y9.0593
G01 X7.8605 Y9.0497
G01 X7.8622 Y9.0425
G01 X7.8644 Y9.0356
G01 X7.8671 Y9.0288
G01 X7.8703 Y9.0222
G01 X7.8753 Y9.0138
G01 X7.8796 Y9.0079
G01 X7.8844 Y9.0023
G01 X7.8895 Y8.9970
G01 X7.8950 Y8.9922
G01 X7.9008 Y8.9877
G01 X7.9090 Y8.9825
G01 X7.9155 Y8.9791
G01 X7.9223 Y8.9762
G01 X7.9292 Y8.9739
G01 X7.9387 Y8.9715
G01 X7.9483 Y8.9701
G01 X7.9581 Y8.9696
G01 X8.2581 Y8.9696
G01 X8.2654 Y8.9698
G01 X8.2727 Y8.9707
G01 X8.2799 Y8.9720
G01 X8.2870 Y8.9739
G01 X8.2962 Y8.9771
G01 X8.3028 Y8.9802
G01 X8.3092 Y8.9837
G01 X8.3154 Y8.9877
G01 X8.3212 Y8.9922
G01 X8.3267 Y8.9970
G01 X8.3318 Y9.0023
G01 X8.3365 Y9.0079
G01 X8.3421 Y9.0158
G01 X8.3458 Y9.0222
G01 X8.3490 Y9.0288
G01 X8.3518 Y9.0356
G01 X8.3546 Y9.0449
G01 X8.3561 Y9.0521
G01 X8.3571 Y9.0593
G01 X8.3575 Y9.0666
G01 X8.3576 Y13.3745
G01 X8.3564 Y13.3989
G01 X8.3537 Y13.4183
G01 X8.3518 Y13.4279
G01 X8.3469 Y13.4469
G01 X8.3387 Y13.4700
G01 X8.3304 Y13.4878
G01 X8.3258 Y13.4964
G01 X8.3156 Y13.5131
G01 X8.3040 Y13.5289
G01 X8.2978 Y13.5365
G01 X8.2846 Y13.5509
G01 X7.0551 Y14.7805
G01 X7.0406 Y14.7938
G01 X7.0331 Y14.8000
G01 X7.0172 Y14.8116
G01 X7.0005 Y14.8218
G01 X6.9941 Y14.8253
G01 X6.9763 Y14.8337
G01 X6.9557 Y14.8414
G01 X6.9463 Y14.8442
G01 X6.9297 Y14.8483
G01 X6.9225 Y14.8497
G01 X6.9030 Y14.8524
G01 X6.8786 Y14.8536
G01 X6.8541 Y14.8524
G01 X6.8299 Y14.8489
G01 X6.8061 Y14.8429
G01 X6.7831 Y14.8347
G01 X6.7609 Y14.8242
G01 X6.7441 Y14.8142
G01 X6.7379 Y14.8102
G01 X6.7222 Y14.7985
G01 X6.7056 Y14.7839
G01 X6.6987 Y14.7770
G01 X6.6872 Y14.7643
G01 X6.6827 Y14.7586
G01 X6.6711 Y14.7427
G01 X6.6585 Y14.7217
G01 X6.6480 Y14.6996
G01 X6.6397 Y14.6765
G01 X6.6338 Y14.6528
G01 X6.6302 Y14.6285
G01 X6.6290 Y14.6041
G01 X6.6298 Y14.5845
G01 X6.6308 Y14.5748
G01 X6.6333 Y14.5578
G01 X6.6349 Y14.5506
G01 X6.6405 Y14.5293
G01 X6.6471 Y14.5108
G01 X6.6500 Y14.5041
G01 X6.6585 Y14.4864
G01 X6.6711 Y14.4654
G01 X6.6856 Y14.4458
G01 X6.7021 Y14.4276
G00 Z2.0000
G00 X7.3196 Y14.5935
G01 F60.00
G01 Z-0.0200
G01 F60.00
G01 X8.3585 Y13.5546
G01 X8.3585 Y9.5691
G01 X8.3586 Y9.0691
G01 X8.3591 Y9.0593
G01 X8.3600 Y9.0521
G01 X8.3622 Y9.0425
G01 X8.3644 Y9.0356
G01 X8.3671 Y9.0288
G01 X8.3703 Y9.0222
G01 X8.3740 Y9.0158
G01 X8.3796 Y9.0079
G01 X8.3844 Y9.0023
G01 X8.3895 Y8.9970
G01 X8.3950 Y8.9922
G01 X8.4008 Y8.9877
G01 X8.4090 Y8.9825
G01 X8.4155 Y8.9791
G01 X8.4246 Y8.9754
G01 X8.4315 Y8.9732
G01 X8.4387 Y8.9715
G01 X8.4483 Y8.9701
G01 X8.4581 Y8.9696
G01 X8.7581 Y8.9696
G01 X8.7703 Y8.9703
G01 X8.7823 Y8.9726
G01 X8.7916 Y8.9754
G01 X8.7984 Y8.9781
G01 X8.8050 Y8.9813
G01 X8.8113 Y8.9850
G01 X8.8193 Y8.9906
G01 X8.8249 Y8.9954
G01 X8.8318 Y9.0023
G01 X8.8365 Y9.0079
G01 X8.8421 Y9.0158
G01 X8.8458 Y9.0222
G01 X8.8490 Y9.0288
G01 X8.8518 Y9.0356
G01 X8.8546 Y9.0449
G01 X8.8561 Y9.0521
G01 X8.8571 Y9.0593
G01 X8.8575 Y9.0666
G01 X8.8576 Y13.6580
G01 X8.8568 Y13.6776
G01 X8.8559 Y13.6873
G01 X8.8529 Y13.7067
G01 X8.8482 Y13.7257
G01 X8.8454 Y13.7351
G01 X8.8387 Y13.7535
G01 X8.8270 Y13.7778
G01 X8.8156 Y13.7966
G01 X8.8040 Y13.8125
G01 X8.7994 Y13.8182
G01 X8.7863 Y13.8327
G01 X7.6726 Y14.9465
G01 X7.6581 Y14.9597
G01 X7.6506 Y14.9659
G01 X7.6347 Y14.9775
G01 X7.6159 Y14.9889
G01 X7.5938 Y14.9996
G01 X7.5732 Y15.0073
G01 X7.5662 Y15.0095
G01 X7.5495 Y15.0137
G01 X7.5400 Y15.0156
G01 X7.5205 Y15.0183
G01 X7.4961 Y15.0195
G01 X7.4716 Y15.0183
G01 X7.4474 Y15.0148
G01 X7.4236 Y15.0088
G01 X7.4006 Y15.0006
G01 X7.3784 Y14.9901
G01 X7.3615 Y14.9801
G01 X7.3534 Y14.9747
G01 X7.3397 Y14.9644
G01 X7.3340 Y14.9597
G01 X7.3179 Y14.9447
G01 X7.3047 Y14.9302
G01 X7.3001 Y14.9245
G01 X7.2886 Y14.9086
G01 X7.2760 Y14.8876
G01 X7.2655 Y14.8655
G01 X7.2572 Y14.8424
G01 X7.2513 Y14.8187
G01 X7.2477 Y14.7944
G01 X7.2465 Y14.7700
G01 X7.2473 Y14.7504
G01 X7.2480 Y14.7431
G01 X7.2505 Y14.7261
G01 X7.2524 Y14.7165
G01 X7.2580 Y14.6952
G01 X7.2646 Y14.6767
G01 X7.2675 Y14.6700
G01 X7.2760 Y14.6523
G01 X7.2886 Y14.6313
G01 X7.3032 Y14.6116
G01 X7.3196 Y14.5935
G00 Z2.0000
G00 X5.2413 Y15.4081
G01 F60.00
G01 Z-0.0200
G01 F60.00
G01 X5.2282 Y15.3935
G01 X5.2165 Y15.3778
G01 X5.2110 Y15.3697
G01 X5.2010 Y15.3528
G01 X5.1925 Y15.3352
G01 X5.1888 Y15.3262
G01 X5.1823 Y15.3077
G01 X5.1768 Y15.2863
G01 X5.1733 Y15.2645
G01 X5.1725 Y15.2572
G01 X5.1715 Y15.2352
G01 X5.1723 Y15.2156
G01 X5.1733 Y15.2059
G01 X5.1763 Y15.1865
G01 X5.1809 Y15.1675
G01 X5.1837 Y15.1581
G01 X5.1904 Y15.1397
G01 X5.1987 Y15.1219
G01 X5.2033 Y15.1133
G01 X5.2135 Y15.0965
G01 X5.2281 Y15.0769
G01 X5.2411 Y15.0622
G01 X5.2480 Y15.0553
G01 X5.2626 Y15.0422
G01 X5.2823 Y15.0276
G01 X5.2991 Y15.0174
G01 X5.3077 Y15.0128
G01 X5.3254 Y15.0046
G01 X5.3439 Y14.9978
G01 X5.3532 Y14.9950
G01 X5.3722 Y14.9903
G01 X5.3916 Y14.9873
G01 X5.4013 Y14.9864
G01 X5.4209 Y14.9855
G01 X5.4478 Y14.9870
G01 X5.4672 Y14.9898
G01 X5.4744 Y14.9913
G01 X5.4934 Y14.9962
G01 X5.5142 Y15.0035
G01 X5.5386 Y15.0149
G01 X5.5616 Y15.0289
G01 X5.5812 Y15.0436
G01 X5.5957 Y15.0568
G01 X5.6134 Y15.0744
G01 X7.6221 Y15.0744
G01 X8.8585 Y13.8381
G01 X8.8585 Y9.5691
G01 X8.8586 Y9.0691
G01 X8.8591 Y9.0593
G01 X8.8600 Y9.0521
G01 X8.8622 Y9.0425
G01 X8.8644 Y9.0356
G01 X8.8671 Y9.0288
G01 X8.8703 Y9.0222
G01 X8.8740 Y9.0158
G01 X8.8796 Y9.0079
G01 X8.8844 Y9.0023
G01 X8.8895 Y8.9970
G01 X8.8950 Y8.9922
G01 X8.9008 Y8.9877
G01 X8.9090 Y8.9825
G01 X8.9155 Y8.9791
G01 X8.9246 Y8.9754
G01 X8.9315 Y8.9732
G01 X8.9411 Y8.9710
G01 X8.9483 Y8.9701
G01 X8.9581 Y8.9696
G01 X9.2630 Y8.9697
G01 X9.2703 Y8.9703
G01 X9.2775 Y8.9715
G01 X9.2893 Y8.9746
G01 X9.3006 Y8.9791
G01 X9.3113 Y8.9850
G01 X9.3212 Y8.9922
G01 X9.3301 Y9.0005
G01 X9.3350 Y9.0060
G01 X9.3394 Y9.0118
G01 X9.3458 Y9.0222
G01 X9.3509 Y9.0333
G01 X9.3546 Y9.0449
G01 X9.3568 Y9.0569
G01 X9.3576 Y9.0691
G01 X9.3576 Y13.9415
G01 X9.3564 Y13.9659
G01 X9.3537 Y13.9854
G01 X9.3518 Y13.9949
G01 X9.3469 Y14.0139
G01 X9.3404 Y14.0324
G01 X9.3367 Y14.0415
G01 X9.3282 Y14.0591
G01 X9.3169 Y14.0781
G01 X9.3010 Y14.0998
G01 X9.2846 Y14.1180
G01 X7.9019 Y15.5005
G01 X7.8838 Y15.5169
G01 X7.8681 Y15.5287
G01 X7.8600 Y15.5341
G01 X7.8431 Y15.5441
G01 X7.8254 Y15.5526
G01 X7.8187 Y15.5555
G01 X7.8002 Y15.5621
G01 X7.7789 Y15.5677
G01 X7.7693 Y15.5696
G01 X7.7499 Y15.5723
G01 X7.7255 Y15.5735
G01 X5.5101 Y15.5735
G01 X5.4905 Y15.5727
G01 X5.4808 Y15.5718
G01 X5.4614 Y15.5688
G01 X5.4424 Y15.5641
G01 X5.4330 Y15.5613
G01 X5.4146 Y15.5546
G01 X5.3969 Y15.5463
G01 X5.3883 Y15.5417
G01 X5.3715 Y15.5315
G01 X5.3518 Y15.5170
G01 X5.3354 Y15.5023
G01 X5.2413 Y15.4081
G00 Z2.0000
G00 X4.6175 Y15.4646
G01 F60.00
G01 Z-0.0200
G01 F60.00
G01 X4.6175 Y15.2351
G01 X4.6187 Y15.2106
G01 X4.6223 Y15.1864
G01 X4.6282 Y15.1626
G01 X4.6365 Y15.1396
G01 X4.6481 Y15.1153
G01 X4.6596 Y15.0964
G01 X4.6711 Y15.0806
G01 X4.6773 Y15.0730
G01 X4.6906 Y15.0586
G01 X4.7087 Y15.0422
G01 X4.7244 Y15.0304
G01 X4.7325 Y15.0249
G01 X4.7494 Y15.0150
G01 X4.7671 Y15.0065
G01 X4.7761 Y15.0027
G01 X4.7946 Y14.9962
G01 X4.8184 Y14.9903
G01 X4.8378 Y14.9873
G01 X4.8475 Y14.9863
G01 X4.8671 Y14.9855
G01 X4.8867 Y14.9863
G01 X4.8964 Y14.9873
G01 X4.9158 Y14.9903
G01 X4.9395 Y14.9962
G01 X4.9626 Y15.0045
G01 X4.9847 Y15.0150
G01 X5.0057 Y15.0276
G01 X5.0254 Y15.0422
G01 X5.0436 Y15.0586
G01 X5.0615 Y15.0787
G01 X5.0732 Y15.0944
G01 X5.0772 Y15.1005
G01 X5.0872 Y15.1174
G01 X5.0957 Y15.1351
G01 X5.0994 Y15.1441
G01 X5.1059 Y15.1626
G01 X5.1119 Y15.1864
G01 X5.1154 Y15.2106
G01 X5.1166 Y15.2326
G01 X5.1166 Y15.3612
G01 X5.3839 Y15.6284
G01 X7.8516 Y15.6284
G01 X9.3585 Y14.1215
G01 X9.3585 Y9.5691
G01 X9.3586 Y9.0691
G01 X9.3591 Y9.0593
G01 X9.3600 Y9.0521
G01 X9.3622 Y9.0425
G01 X9.3652 Y9.0333
G01 X9.3681 Y9.0265
G01 X9.3715 Y9.0200
G01 X9.3753 Y9.0138
G01 X9.3812 Y9.0060
G01 X9.3860 Y9.0005
G01 X9.3913 Y8.9954
G01 X9.3988 Y8.9892
G01 X9.4048 Y8.9850
G01 X9.4112 Y8.9813
G01 X9.4178 Y8.9781
G01 X9.4269 Y8.9746
G01 X9.4363 Y8.9720
G01 X9.4435 Y8.9707
G01 X9.4508 Y8.9698
G01 X9.4581 Y8.9696
G01 X9.7630 Y8.9697
G01 X9.7703 Y8.9703
G01 X9.7775 Y8.9715
G01 X9.7846 Y8.9732
G01 X9.7939 Y8.9762
G01 X9.8028 Y8.9802
G01 X9.8092 Y8.9837
G01 X9.8154 Y8.9877
G01 X9.8212 Y8.9922
G01 X9.8284 Y8.9987
G01 X9.8365 Y9.0079
G01 X9.8421 Y9.0158
G01 X9.8480 Y9.0265
G01 X9.8518 Y9.0356
G01 X9.8552 Y9.0473
G01 X9.8571 Y9.0593
G01 X9.8576 Y9.0691
G01 X9.8576 Y14.2249
G01 X9.8564 Y14.2493
G01 X9.8537 Y14.2688
G01 X9.8518 Y14.2783
G01 X9.8476 Y14.2950
G01 X9.8454 Y14.3020
G01 X9.8387 Y14.3204
G01 X9.8282 Y14.3425
G01 X9.8156 Y14.3635
G01 X9.8010 Y14.3832
G01 X9.7846 Y14.4014
G01 X8.1297 Y16.0562
G01 X8.1133 Y16.0709
G01 X8.0976 Y16.0827
G01 X8.0895 Y16.0881
G01 X8.0726 Y16.0981
G01 X8.0549 Y16.1066
G01 X8.0459 Y16.1103
G01 X8.0274 Y16.1168
G01 X8.0037 Y16.1228
G01 X7.9794 Y16.1263
G01 X7.9550 Y16.1275
G01 X5.2806 Y16.1275
G01 X5.2561 Y16.1263
G01 X5.2319 Y16.1228
G01 X5.2128 Y16.1181
G01 X5.2035 Y16.1153
G01 X5.1851 Y16.1086
G01 X5.1673 Y16.1003
G01 X5.1587 Y16.0957
G01 X5.1419 Y16.0855
G01 X5.1261 Y16.0739
G01 X5.1186 Y16.0677
G01 X5.1041 Y16.0545
G01 X4.6889 Y15.6393
G01 X4.6742 Y15.6229
G01 X4.6596 Y15.6033
G01 X4.6470 Y15.5822
G01 X4.6365 Y15.5601
G01 X4.6282 Y15.5370
G01 X4.6223 Y15.5133
G01 X4.6187 Y15.4890
G01 X4.6175 Y15.4646
G00 Z2.0000
M05
G00 Z2.0000
G00 Z15.00


