(G-CODE GENERATED BY FLATCAM v8.994 - www.flatcam.org - Version Date: 2020/11/7)

(Name: PCB2.GTL_iso_combined_cnc)
(Type: G-code from Geometry)
(Units: MM)

(Created on Monday, 13 March 2023 at 13:32)

(This preprocessor is the default preprocessor used by FlatCAM.)
(It is made to work with MACH3 compatible motion controllers.)

(TOOL DIAMETER: 0.079 mm)
(Feedrate_XY: 60.0 mm/min)
(Feedrate_Z: 60.0 mm/min)
(Feedrate rapids 1500.0 mm/min)

(Z_Cut: -0.03 mm)
(Z_Move: 2.0 mm)
(Z Start: None mm)
(Z End: 15.0 mm)
(X,Y End: None mm)
(Steps per circle: 64)
(Preprocessor Geometry: default)

(X range:   -0.0395 ...   32.0627  mm)
(Y range:   -0.0395 ...   11.4746  mm)

(Spindle Speed: 10000.0 RPM)
G21
G90
G94

G01 F60.00

M5
G00 Z15.0000
G00 X0.0000 Y0.0000
T2
M6    
(MSG, Change to Tool Dia = 0.0790)
M0
G00 Z15.0000

M03 S10000.0
G01 F60.00
G00 X3.9781 Y2.0125
G01 F60.00
G01 Z-0.0300
G01 F60.00
G01 X5.5021 Y2.0125
G01 X5.5079 Y2.0129
G01 X5.5136 Y2.0142
G01 X5.5190 Y2.0163
G01 X5.5248 Y2.0197
G01 X5.5293 Y2.0234
G01 X5.5332 Y2.0277
G01 X5.5369 Y2.0334
G01 X5.5393 Y2.0387
G01 X5.5408 Y2.0443
G01 X5.5416 Y2.0501
G01 X5.5416 Y2.4720
G01 X5.5412 Y2.4778
G01 X5.5399 Y2.4835
G01 X5.5374 Y2.4898
G01 X5.5344 Y2.4947
G01 X5.5300 Y2.4999
G01 X5.5256 Y2.5037
G01 X5.5207 Y2.5068
G01 X5.5154 Y2.5092
G01 X5.5098 Y2.5107
G01 X5.5031 Y2.5115
G01 X3.9781 Y2.5115
G01 X3.9723 Y2.5111
G01 X3.9666 Y2.5098
G01 X3.9603 Y2.5073
G01 X3.9554 Y2.5043
G01 X3.9509 Y2.5006
G01 X3.9470 Y2.4963
G01 X3.9437 Y2.4915
G01 X3.9412 Y2.4862
G01 X3.9396 Y2.4807
G01 X3.9386 Y2.4739
G01 X3.9386 Y2.0510
G01 X3.9396 Y2.0433
G01 X3.9416 Y2.0369
G01 X3.9453 Y2.0301
G01 X3.9502 Y2.0241
G01 X3.9562 Y2.0192
G01 X3.9630 Y2.0155
G01 X3.9704 Y2.0133
G01 X3.9781 Y2.0125
G00 Z2.0000
G00 X3.9781 Y2.5125
G01 F60.00
G01 Z-0.0300
G01 F60.00
G01 X5.5021 Y2.5125
G01 X5.5079 Y2.5129
G01 X5.5136 Y2.5142
G01 X5.5190 Y2.5163
G01 X5.5248 Y2.5197
G01 X5.5293 Y2.5234
G01 X5.5332 Y2.5277
G01 X5.5369 Y2.5334
G01 X5.5393 Y2.5387
G01 X5.5408 Y2.5443
G01 X5.5416 Y2.5501
G01 X5.5416 Y2.9720
G01 X5.5412 Y2.9778
G01 X5.5399 Y2.9835
G01 X5.5374 Y2.9898
G01 X5.5344 Y2.9947
G01 X5.5300 Y2.9999
G01 X5.5256 Y3.0037
G01 X5.5207 Y3.0068
G01 X5.5154 Y3.0092
G01 X5.5098 Y3.0107
G01 X5.5031 Y3.0115
G01 X3.9781 Y3.0115
G01 X3.9723 Y3.0111
G01 X3.9666 Y3.0098
G01 X3.9603 Y3.0073
G01 X3.9554 Y3.0043
G01 X3.9509 Y3.0006
G01 X3.9470 Y2.9963
G01 X3.9437 Y2.9915
G01 X3.9412 Y2.9862
G01 X3.9396 Y2.9807
G01 X3.9386 Y2.9739
G01 X3.9386 Y2.5510
G01 X3.9396 Y2.5433
G01 X3.9416 Y2.5369
G01 X3.9453 Y2.5301
G01 X3.9502 Y2.5241
G01 X3.9562 Y2.5192
G01 X3.9630 Y2.5155
G01 X3.9704 Y2.5133
G01 X3.9781 Y2.5125
G00 Z2.0000
G00 X3.9781 Y3.0125
G01 F60.00
G01 Z-0.0300
G01 F60.00
G01 X5.5021 Y3.0125
G01 X5.5079 Y3.0129
G01 X5.5136 Y3.0142
G01 X5.5190 Y3.0163
G01 X5.5248 Y3.0197
G01 X5.5293 Y3.0234
G01 X5.5332 Y3.0277
G01 X5.5369 Y3.0334
G01 X5.5393 Y3.0387
G01 X5.5408 Y3.0443
G01 X5.5416 Y3.0501
G01 X5.5416 Y3.4720
G01 X5.5412 Y3.4778
G01 X5.5399 Y3.4835
G01 X5.5374 Y3.4898
G01 X5.5344 Y3.4947
G01 X5.5300 Y3.4999
G01 X5.5256 Y3.5037
G01 X5.5207 Y3.5068
G01 X5.5154 Y3.5092
G01 X5.5098 Y3.5107
G01 X5.5031 Y3.5115
G01 X3.9781 Y3.5115
G01 X3.9723 Y3.5111
G01 X3.9666 Y3.5098
G01 X3.9603 Y3.5073
G01 X3.9554 Y3.5043
G01 X3.9509 Y3.5006
G01 X3.9470 Y3.4963
G01 X3.9437 Y3.4915
G01 X3.9412 Y3.4862
G01 X3.9396 Y3.4807
G01 X3.9386 Y3.4739
G01 X3.9386 Y3.0510
G01 X3.9396 Y3.0433
G01 X3.9416 Y3.0369
G01 X3.9453 Y3.0301
G01 X3.9502 Y3.0241
G01 X3.9562 Y3.0192
G01 X3.9630 Y3.0155
G01 X3.9704 Y3.0133
G01 X3.9781 Y3.0125
G00 Z2.0000
G00 X3.9781 Y3.5125
G01 F60.00
G01 Z-0.0300
G01 F60.00
G01 X5.5021 Y3.5125
G01 X5.5079 Y3.5129
G01 X5.5136 Y3.5142
G01 X5.5190 Y3.5163
G01 X5.5248 Y3.5197
G01 X5.5293 Y3.5234
G01 X5.5332 Y3.5277
G01 X5.5369 Y3.5334
G01 X5.5393 Y3.5387
G01 X5.5408 Y3.5443
G01 X5.5416 Y3.5501
G01 X5.5416 Y3.9720
G01 X5.5412 Y3.9778
G01 X5.5399 Y3.9835
G01 X5.5378 Y3.9889
G01 X5.5349 Y3.9939
G01 X5.5314 Y3.9985
G01 X5.5264 Y4.0031
G01 X5.5216 Y4.0064
G01 X5.5154 Y4.0092
G01 X5.5089 Y4.0109
G01 X5.5031 Y4.0115
G01 X3.9781 Y4.0115
G01 X3.9723 Y4.0111
G01 X3.9666 Y4.0098
G01 X3.9612 Y4.0077
G01 X3.9562 Y4.0048
G01 X3.9516 Y4.0013
G01 X3.9470 Y3.9963
G01 X3.9437 Y3.9915
G01 X3.9412 Y3.9862
G01 X3.9396 Y3.9807
G01 X3.9386 Y3.9739
G01 X3.9386 Y3.5510
G01 X3.9396 Y3.5433
G01 X3.9416 Y3.5369
G01 X3.9453 Y3.5301
G01 X3.9502 Y3.5241
G01 X3.9562 Y3.5192
G01 X3.9630 Y3.5155
G01 X3.9704 Y3.5133
G01 X3.9781 Y3.5125
G00 Z2.0000
G00 X3.3037 Y4.4896
G01 F60.00
G01 Z-0.0300
G01 F60.00
G01 X3.2462 Y4.4896
G01 X3.2246 Y4.4884
G01 X3.2004 Y4.4848
G01 X3.1785 Y4.4793
G01 X3.1564 Y4.4714
G01 X3.1352 Y4.4613
G01 X3.1150 Y4.4492
G01 X3.0961 Y4.4352
G01 X3.0787 Y4.4194
G01 X3.0629 Y4.4020
G01 X3.0489 Y4.3831
G01 X3.0368 Y4.3629
G01 X3.0267 Y4.3417
G01 X3.0188 Y4.3196
G01 X3.0133 Y4.2977
G01 X3.0097 Y4.2735
G01 X3.0085 Y4.2500
G01 X3.0097 Y4.2265
G01 X3.0131 Y4.2033
G01 X3.0188 Y4.1804
G01 X3.0267 Y4.1583
G01 X3.0368 Y4.1371
G01 X3.0489 Y4.1169
G01 X3.0629 Y4.0980
G01 X3.0787 Y4.0806
G01 X3.0961 Y4.0648
G01 X3.1150 Y4.0508
G01 X3.1352 Y4.0387
G01 X3.1564 Y4.0286
G01 X3.1785 Y4.0207
G01 X3.2004 Y4.0152
G01 X3.2246 Y4.0116
G01 X3.2471 Y4.0104
G01 X3.3661 Y4.0104
G01 X3.3896 Y4.0116
G01 X3.4119 Y4.0148
G01 X3.4347 Y4.0204
G01 X3.4405 Y4.0224
G01 X3.9519 Y4.0224
G01 X3.9578 Y4.0181
G01 X3.9639 Y4.0151
G01 X3.9704 Y4.0133
G01 X3.9781 Y4.0125
G01 X5.5031 Y4.0125
G01 X5.5098 Y4.0133
G01 X5.5163 Y4.0151
G01 X5.5224 Y4.0181
G01 X5.5279 Y4.0221
G01 X5.5326 Y4.0269
G01 X5.5365 Y4.0325
G01 X5.5393 Y4.0387
G01 X5.5408 Y4.0443
G01 X5.5416 Y4.0520
G01 X5.5415 Y4.4749
G01 X5.5406 Y4.4807
G01 X5.5386 Y4.4871
G01 X5.5355 Y4.4931
G01 X5.5314 Y4.4985
G01 X5.5272 Y4.5025
G01 X5.5216 Y4.5064
G01 X5.5154 Y4.5092
G01 X5.5098 Y4.5107
G01 X5.5021 Y4.5115
G01 X3.9781 Y4.5115
G01 X3.9713 Y4.5109
G01 X3.9639 Y4.5089
G01 X3.9578 Y4.5059
G01 X3.9519 Y4.5016
G01 X3.3771 Y4.5016
G01 X3.3546 Y4.5004
G01 X3.3323 Y4.4972
G01 X3.3095 Y4.4916
G01 X3.3037 Y4.4896
G00 Z2.0000
G00 X3.9781 Y5.0125
G01 F60.00
G01 Z-0.0300
G01 F60.00
G01 X5.5021 Y5.0125
G01 X5.5079 Y5.0129
G01 X5.5136 Y5.0142
G01 X5.5190 Y5.0163
G01 X5.5240 Y5.0192
G01 X5.5286 Y5.0227
G01 X5.5332 Y5.0277
G01 X5.5365 Y5.0325
G01 X5.5393 Y5.0387
G01 X5.5408 Y5.0443
G01 X5.5416 Y5.0501
G01 X5.5416 Y5.4720
G01 X5.5412 Y5.4778
G01 X5.5399 Y5.4835
G01 X5.5378 Y5.4889
G01 X5.5349 Y5.4939
G01 X5.5314 Y5.4985
G01 X5.5264 Y5.5031
G01 X5.5216 Y5.5064
G01 X5.5154 Y5.5092
G01 X5.5089 Y5.5109
G01 X5.5031 Y5.5115
G01 X3.9781 Y5.5115
G01 X3.9723 Y5.5111
G01 X3.9666 Y5.5098
G01 X3.9612 Y5.5077
G01 X3.9562 Y5.5048
G01 X3.9516 Y5.5013
G01 X3.9470 Y5.4963
G01 X3.9437 Y5.4915
G01 X3.9412 Y5.4862
G01 X3.9396 Y5.4807
G01 X3.9386 Y5.4739
G01 X3.9386 Y5.0510
G01 X3.9396 Y5.0433
G01 X3.9416 Y5.0369
G01 X3.9453 Y5.0301
G01 X3.9502 Y5.0241
G01 X3.9562 Y5.0192
G01 X3.9630 Y5.0155
G01 X3.9704 Y5.0133
G01 X3.9781 Y5.0125
G00 Z2.0000
G00 X3.9519 Y6.0224
G01 F60.00
G01 Z-0.0300
G01 F60.00
G01 X3.9578 Y6.0181
G01 X3.9639 Y6.0151
G01 X3.9704 Y6.0133
G01 X3.9781 Y6.0125
G01 X5.5021 Y6.0125
G01 X5.5079 Y6.0129
G01 X5.5136 Y6.0142
G01 X5.5190 Y6.0163
G01 X5.5240 Y6.0192
G01 X5.5286 Y6.0227
G01 X5.5332 Y6.0277
G01 X5.5365 Y6.0325
G01 X5.5393 Y6.0387
G01 X5.5408 Y6.0443
G01 X5.5416 Y6.0501
G01 X5.5416 Y6.4720
G01 X5.5412 Y6.4778
G01 X5.5399 Y6.4835
G01 X5.5378 Y6.4889
G01 X5.5344 Y6.4947
G01 X5.5300 Y6.4999
G01 X5.5256 Y6.5037
G01 X5.5207 Y6.5068
G01 X5.5145 Y6.5095
G01 X5.5089 Y6.5109
G01 X5.5021 Y6.5115
G01 X3.9781 Y6.5115
G01 X3.9713 Y6.5109
G01 X3.9639 Y6.5089
G01 X3.9578 Y6.5059
G01 X3.9519 Y6.5016
G01 X3.0141 Y6.5016
G01 X2.9925 Y6.5006
G01 X2.9655 Y6.4966
G01 X2.9445 Y6.4913
G01 X2.9224 Y6.4834
G01 X2.9012 Y6.4733
G01 X2.8826 Y6.4623
G01 X2.8621 Y6.4472
G01 X2.8433 Y6.4300
G01 X2.8289 Y6.4140
G01 X2.8149 Y6.3951
G01 X2.8028 Y6.3749
G01 X2.7935 Y6.3555
G01 X2.7845 Y6.3306
G01 X2.7791 Y6.3087
G01 X2.7757 Y6.2855
G01 X2.7745 Y6.2620
G01 X2.7757 Y6.2385
G01 X2.7791 Y6.2153
G01 X2.7848 Y6.1924
G01 X2.7927 Y6.1703
G01 X2.8028 Y6.1491
G01 X2.8149 Y6.1289
G01 X2.8289 Y6.1100
G01 X2.8447 Y6.0926
G01 X2.8621 Y6.0768
G01 X2.8810 Y6.0628
G01 X2.9012 Y6.0507
G01 X2.9224 Y6.0406
G01 X2.9455 Y6.0324
G01 X2.9674 Y6.0270
G01 X2.9887 Y6.0238
G01 X3.0141 Y6.0224
G01 X3.9519 Y6.0224
G00 Z2.0000
G00 X2.3203 Y5.8976
G01 F60.00
G01 Z-0.0300
G01 F60.00
G01 X0.3695 Y7.8484
G01 X0.3521 Y7.8642
G01 X0.3332 Y7.8782
G01 X0.3130 Y7.8903
G01 X0.2918 Y7.9004
G01 X0.2697 Y7.9083
G01 X0.2468 Y7.9140
G01 X0.2236 Y7.9174
G01 X0.2001 Y7.9186
G01 X0.1766 Y7.9174
G01 X0.1534 Y7.9140
G01 X0.1305 Y7.9083
G01 X0.1084 Y7.9004
G01 X0.0872 Y7.8903
G01 X0.0670 Y7.8782
G01 X0.0481 Y7.8642
G01 X0.0307 Y7.8484
G01 X0.0149 Y7.8310
G01 X0.0009 Y7.8121
G01 X-0.0103 Y7.7936
G01 X-0.0220 Y7.7689
G01 X-0.0292 Y7.7486
G01 X-0.0349 Y7.7257
G01 X-0.0383 Y7.7025
G01 X-0.0395 Y7.6790
G01 X-0.0383 Y7.6555
G01 X-0.0349 Y7.6323
G01 X-0.0292 Y7.6094
G01 X-0.0220 Y7.5891
G01 X-0.0103 Y7.5644
G01 X0.0009 Y7.5459
G01 X0.0155 Y7.5263
G01 X0.0307 Y7.5096
G01 X2.0517 Y5.4886
G01 X2.0691 Y5.4728
G01 X2.0880 Y5.4588
G01 X2.1082 Y5.4467
G01 X2.1294 Y5.4366
G01 X2.1515 Y5.4287
G01 X2.1744 Y5.4230
G01 X2.1976 Y5.4196
G01 X2.2201 Y5.4184
G01 X3.2751 Y5.4184
G01 X3.2976 Y5.4196
G01 X3.3227 Y5.4234
G01 X3.3437 Y5.4287
G01 X3.3640 Y5.4359
G01 X3.3862 Y5.4462
G01 X3.4072 Y5.4588
G01 X3.4261 Y5.4728
G01 X3.4428 Y5.4879
G01 X3.4773 Y5.5224
G01 X3.9519 Y5.5224
G01 X3.9578 Y5.5181
G01 X3.9639 Y5.5151
G01 X3.9704 Y5.5133
G01 X3.9781 Y5.5125
G01 X5.5031 Y5.5125
G01 X5.5098 Y5.5133
G01 X5.5163 Y5.5151
G01 X5.5224 Y5.5181
G01 X5.5286 Y5.5227
G01 X5.5338 Y5.5285
G01 X5.5374 Y5.5342
G01 X5.5399 Y5.5405
G01 X5.5414 Y5.5481
G01 X5.5415 Y5.9749
G01 X5.5404 Y5.9816
G01 X5.5382 Y5.9880
G01 X5.5349 Y5.9939
G01 X5.5300 Y5.9999
G01 X5.5248 Y6.0043
G01 X5.5190 Y6.0077
G01 X5.5126 Y6.0101
G01 X5.5060 Y6.0113
G01 X3.9781 Y6.0115
G01 X3.9713 Y6.0109
G01 X3.9639 Y6.0089
G01 X3.9578 Y6.0059
G01 X3.9519 Y6.0016
G01 X3.3771 Y6.0016
G01 X3.3546 Y6.0004
G01 X3.3295 Y5.9966
G01 X3.3085 Y5.9913
G01 X3.2882 Y5.9841
G01 X3.2660 Y5.9738
G01 X3.2450 Y5.9612
G01 X3.2261 Y5.9472
G01 X3.2094 Y5.9321
G01 X3.1749 Y5.8976
G01 X2.3203 Y5.8976
G00 Z2.0000
G00 X2.2656 Y6.8976
G01 F60.00
G01 Z-0.0300
G01 F60.00
G01 X0.8421 Y8.3210
G01 X0.8284 Y8.3335
G01 X0.8134 Y8.3446
G01 X0.7975 Y8.3542
G01 X0.7806 Y8.3621
G01 X0.7631 Y8.3684
G01 X0.7451 Y8.3729
G01 X0.7267 Y8.3757
G01 X0.7081 Y8.3766
G01 X0.6895 Y8.3757
G01 X0.6711 Y8.3729
G01 X0.6531 Y8.3684
G01 X0.6356 Y8.3621
G01 X0.6187 Y8.3542
G01 X0.6028 Y8.3446
G01 X0.5878 Y8.3335
G01 X0.5741 Y8.3210
G01 X0.5616 Y8.3073
G01 X0.5505 Y8.2923
G01 X0.5419 Y8.2781
G01 X0.5323 Y8.2577
G01 X0.5267 Y8.2420
G01 X0.5222 Y8.2240
G01 X0.5194 Y8.2056
G01 X0.5185 Y8.1870
G01 X0.5194 Y8.1684
G01 X0.5222 Y8.1500
G01 X0.5267 Y8.1320
G01 X0.5323 Y8.1163
G01 X0.5419 Y8.0959
G01 X0.5505 Y8.0817
G01 X0.5622 Y8.0660
G01 X0.5741 Y8.0530
G01 X2.0531 Y6.5740
G01 X2.0668 Y6.5615
G01 X2.0834 Y6.5493
G01 X2.0995 Y6.5399
G01 X2.1146 Y6.5329
G01 X2.1302 Y6.5272
G01 X2.1520 Y6.5217
G01 X2.1685 Y6.5193
G01 X2.1871 Y6.5184
G01 X3.9573 Y6.5184
G01 X3.9621 Y6.5159
G01 X3.9676 Y6.5139
G01 X3.9733 Y6.5128
G01 X3.9781 Y6.5125
G01 X5.5021 Y6.5125
G01 X5.5098 Y6.5133
G01 X5.5163 Y6.5151
G01 X5.5224 Y6.5181
G01 X5.5286 Y6.5227
G01 X5.5338 Y6.5285
G01 X5.5374 Y6.5342
G01 X5.5399 Y6.5405
G01 X5.5414 Y6.5481
G01 X5.5415 Y6.9749
G01 X5.5404 Y6.9816
G01 X5.5382 Y6.9880
G01 X5.5349 Y6.9939
G01 X5.5300 Y6.9999
G01 X5.5248 Y7.0043
G01 X5.5190 Y7.0077
G01 X5.5126 Y7.0101
G01 X5.5060 Y7.0113
G01 X3.9752 Y7.0114
G01 X3.9694 Y7.0105
G01 X3.9639 Y7.0089
G01 X3.9586 Y7.0064
G01 X3.9538 Y7.0031
G01 X3.9495 Y6.9992
G01 X3.9458 Y6.9947
G01 X3.9428 Y6.9898
G01 X3.9406 Y6.9844
G01 X3.9392 Y6.9788
G01 X3.9386 Y6.9730
G01 X3.9386 Y6.8976
G01 X2.2656 Y6.8976
G00 Z2.0000
G00 X2.7074 Y7.3999
G01 F60.00
G01 Z-0.0300
G01 F60.00
G01 X2.7034 Y7.3943
G01 X2.6923 Y7.3758
G01 X2.6814 Y7.3528
G01 X2.6738 Y7.3316
G01 X2.6685 Y7.3106
G01 X2.6647 Y7.2855
G01 X2.6635 Y7.2601
G01 X2.6647 Y7.2385
G01 X2.6678 Y7.2172
G01 X2.6738 Y7.1924
G01 X2.6821 Y7.1694
G01 X2.6927 Y7.1474
G01 X2.7039 Y7.1289
G01 X2.7167 Y7.1115
G01 X2.7337 Y7.0926
G01 X2.7526 Y7.0756
G01 X2.7700 Y7.0628
G01 X2.7885 Y7.0516
G01 X2.8114 Y7.0406
G01 X2.8354 Y7.0322
G01 X2.8564 Y7.0270
G01 X2.8787 Y7.0237
G01 X2.9031 Y7.0224
G01 X3.9519 Y7.0224
G01 X3.9578 Y7.0181
G01 X3.9639 Y7.0151
G01 X3.9704 Y7.0133
G01 X3.9781 Y7.0125
G01 X5.5021 Y7.0125
G01 X5.5098 Y7.0133
G01 X5.5163 Y7.0151
G01 X5.5224 Y7.0181
G01 X5.5286 Y7.0227
G01 X5.5332 Y7.0277
G01 X5.5369 Y7.0334
G01 X5.5396 Y7.0396
G01 X5.5413 Y7.0472
G01 X5.5416 Y7.0520
G01 X5.5415 Y7.4749
G01 X5.5404 Y7.4816
G01 X5.5382 Y7.4880
G01 X5.5349 Y7.4939
G01 X5.5307 Y7.4992
G01 X5.5256 Y7.5037
G01 X5.5199 Y7.5073
G01 X5.5136 Y7.5098
G01 X5.5069 Y7.5112
G01 X5.5021 Y7.5115
G01 X3.9781 Y7.5115
G01 X3.9713 Y7.5109
G01 X3.9639 Y7.5089
G01 X3.9578 Y7.5059
G01 X3.9519 Y7.5016
G01 X2.9012 Y7.5016
G01 X2.8777 Y7.5002
G01 X2.8564 Y7.4970
G01 X2.8354 Y7.4918
G01 X2.8114 Y7.4834
G01 X2.7902 Y7.4733
G01 X2.7700 Y7.4612
G01 X2.7602 Y7.4545
G01 X2.7454 Y7.4433
G01 X2.7331 Y7.4320
G01 X2.7212 Y7.4190
G01 X2.7106 Y7.4049
G01 X2.7074 Y7.3999
G00 Z2.0000
G00 X2.3253 Y8.0516
G01 F60.00
G01 Z-0.0300
G01 F60.00
G01 X1.3855 Y8.9914
G01 X1.3681 Y9.0072
G01 X1.3500 Y9.0207
G01 X1.3290 Y9.0333
G01 X1.3078 Y9.0434
G01 X1.2857 Y9.0513
G01 X1.2628 Y9.0570
G01 X1.2396 Y9.0604
G01 X1.2161 Y9.0616
G01 X1.1926 Y9.0604
G01 X1.1694 Y9.0570
G01 X1.1465 Y9.0513
G01 X1.1244 Y9.0434
G01 X1.1032 Y9.0333
G01 X1.0830 Y9.0212
G01 X1.0641 Y9.0072
G01 X1.0467 Y8.9914
G01 X1.0309 Y8.9740
G01 X1.0174 Y8.9559
G01 X1.0039 Y8.9332
G01 X0.9947 Y8.9137
G01 X0.9868 Y8.8916
G01 X0.9811 Y8.8687
G01 X0.9779 Y8.8474
G01 X0.9765 Y8.8201
G01 X0.9777 Y8.7985
G01 X0.9811 Y8.7753
G01 X0.9868 Y8.7524
G01 X0.9940 Y8.7321
G01 X1.0057 Y8.7074
G01 X1.0169 Y8.6889
G01 X1.0309 Y8.6700
G01 X1.0467 Y8.6526
G01 X2.0574 Y7.6419
G01 X2.0756 Y7.6256
G01 X2.0930 Y7.6128
G01 X2.1115 Y7.6016
G01 X2.1344 Y7.5906
G01 X2.1565 Y7.5827
G01 X2.1813 Y7.5767
G01 X2.2026 Y7.5736
G01 X2.2261 Y7.5724
G01 X3.9519 Y7.5724
G01 X3.9578 Y7.5681
G01 X3.9639 Y7.5651
G01 X3.9704 Y7.5633
G01 X3.9781 Y7.5625
G01 X5.5021 Y7.5625
G01 X5.5098 Y7.5633
G01 X5.5163 Y7.5651
G01 X5.5224 Y7.5681
G01 X5.5279 Y7.5721
G01 X5.5326 Y7.5769
G01 X5.5365 Y7.5825
G01 X5.5396 Y7.5896
G01 X5.5412 Y7.5962
G01 X5.5416 Y7.6020
G01 X5.5415 Y8.0249
G01 X5.5404 Y8.0316
G01 X5.5382 Y8.0380
G01 X5.5349 Y8.0439
G01 X5.5307 Y8.0492
G01 X5.5256 Y8.0537
G01 X5.5207 Y8.0568
G01 X5.5145 Y8.0595
G01 X5.5079 Y8.0611
G01 X5.5021 Y8.0615
G01 X3.9781 Y8.0615
G01 X3.9704 Y8.0607
G01 X3.9639 Y8.0589
G01 X3.9578 Y8.0559
G01 X3.9519 Y8.0516
G01 X2.3253 Y8.0516
G00 Z2.0000
G00 X1.0573 Y5.0016
G01 F60.00
G01 Z-0.0300
G01 F60.00
G01 X1.0045 Y5.0544
G01 X0.9878 Y5.0696
G01 X0.9682 Y5.0842
G01 X0.9472 Y5.0968
G01 X0.9268 Y5.1064
G01 X0.9065 Y5.1137
G01 X0.8818 Y5.1200
G01 X0.8567 Y5.1236
G01 X0.8351 Y5.1246
G01 X0.8135 Y5.1236
G01 X0.7865 Y5.1196
G01 X0.7655 Y5.1143
G01 X0.7452 Y5.1071
G01 X0.7222 Y5.0963
G01 X0.7004 Y5.0831
G01 X0.6831 Y5.0702
G01 X0.6671 Y5.0558
G01 X0.6499 Y5.0370
G01 X0.6348 Y5.0165
G01 X0.6238 Y4.9979
G01 X0.6137 Y4.9767
G01 X0.6058 Y4.9546
G01 X0.5998 Y4.9298
G01 X0.5965 Y4.9066
G01 X0.5955 Y4.8850
G01 X0.5965 Y4.8634
G01 X0.6001 Y4.8383
G01 X0.6058 Y4.8154
G01 X0.6137 Y4.7933
G01 X0.6243 Y4.7712
G01 X0.6370 Y4.7503
G01 X0.6499 Y4.7330
G01 X0.6643 Y4.7170
G01 X0.7894 Y4.5919
G01 X0.8061 Y4.5768
G01 X0.8250 Y4.5628
G01 X0.8452 Y4.5507
G01 X0.8664 Y4.5406
G01 X0.8885 Y4.5327
G01 X0.9114 Y4.5270
G01 X0.9346 Y4.5236
G01 X0.9581 Y4.5224
G01 X3.9519 Y4.5224
G01 X3.9578 Y4.5181
G01 X3.9639 Y4.5151
G01 X3.9704 Y4.5133
G01 X3.9781 Y4.5125
G01 X5.5021 Y4.5125
G01 X5.5098 Y4.5133
G01 X5.5163 Y4.5151
G01 X5.5224 Y4.5181
G01 X5.5286 Y4.5227
G01 X5.5338 Y4.5285
G01 X5.5374 Y4.5342
G01 X5.5399 Y4.5405
G01 X5.5414 Y4.5481
G01 X5.5415 Y4.9749
G01 X5.5404 Y4.9816
G01 X5.5382 Y4.9880
G01 X5.5349 Y4.9939
G01 X5.5300 Y4.9999
G01 X5.5248 Y5.0043
G01 X5.5190 Y5.0077
G01 X5.5126 Y5.0101
G01 X5.5060 Y5.0113
G01 X3.9781 Y5.0115
G01 X3.9713 Y5.0109
G01 X3.9639 Y5.0089
G01 X3.9578 Y5.0059
G01 X3.9519 Y5.0016
G01 X1.0573 Y5.0016
G00 Z2.0000
G00 X6.1401 Y8.4605
G01 F60.00
G01 Z-0.0300
G01 F60.00
G01 X6.5430 Y8.4606
G01 X6.5488 Y8.4615
G01 X6.5552 Y8.4635
G01 X6.5604 Y8.4661
G01 X6.5659 Y8.4701
G01 X6.5700 Y8.4742
G01 X6.5740 Y8.4797
G01 X6.5766 Y8.4849
G01 X6.5784 Y8.4904
G01 X6.5793 Y8.4952
G01 X6.5796 Y8.5000
G01 X6.5796 Y10.0250
G01 X6.5788 Y10.0317
G01 X6.5773 Y10.0373
G01 X6.5749 Y10.0426
G01 X6.5712 Y10.0483
G01 X6.5666 Y10.0533
G01 X6.5620 Y10.0568
G01 X6.5561 Y10.0601
G01 X6.5497 Y10.0623
G01 X6.5449 Y10.0632
G01 X6.5401 Y10.0635
G01 X6.1372 Y10.0634
G01 X6.1314 Y10.0625
G01 X6.1250 Y10.0605
G01 X6.1198 Y10.0579
G01 X6.1143 Y10.0539
G01 X6.1096 Y10.0491
G01 X6.1062 Y10.0443
G01 X6.1036 Y10.0391
G01 X6.1018 Y10.0336
G01 X6.1009 Y10.0288
G01 X6.1006 Y10.0240
G01 X6.1006 Y8.4990
G01 X6.1016 Y8.4913
G01 X6.1040 Y8.4840
G01 X6.1078 Y8.4773
G01 X6.1129 Y8.4714
G01 X6.1182 Y8.4672
G01 X6.1250 Y8.4635
G01 X6.1324 Y8.4613
G01 X6.1401 Y8.4605
G00 Z2.0000
G00 X6.6401 Y8.4605
G01 F60.00
G01 Z-0.0300
G01 F60.00
G01 X7.0430 Y8.4606
G01 X7.0488 Y8.4615
G01 X7.0552 Y8.4635
G01 X7.0604 Y8.4661
G01 X7.0659 Y8.4701
G01 X7.0700 Y8.4742
G01 X7.0740 Y8.4797
G01 X7.0766 Y8.4849
G01 X7.0784 Y8.4904
G01 X7.0793 Y8.4952
G01 X7.0796 Y8.5000
G01 X7.0796 Y10.0250
G01 X7.0788 Y10.0317
G01 X7.0773 Y10.0373
G01 X7.0749 Y10.0426
G01 X7.0712 Y10.0483
G01 X7.0666 Y10.0533
G01 X7.0620 Y10.0568
G01 X7.0561 Y10.0601
G01 X7.0497 Y10.0623
G01 X7.0449 Y10.0632
G01 X7.0401 Y10.0635
G01 X6.6372 Y10.0634
G01 X6.6314 Y10.0625
G01 X6.6250 Y10.0605
G01 X6.6198 Y10.0579
G01 X6.6143 Y10.0539
G01 X6.6096 Y10.0491
G01 X6.6062 Y10.0443
G01 X6.6036 Y10.0391
G01 X6.6018 Y10.0336
G01 X6.6009 Y10.0288
G01 X6.6006 Y10.0240
G01 X6.6006 Y8.4990
G01 X6.6016 Y8.4913
G01 X6.6040 Y8.4840
G01 X6.6078 Y8.4773
G01 X6.6129 Y8.4714
G01 X6.6182 Y8.4672
G01 X6.6250 Y8.4635
G01 X6.6324 Y8.4613
G01 X6.6401 Y8.4605
G00 Z2.0000
G00 X7.1401 Y8.4605
G01 F60.00
G01 Z-0.0300
G01 F60.00
G01 X7.5430 Y8.4606
G01 X7.5488 Y8.4615
G01 X7.5552 Y8.4635
G01 X7.5604 Y8.4661
G01 X7.5659 Y8.4701
G01 X7.5700 Y8.4742
G01 X7.5740 Y8.4797
G01 X7.5766 Y8.4849
G01 X7.5784 Y8.4904
G01 X7.5793 Y8.4952
G01 X7.5796 Y8.5000
G01 X7.5796 Y10.0250
G01 X7.5788 Y10.0317
G01 X7.5773 Y10.0373
G01 X7.5749 Y10.0426
G01 X7.5712 Y10.0483
G01 X7.5666 Y10.0533
G01 X7.5620 Y10.0568
G01 X7.5561 Y10.0601
G01 X7.5497 Y10.0623
G01 X7.5449 Y10.0632
G01 X7.5401 Y10.0635
G01 X7.1372 Y10.0634
G01 X7.1314 Y10.0625
G01 X7.1250 Y10.0605
G01 X7.1198 Y10.0579
G01 X7.1143 Y10.0539
G01 X7.1096 Y10.0491
G01 X7.1062 Y10.0443
G01 X7.1036 Y10.0391
G01 X7.1018 Y10.0336
G01 X7.1009 Y10.0288
G01 X7.1006 Y10.0240
G01 X7.1006 Y8.4990
G01 X7.1016 Y8.4913
G01 X7.1040 Y8.4840
G01 X7.1078 Y8.4773
G01 X7.1129 Y8.4714
G01 X7.1182 Y8.4672
G01 X7.1250 Y8.4635
G01 X7.1324 Y8.4613
G01 X7.1401 Y8.4605
G00 Z2.0000
G00 X7.6401 Y8.4605
G01 F60.00
G01 Z-0.0300
G01 F60.00
G01 X8.0430 Y8.4606
G01 X8.0488 Y8.4615
G01 X8.0552 Y8.4635
G01 X8.0604 Y8.4661
G01 X8.0659 Y8.4701
G01 X8.0700 Y8.4742
G01 X8.0735 Y8.4789
G01 X8.0762 Y8.4840
G01 X8.0784 Y8.4904
G01 X8.0793 Y8.4952
G01 X8.0796 Y8.5000
G01 X8.0796 Y10.0250
G01 X8.0788 Y10.0317
G01 X8.0770 Y10.0382
G01 X8.0740 Y10.0443
G01 X8.0706 Y10.0491
G01 X8.0666 Y10.0533
G01 X8.0612 Y10.0574
G01 X8.0561 Y10.0601
G01 X8.0497 Y10.0623
G01 X8.0449 Y10.0632
G01 X8.0401 Y10.0635
G01 X7.6372 Y10.0634
G01 X7.6314 Y10.0625
G01 X7.6250 Y10.0605
G01 X7.6198 Y10.0579
G01 X7.6143 Y10.0539
G01 X7.6096 Y10.0491
G01 X7.6062 Y10.0443
G01 X7.6036 Y10.0391
G01 X7.6018 Y10.0336
G01 X7.6009 Y10.0288
G01 X7.6006 Y10.0240
G01 X7.6006 Y8.4990
G01 X7.6016 Y8.4913
G01 X7.6040 Y8.4840
G01 X7.6078 Y8.4773
G01 X7.6129 Y8.4714
G01 X7.6182 Y8.4672
G01 X7.6250 Y8.4635
G01 X7.6324 Y8.4613
G01 X7.6401 Y8.4605
G00 Z2.0000
G00 X8.1401 Y8.4605
G01 F60.00
G01 Z-0.0300
G01 F60.00
G01 X8.5430 Y8.4606
G01 X8.5488 Y8.4615
G01 X8.5552 Y8.4635
G01 X8.5604 Y8.4661
G01 X8.5659 Y8.4701
G01 X8.5700 Y8.4742
G01 X8.5735 Y8.4789
G01 X8.5762 Y8.4840
G01 X8.5784 Y8.4904
G01 X8.5793 Y8.4952
G01 X8.5796 Y8.5000
G01 X8.5796 Y10.0250
G01 X8.5788 Y10.0317
G01 X8.5770 Y10.0382
G01 X8.5740 Y10.0443
G01 X8.5706 Y10.0491
G01 X8.5666 Y10.0533
G01 X8.5612 Y10.0574
G01 X8.5561 Y10.0601
G01 X8.5497 Y10.0623
G01 X8.5449 Y10.0632
G01 X8.5401 Y10.0635
G01 X8.1372 Y10.0634
G01 X8.1314 Y10.0625
G01 X8.1250 Y10.0605
G01 X8.1198 Y10.0579
G01 X8.1150 Y10.0545
G01 X8.1108 Y10.0505
G01 X8.1067 Y10.0451
G01 X8.1036 Y10.0391
G01 X8.1018 Y10.0336
G01 X8.1009 Y10.0288
G01 X8.1006 Y10.0240
G01 X8.1006 Y8.4990
G01 X8.1016 Y8.4913
G01 X8.1040 Y8.4840
G01 X8.1078 Y8.4773
G01 X8.1129 Y8.4714
G01 X8.1190 Y8.4666
G01 X8.1250 Y8.4635
G01 X8.1324 Y8.4613
G01 X8.1401 Y8.4605
G00 Z2.0000
G00 X8.6401 Y8.4605
G01 F60.00
G01 Z-0.0300
G01 F60.00
G01 X9.0430 Y8.4606
G01 X9.0488 Y8.4615
G01 X9.0552 Y8.4635
G01 X9.0604 Y8.4661
G01 X9.0659 Y8.4701
G01 X9.0700 Y8.4742
G01 X9.0735 Y8.4789
G01 X9.0762 Y8.4840
G01 X9.0784 Y8.4904
G01 X9.0793 Y8.4952
G01 X9.0796 Y8.5000
G01 X9.0796 Y10.0250
G01 X9.0788 Y10.0317
G01 X9.0770 Y10.0382
G01 X9.0740 Y10.0443
G01 X9.0706 Y10.0491
G01 X9.0666 Y10.0533
G01 X9.0612 Y10.0574
G01 X9.0561 Y10.0601
G01 X9.0497 Y10.0623
G01 X9.0449 Y10.0632
G01 X9.0401 Y10.0635
G01 X8.6372 Y10.0634
G01 X8.6314 Y10.0625
G01 X8.6250 Y10.0605
G01 X8.6198 Y10.0579
G01 X8.6150 Y10.0545
G01 X8.6108 Y10.0505
G01 X8.6067 Y10.0451
G01 X8.6036 Y10.0391
G01 X8.6018 Y10.0336
G01 X8.6009 Y10.0288
G01 X8.6006 Y10.0240
G01 X8.6006 Y8.4990
G01 X8.6016 Y8.4913
G01 X8.6040 Y8.4840
G01 X8.6078 Y8.4773
G01 X8.6129 Y8.4714
G01 X8.6190 Y8.4666
G01 X8.6250 Y8.4635
G01 X8.6324 Y8.4613
G01 X8.6401 Y8.4605
G00 Z2.0000
G00 X9.1401 Y8.4605
G01 F60.00
G01 Z-0.0300
G01 F60.00
G01 X9.5430 Y8.4606
G01 X9.5488 Y8.4615
G01 X9.5552 Y8.4635
G01 X9.5604 Y8.4661
G01 X9.5659 Y8.4701
G01 X9.5700 Y8.4742
G01 X9.5735 Y8.4789
G01 X9.5762 Y8.4840
G01 X9.5784 Y8.4904
G01 X9.5793 Y8.4952
G01 X9.5796 Y8.5000
G01 X9.5796 Y10.0250
G01 X9.5788 Y10.0317
G01 X9.5770 Y10.0382
G01 X9.5740 Y10.0443
G01 X9.5706 Y10.0491
G01 X9.5666 Y10.0533
G01 X9.5612 Y10.0574
G01 X9.5561 Y10.0601
G01 X9.5497 Y10.0623
G01 X9.5449 Y10.0632
G01 X9.5401 Y10.0635
G01 X9.1372 Y10.0634
G01 X9.1314 Y10.0625
G01 X9.1250 Y10.0605
G01 X9.1198 Y10.0579
G01 X9.1150 Y10.0545
G01 X9.1108 Y10.0505
G01 X9.1067 Y10.0451
G01 X9.1036 Y10.0391
G01 X9.1018 Y10.0336
G01 X9.1009 Y10.0288
G01 X9.1006 Y10.0240
G01 X9.1006 Y8.4990
G01 X9.1016 Y8.4913
G01 X9.1040 Y8.4840
G01 X9.1078 Y8.4773
G01 X9.1129 Y8.4714
G01 X9.1190 Y8.4666
G01 X9.1250 Y8.4635
G01 X9.1324 Y8.4613
G01 X9.1401 Y8.4605
G00 Z2.0000
G00 X9.6401 Y8.4605
G01 F60.00
G01 Z-0.0300
G01 F60.00
G01 X10.0430 Y8.4606
G01 X10.0488 Y8.4615
G01 X10.0552 Y8.4635
G01 X10.0604 Y8.4661
G01 X10.0659 Y8.4701
G01 X10.0700 Y8.4742
G01 X10.0735 Y8.4789
G01 X10.0762 Y8.4840
G01 X10.0784 Y8.4904
G01 X10.0793 Y8.4952
G01 X10.0796 Y8.5000
G01 X10.0796 Y10.0250
G01 X10.0788 Y10.0317
G01 X10.0770 Y10.0382
G01 X10.0740 Y10.0443
G01 X10.0706 Y10.0491
G01 X10.0666 Y10.0533
G01 X10.0612 Y10.0574
G01 X10.0561 Y10.0601
G01 X10.0497 Y10.0623
G01 X10.0449 Y10.0632
G01 X10.0401 Y10.0635
G01 X9.6372 Y10.0634
G01 X9.6314 Y10.0625
G01 X9.6250 Y10.0605
G01 X9.6198 Y10.0579
G01 X9.6150 Y10.0545
G01 X9.6108 Y10.0505
G01 X9.6067 Y10.0451
G01 X9.6036 Y10.0391
G01 X9.6018 Y10.0336
G01 X9.6009 Y10.0288
G01 X9.6006 Y10.0240
G01 X9.6006 Y8.4990
G01 X9.6016 Y8.4913
G01 X9.6040 Y8.4840
G01 X9.6078 Y8.4773
G01 X9.6129 Y8.4714
G01 X9.6190 Y8.4666
G01 X9.6250 Y8.4635
G01 X9.6324 Y8.4613
G01 X9.6401 Y8.4605
G00 Z2.0000
G00 X10.1401 Y8.4605
G01 F60.00
G01 Z-0.0300
G01 F60.00
G01 X10.5430 Y8.4606
G01 X10.5488 Y8.4615
G01 X10.5552 Y8.4635
G01 X10.5604 Y8.4661
G01 X10.5659 Y8.4701
G01 X10.5700 Y8.4742
G01 X10.5735 Y8.4789
G01 X10.5762 Y8.4840
G01 X10.5784 Y8.4904
G01 X10.5793 Y8.4952
G01 X10.5796 Y8.5000
G01 X10.5796 Y10.0250
G01 X10.5788 Y10.0317
G01 X10.5770 Y10.0382
G01 X10.5740 Y10.0443
G01 X10.5706 Y10.0491
G01 X10.5666 Y10.0533
G01 X10.5612 Y10.0574
G01 X10.5561 Y10.0601
G01 X10.5497 Y10.0623
G01 X10.5449 Y10.0632
G01 X10.5401 Y10.0635
G01 X10.1372 Y10.0634
G01 X10.1314 Y10.0625
G01 X10.1250 Y10.0605
G01 X10.1198 Y10.0579
G01 X10.1150 Y10.0545
G01 X10.1108 Y10.0505
G01 X10.1067 Y10.0451
G01 X10.1036 Y10.0391
G01 X10.1018 Y10.0336
G01 X10.1009 Y10.0288
G01 X10.1006 Y10.0240
G01 X10.1006 Y8.4990
G01 X10.1016 Y8.4913
G01 X10.1040 Y8.4840
G01 X10.1078 Y8.4773
G01 X10.1129 Y8.4714
G01 X10.1190 Y8.4666
G01 X10.1250 Y8.4635
G01 X10.1324 Y8.4613
G01 X10.1401 Y8.4605
G00 Z2.0000
G00 X10.6401 Y8.4605
G01 F60.00
G01 Z-0.0300
G01 F60.00
G01 X11.0430 Y8.4606
G01 X11.0488 Y8.4615
G01 X11.0552 Y8.4635
G01 X11.0604 Y8.4661
G01 X11.0659 Y8.4701
G01 X11.0700 Y8.4742
G01 X11.0735 Y8.4789
G01 X11.0762 Y8.4840
G01 X11.0784 Y8.4904
G01 X11.0793 Y8.4952
G01 X11.0796 Y8.5000
G01 X11.0796 Y10.0250
G01 X11.0788 Y10.0317
G01 X11.0770 Y10.0382
G01 X11.0740 Y10.0443
G01 X11.0706 Y10.0491
G01 X11.0666 Y10.0533
G01 X11.0612 Y10.0574
G01 X11.0561 Y10.0601
G01 X11.0497 Y10.0623
G01 X11.0449 Y10.0632
G01 X11.0401 Y10.0635
G01 X10.6372 Y10.0634
G01 X10.6314 Y10.0625
G01 X10.6250 Y10.0605
G01 X10.6198 Y10.0579
G01 X10.6150 Y10.0545
G01 X10.6108 Y10.0505
G01 X10.6067 Y10.0451
G01 X10.6036 Y10.0391
G01 X10.6018 Y10.0336
G01 X10.6009 Y10.0288
G01 X10.6006 Y10.0240
G01 X10.6006 Y8.4990
G01 X10.6016 Y8.4913
G01 X10.6040 Y8.4840
G01 X10.6078 Y8.4773
G01 X10.6129 Y8.4714
G01 X10.6190 Y8.4666
G01 X10.6250 Y8.4635
G01 X10.6324 Y8.4613
G01 X10.6401 Y8.4605
G00 Z2.0000
G00 X11.1401 Y8.4605
G01 F60.00
G01 Z-0.0300
G01 F60.00
G01 X11.5430 Y8.4606
G01 X11.5488 Y8.4615
G01 X11.5552 Y8.4635
G01 X11.5604 Y8.4661
G01 X11.5659 Y8.4701
G01 X11.5700 Y8.4742
G01 X11.5735 Y8.4789
G01 X11.5762 Y8.4840
G01 X11.5784 Y8.4904
G01 X11.5793 Y8.4952
G01 X11.5796 Y8.5000
G01 X11.5796 Y10.0250
G01 X11.5788 Y10.0317
G01 X11.5770 Y10.0382
G01 X11.5740 Y10.0443
G01 X11.5706 Y10.0491
G01 X11.5666 Y10.0533
G01 X11.5612 Y10.0574
G01 X11.5561 Y10.0601
G01 X11.5497 Y10.0623
G01 X11.5449 Y10.0632
G01 X11.5401 Y10.0635
G01 X11.1372 Y10.0634
G01 X11.1314 Y10.0625
G01 X11.1250 Y10.0605
G01 X11.1198 Y10.0579
G01 X11.1150 Y10.0545
G01 X11.1108 Y10.0505
G01 X11.1067 Y10.0451
G01 X11.1036 Y10.0391
G01 X11.1018 Y10.0336
G01 X11.1009 Y10.0288
G01 X11.1006 Y10.0240
G01 X11.1006 Y8.4990
G01 X11.1016 Y8.4913
G01 X11.1040 Y8.4840
G01 X11.1078 Y8.4773
G01 X11.1129 Y8.4714
G01 X11.1190 Y8.4666
G01 X11.1250 Y8.4635
G01 X11.1324 Y8.4613
G01 X11.1401 Y8.4605
G00 Z2.0000
G00 X11.6401 Y8.4605
G01 F60.00
G01 Z-0.0300
G01 F60.00
G01 X12.0430 Y8.4606
G01 X12.0488 Y8.4615
G01 X12.0552 Y8.4635
G01 X12.0604 Y8.4661
G01 X12.0659 Y8.4701
G01 X12.0700 Y8.4742
G01 X12.0735 Y8.4789
G01 X12.0762 Y8.4840
G01 X12.0784 Y8.4904
G01 X12.0793 Y8.4952
G01 X12.0796 Y8.5000
G01 X12.0796 Y10.0250
G01 X12.0788 Y10.0317
G01 X12.0770 Y10.0382
G01 X12.0740 Y10.0443
G01 X12.0706 Y10.0491
G01 X12.0666 Y10.0533
G01 X12.0612 Y10.0574
G01 X12.0561 Y10.0601
G01 X12.0497 Y10.0623
G01 X12.0449 Y10.0632
G01 X12.0401 Y10.0635
G01 X11.6372 Y10.0634
G01 X11.6314 Y10.0625
G01 X11.6250 Y10.0605
G01 X11.6198 Y10.0579
G01 X11.6150 Y10.0545
G01 X11.6108 Y10.0505
G01 X11.6067 Y10.0451
G01 X11.6036 Y10.0391
G01 X11.6018 Y10.0336
G01 X11.6009 Y10.0288
G01 X11.6006 Y10.0240
G01 X11.6006 Y8.4990
G01 X11.6016 Y8.4913
G01 X11.6040 Y8.4840
G01 X11.6078 Y8.4773
G01 X11.6129 Y8.4714
G01 X11.6190 Y8.4666
G01 X11.6250 Y8.4635
G01 X11.6324 Y8.4613
G01 X11.6401 Y8.4605
G00 Z2.0000
G00 X12.5781 Y7.5225
G01 F60.00
G01 Z-0.0300
G01 F60.00
G01 X14.1021 Y7.5225
G01 X14.1069 Y7.5228
G01 X14.1126 Y7.5239
G01 X14.1181 Y7.5259
G01 X14.1240 Y7.5292
G01 X14.1286 Y7.5327
G01 X14.1332 Y7.5377
G01 X14.1369 Y7.5434
G01 X14.1393 Y7.5487
G01 X14.1408 Y7.5543
G01 X14.1416 Y7.5601
G01 X14.1416 Y7.9620
G01 X14.1412 Y7.9678
G01 X14.1402 Y7.9725
G01 X14.1382 Y7.9780
G01 X14.1349 Y7.9839
G01 X14.1307 Y7.9892
G01 X14.1264 Y7.9931
G01 X14.1207 Y7.9968
G01 X14.1154 Y7.9992
G01 X14.1089 Y8.0009
G01 X14.1031 Y8.0015
G01 X12.5781 Y8.0015
G01 X12.5733 Y8.0012
G01 X12.5676 Y8.0001
G01 X12.5621 Y7.9981
G01 X12.5570 Y7.9954
G01 X12.5516 Y7.9913
G01 X12.5476 Y7.9871
G01 X12.5442 Y7.9823
G01 X12.5416 Y7.9771
G01 X12.5396 Y7.9707
G01 X12.5387 Y7.9649
G01 X12.5386 Y7.5610
G01 X12.5396 Y7.5533
G01 X12.5420 Y7.5460
G01 X12.5458 Y7.5393
G01 X12.5509 Y7.5334
G01 X12.5570 Y7.5286
G01 X12.5630 Y7.5255
G01 X12.5704 Y7.5233
G01 X12.5781 Y7.5225
G00 Z2.0000
G00 X12.5781 Y7.0225
G01 F60.00
G01 Z-0.0300
G01 F60.00
G01 X14.1021 Y7.0225
G01 X14.1069 Y7.0228
G01 X14.1126 Y7.0239
G01 X14.1181 Y7.0259
G01 X14.1240 Y7.0292
G01 X14.1286 Y7.0327
G01 X14.1332 Y7.0377
G01 X14.1369 Y7.0434
G01 X14.1393 Y7.0487
G01 X14.1408 Y7.0543
G01 X14.1416 Y7.0601
G01 X14.1416 Y7.4620
G01 X14.1412 Y7.4678
G01 X14.1402 Y7.4725
G01 X14.1382 Y7.4780
G01 X14.1349 Y7.4839
G01 X14.1307 Y7.4892
G01 X14.1264 Y7.4931
G01 X14.1207 Y7.4968
G01 X14.1154 Y7.4992
G01 X14.1098 Y7.5007
G01 X14.1031 Y7.5015
G01 X12.5781 Y7.5015
G01 X12.5723 Y7.5011
G01 X12.5676 Y7.5001
G01 X12.5621 Y7.4981
G01 X12.5570 Y7.4954
G01 X12.5516 Y7.4913
G01 X12.5476 Y7.4871
G01 X12.5442 Y7.4823
G01 X12.5416 Y7.4771
G01 X12.5396 Y7.4707
G01 X12.5387 Y7.4649
G01 X12.5386 Y7.0610
G01 X12.5396 Y7.0533
G01 X12.5420 Y7.0460
G01 X12.5458 Y7.0393
G01 X12.5509 Y7.0334
G01 X12.5570 Y7.0286
G01 X12.5630 Y7.0255
G01 X12.5704 Y7.0233
G01 X12.5781 Y7.0225
G00 Z2.0000
G00 X12.5781 Y6.5225
G01 F60.00
G01 Z-0.0300
G01 F60.00
G01 X14.1021 Y6.5225
G01 X14.1069 Y6.5228
G01 X14.1126 Y6.5239
G01 X14.1181 Y6.5259
G01 X14.1240 Y6.5292
G01 X14.1286 Y6.5327
G01 X14.1332 Y6.5377
G01 X14.1369 Y6.5434
G01 X14.1393 Y6.5487
G01 X14.1408 Y6.5543
G01 X14.1416 Y6.5601
G01 X14.1416 Y6.9620
G01 X14.1412 Y6.9678
G01 X14.1402 Y6.9725
G01 X14.1382 Y6.9780
G01 X14.1349 Y6.9839
G01 X14.1307 Y6.9892
G01 X14.1264 Y6.9931
G01 X14.1207 Y6.9968
G01 X14.1154 Y6.9992
G01 X14.1098 Y7.0007
G01 X14.1031 Y7.0015
G01 X12.5781 Y7.0015
G01 X12.5723 Y7.0011
G01 X12.5676 Y7.0001
G01 X12.5621 Y6.9981
G01 X12.5570 Y6.9954
G01 X12.5516 Y6.9913
G01 X12.5476 Y6.9871
G01 X12.5442 Y6.9823
G01 X12.5416 Y6.9771
G01 X12.5396 Y6.9707
G01 X12.5387 Y6.9649
G01 X12.5386 Y6.5610
G01 X12.5396 Y6.5533
G01 X12.5420 Y6.5460
G01 X12.5458 Y6.5393
G01 X12.5509 Y6.5334
G01 X12.5570 Y6.5286
G01 X12.5630 Y6.5255
G01 X12.5704 Y6.5233
G01 X12.5781 Y6.5225
G00 Z2.0000
G00 X12.5781 Y6.0225
G01 F60.00
G01 Z-0.0300
G01 F60.00
G01 X14.7021 Y6.0224
G01 X14.7256 Y6.0236
G01 X14.7469 Y6.0267
G01 X14.7726 Y6.0330
G01 X14.7956 Y6.0414
G01 X14.8150 Y6.0507
G01 X14.8336 Y6.0617
G01 X14.8541 Y6.0768
G01 X14.8708 Y6.0919
G01 X15.5833 Y6.8044
G01 X15.6951 Y6.8044
G01 X15.7176 Y6.8056
G01 X15.7427 Y6.8094
G01 X15.7637 Y6.8147
G01 X15.7840 Y6.8219
G01 X15.8070 Y6.8327
G01 X15.8288 Y6.8459
G01 X15.8461 Y6.8588
G01 X15.8628 Y6.8739
G01 X15.8805 Y6.8935
G01 X15.8933 Y6.9109
G01 X15.9054 Y6.9311
G01 X15.9162 Y6.9541
G01 X15.9234 Y6.9744
G01 X15.9287 Y6.9954
G01 X15.9325 Y7.0205
G01 X15.9337 Y7.0459
G01 X15.9325 Y7.0675
G01 X15.9294 Y7.0888
G01 X15.9231 Y7.1145
G01 X15.9147 Y7.1375
G01 X15.9054 Y7.1569
G01 X15.8944 Y7.1755
G01 X15.8793 Y7.1960
G01 X15.8635 Y7.2134
G01 X15.8446 Y7.2304
G01 X15.8272 Y7.2432
G01 X15.8087 Y7.2544
G01 X15.7858 Y7.2654
G01 X15.7627 Y7.2736
G01 X15.7408 Y7.2790
G01 X15.7195 Y7.2822
G01 X15.6951 Y7.2836
G01 X15.4831 Y7.2836
G01 X15.4606 Y7.2824
G01 X15.4374 Y7.2790
G01 X15.4145 Y7.2733
G01 X15.3906 Y7.2646
G01 X15.3712 Y7.2553
G01 X15.3510 Y7.2432
G01 X15.3321 Y7.2292
G01 X15.3154 Y7.2141
G01 X14.6029 Y6.5016
G01 X12.5781 Y6.5015
G01 X12.5713 Y6.5009
G01 X12.5657 Y6.4995
G01 X12.5603 Y6.4973
G01 X12.5554 Y6.4943
G01 X12.5509 Y6.4906
G01 X12.5470 Y6.4863
G01 X12.5437 Y6.4815
G01 X12.5412 Y6.4762
G01 X12.5396 Y6.4707
G01 X12.5387 Y6.4649
G01 X12.5386 Y6.0610
G01 X12.5394 Y6.0543
G01 X12.5416 Y6.0469
G01 X12.5453 Y6.0401
G01 X12.5502 Y6.0341
G01 X12.5562 Y6.0292
G01 X12.5630 Y6.0255
G01 X12.5704 Y6.0233
G01 X12.5781 Y6.0225
G00 Z2.0000
G00 X12.5781 Y5.5225
G01 F60.00
G01 Z-0.0300
G01 F60.00
G01 X15.5551 Y5.5224
G01 X15.5786 Y5.5236
G01 X15.6028 Y5.5272
G01 X15.6247 Y5.5327
G01 X15.6450 Y5.5399
G01 X15.6680 Y5.5507
G01 X15.6898 Y5.5639
G01 X15.7071 Y5.5768
G01 X15.7231 Y5.5912
G01 X16.2445 Y6.1126
G01 X16.2597 Y6.1293
G01 X16.2743 Y6.1489
G01 X16.2873 Y6.1708
G01 X16.2972 Y6.1921
G01 X16.3044 Y6.2124
G01 X16.3097 Y6.2334
G01 X16.3135 Y6.2585
G01 X16.3147 Y6.2820
G01 X16.3135 Y6.3055
G01 X16.3099 Y6.3297
G01 X16.3044 Y6.3516
G01 X16.2957 Y6.3755
G01 X16.2864 Y6.3949
G01 X16.2754 Y6.4135
G01 X16.2615 Y6.4325
G01 X16.2445 Y6.4514
G01 X16.2271 Y6.4672
G01 X16.2082 Y6.4812
G01 X16.1880 Y6.4933
G01 X16.1668 Y6.5034
G01 X16.1447 Y6.5113
G01 X16.1218 Y6.5170
G01 X16.0967 Y6.5206
G01 X16.0732 Y6.5216
G01 X16.0516 Y6.5204
G01 X16.0303 Y6.5173
G01 X16.0055 Y6.5113
G01 X15.9843 Y6.5037
G01 X15.9622 Y6.4933
G01 X15.9420 Y6.4812
G01 X15.9231 Y6.4672
G01 X15.9064 Y6.4521
G01 X15.4559 Y6.0016
G01 X12.5781 Y6.0015
G01 X12.5694 Y6.0005
G01 X12.5639 Y5.9989
G01 X12.5578 Y5.9959
G01 X12.5523 Y5.9919
G01 X12.5482 Y5.9878
G01 X12.5442 Y5.9823
G01 X12.5416 Y5.9771
G01 X12.5398 Y5.9716
G01 X12.5387 Y5.9649
G01 X12.5386 Y5.5610
G01 X12.5394 Y5.5543
G01 X12.5416 Y5.5469
G01 X12.5453 Y5.5401
G01 X12.5502 Y5.5341
G01 X12.5562 Y5.5292
G01 X12.5630 Y5.5255
G01 X12.5704 Y5.5233
G01 X12.5781 Y5.5225
G00 Z2.0000
G00 X12.5781 Y5.0225
G01 F60.00
G01 Z-0.0300
G01 F60.00
G01 X14.1021 Y5.0225
G01 X14.1069 Y5.0228
G01 X14.1126 Y5.0239
G01 X14.1181 Y5.0259
G01 X14.1240 Y5.0292
G01 X14.1286 Y5.0327
G01 X14.1332 Y5.0377
G01 X14.1369 Y5.0434
G01 X14.1393 Y5.0487
G01 X14.1408 Y5.0543
G01 X14.1416 Y5.0601
G01 X14.1416 Y5.4620
G01 X14.1412 Y5.4678
G01 X14.1402 Y5.4725
G01 X14.1382 Y5.4780
G01 X14.1349 Y5.4839
G01 X14.1307 Y5.4892
G01 X14.1264 Y5.4931
G01 X14.1207 Y5.4968
G01 X14.1154 Y5.4992
G01 X14.1098 Y5.5007
G01 X14.1031 Y5.5015
G01 X12.5781 Y5.5015
G01 X12.5723 Y5.5011
G01 X12.5676 Y5.5001
G01 X12.5621 Y5.4981
G01 X12.5570 Y5.4954
G01 X12.5516 Y5.4913
G01 X12.5476 Y5.4871
G01 X12.5442 Y5.4823
G01 X12.5416 Y5.4771
G01 X12.5396 Y5.4707
G01 X12.5387 Y5.4649
G01 X12.5386 Y5.0610
G01 X12.5396 Y5.0533
G01 X12.5420 Y5.0460
G01 X12.5458 Y5.0393
G01 X12.5509 Y5.0334
G01 X12.5570 Y5.0286
G01 X12.5630 Y5.0255
G01 X12.5704 Y5.0233
G01 X12.5781 Y5.0225
G00 Z2.0000
G00 X12.5781 Y4.5225
G01 F60.00
G01 Z-0.0300
G01 F60.00
G01 X14.1021 Y4.5225
G01 X14.1069 Y4.5228
G01 X14.1126 Y4.5239
G01 X14.1181 Y4.5259
G01 X14.1240 Y4.5292
G01 X14.1286 Y4.5327
G01 X14.1332 Y4.5377
G01 X14.1369 Y4.5434
G01 X14.1393 Y4.5487
G01 X14.1408 Y4.5543
G01 X14.1416 Y4.5601
G01 X14.1416 Y4.9620
G01 X14.1412 Y4.9678
G01 X14.1402 Y4.9725
G01 X14.1382 Y4.9780
G01 X14.1349 Y4.9839
G01 X14.1307 Y4.9892
G01 X14.1264 Y4.9931
G01 X14.1207 Y4.9968
G01 X14.1154 Y4.9992
G01 X14.1098 Y5.0007
G01 X14.1031 Y5.0015
G01 X12.5781 Y5.0015
G01 X12.5723 Y5.0011
G01 X12.5676 Y5.0001
G01 X12.5621 Y4.9981
G01 X12.5570 Y4.9954
G01 X12.5516 Y4.9913
G01 X12.5476 Y4.9871
G01 X12.5442 Y4.9823
G01 X12.5416 Y4.9771
G01 X12.5396 Y4.9707
G01 X12.5387 Y4.9649
G01 X12.5386 Y4.5610
G01 X12.5396 Y4.5533
G01 X12.5420 Y4.5460
G01 X12.5458 Y4.5393
G01 X12.5509 Y4.5334
G01 X12.5570 Y4.5286
G01 X12.5630 Y4.5255
G01 X12.5704 Y4.5233
G01 X12.5781 Y4.5225
G00 Z2.0000
G00 X12.5781 Y4.0225
G01 F60.00
G01 Z-0.0300
G01 F60.00
G01 X14.1021 Y4.0225
G01 X14.1069 Y4.0228
G01 X14.1126 Y4.0239
G01 X14.1181 Y4.0259
G01 X14.1240 Y4.0292
G01 X14.1286 Y4.0327
G01 X14.1332 Y4.0377
G01 X14.1369 Y4.0434
G01 X14.1393 Y4.0487
G01 X14.1408 Y4.0543
G01 X14.1416 Y4.0601
G01 X14.1416 Y4.4620
G01 X14.1412 Y4.4678
G01 X14.1402 Y4.4725
G01 X14.1382 Y4.4780
G01 X14.1349 Y4.4839
G01 X14.1307 Y4.4892
G01 X14.1264 Y4.4931
G01 X14.1207 Y4.4968
G01 X14.1154 Y4.4992
G01 X14.1098 Y4.5007
G01 X14.1031 Y4.5015
G01 X12.5781 Y4.5015
G01 X12.5723 Y4.5011
G01 X12.5676 Y4.5001
G01 X12.5621 Y4.4981
G01 X12.5570 Y4.4954
G01 X12.5516 Y4.4913
G01 X12.5476 Y4.4871
G01 X12.5442 Y4.4823
G01 X12.5416 Y4.4771
G01 X12.5396 Y4.4707
G01 X12.5387 Y4.4649
G01 X12.5386 Y4.0610
G01 X12.5396 Y4.0533
G01 X12.5420 Y4.0460
G01 X12.5458 Y4.0393
G01 X12.5509 Y4.0334
G01 X12.5570 Y4.0286
G01 X12.5630 Y4.0255
G01 X12.5704 Y4.0233
G01 X12.5781 Y4.0225
G00 Z2.0000
G00 X12.5781 Y3.5225
G01 F60.00
G01 Z-0.0300
G01 F60.00
G01 X14.1021 Y3.5225
G01 X14.1079 Y3.5229
G01 X14.1126 Y3.5239
G01 X14.1181 Y3.5259
G01 X14.1240 Y3.5292
G01 X14.1286 Y3.5327
G01 X14.1332 Y3.5377
G01 X14.1369 Y3.5434
G01 X14.1393 Y3.5487
G01 X14.1408 Y3.5543
G01 X14.1416 Y3.5601
G01 X14.1416 Y3.9620
G01 X14.1412 Y3.9678
G01 X14.1402 Y3.9725
G01 X14.1382 Y3.9780
G01 X14.1349 Y3.9839
G01 X14.1307 Y3.9892
G01 X14.1264 Y3.9931
G01 X14.1207 Y3.9968
G01 X14.1154 Y3.9992
G01 X14.1098 Y4.0007
G01 X14.1031 Y4.0015
G01 X12.5781 Y4.0015
G01 X12.5723 Y4.0011
G01 X12.5676 Y4.0001
G01 X12.5621 Y3.9981
G01 X12.5570 Y3.9954
G01 X12.5516 Y3.9913
G01 X12.5476 Y3.9871
G01 X12.5442 Y3.9823
G01 X12.5416 Y3.9771
G01 X12.5396 Y3.9707
G01 X12.5387 Y3.9649
G01 X12.5386 Y3.5610
G01 X12.5396 Y3.5533
G01 X12.5420 Y3.5460
G01 X12.5458 Y3.5393
G01 X12.5509 Y3.5334
G01 X12.5570 Y3.5286
G01 X12.5630 Y3.5255
G01 X12.5704 Y3.5233
G01 X12.5781 Y3.5225
G00 Z2.0000
G00 X12.5781 Y3.0225
G01 F60.00
G01 Z-0.0300
G01 F60.00
G01 X14.1021 Y3.0225
G01 X14.1079 Y3.0229
G01 X14.1126 Y3.0239
G01 X14.1181 Y3.0259
G01 X14.1240 Y3.0292
G01 X14.1286 Y3.0327
G01 X14.1332 Y3.0377
G01 X14.1369 Y3.0434
G01 X14.1393 Y3.0487
G01 X14.1408 Y3.0543
G01 X14.1416 Y3.0601
G01 X14.1416 Y3.4620
G01 X14.1412 Y3.4678
G01 X14.1402 Y3.4725
G01 X14.1382 Y3.4780
G01 X14.1349 Y3.4839
G01 X14.1307 Y3.4892
G01 X14.1264 Y3.4931
G01 X14.1207 Y3.4968
G01 X14.1154 Y3.4992
G01 X14.1098 Y3.5007
G01 X14.1031 Y3.5015
G01 X12.5781 Y3.5015
G01 X12.5723 Y3.5011
G01 X12.5676 Y3.5001
G01 X12.5621 Y3.4981
G01 X12.5570 Y3.4954
G01 X12.5516 Y3.4913
G01 X12.5476 Y3.4871
G01 X12.5442 Y3.4823
G01 X12.5416 Y3.4771
G01 X12.5396 Y3.4707
G01 X12.5387 Y3.4649
G01 X12.5386 Y3.0610
G01 X12.5396 Y3.0533
G01 X12.5420 Y3.0460
G01 X12.5458 Y3.0393
G01 X12.5509 Y3.0334
G01 X12.5570 Y3.0286
G01 X12.5630 Y3.0255
G01 X12.5704 Y3.0233
G01 X12.5781 Y3.0225
G00 Z2.0000
G00 X12.5781 Y2.5225
G01 F60.00
G01 Z-0.0300
G01 F60.00
G01 X14.1021 Y2.5225
G01 X14.1079 Y2.5229
G01 X14.1126 Y2.5239
G01 X14.1181 Y2.5259
G01 X14.1240 Y2.5292
G01 X14.1286 Y2.5327
G01 X14.1332 Y2.5377
G01 X14.1369 Y2.5434
G01 X14.1393 Y2.5487
G01 X14.1408 Y2.5543
G01 X14.1416 Y2.5601
G01 X14.1416 Y2.9620
G01 X14.1412 Y2.9678
G01 X14.1402 Y2.9725
G01 X14.1382 Y2.9780
G01 X14.1349 Y2.9839
G01 X14.1307 Y2.9892
G01 X14.1264 Y2.9931
G01 X14.1207 Y2.9968
G01 X14.1154 Y2.9992
G01 X14.1098 Y3.0007
G01 X14.1031 Y3.0015
G01 X12.5781 Y3.0015
G01 X12.5723 Y3.0011
G01 X12.5676 Y3.0001
G01 X12.5621 Y2.9981
G01 X12.5570 Y2.9954
G01 X12.5516 Y2.9913
G01 X12.5476 Y2.9871
G01 X12.5442 Y2.9823
G01 X12.5416 Y2.9771
G01 X12.5396 Y2.9707
G01 X12.5387 Y2.9649
G01 X12.5386 Y2.5610
G01 X12.5396 Y2.5533
G01 X12.5420 Y2.5460
G01 X12.5458 Y2.5393
G01 X12.5509 Y2.5334
G01 X12.5570 Y2.5286
G01 X12.5630 Y2.5255
G01 X12.5704 Y2.5233
G01 X12.5781 Y2.5225
G00 Z2.0000
G00 X12.5781 Y2.0225
G01 F60.00
G01 Z-0.0300
G01 F60.00
G01 X14.1021 Y2.0225
G01 X14.1079 Y2.0229
G01 X14.1126 Y2.0239
G01 X14.1181 Y2.0259
G01 X14.1240 Y2.0292
G01 X14.1286 Y2.0327
G01 X14.1332 Y2.0377
G01 X14.1369 Y2.0434
G01 X14.1393 Y2.0487
G01 X14.1408 Y2.0543
G01 X14.1416 Y2.0601
G01 X14.1416 Y2.4620
G01 X14.1412 Y2.4678
G01 X14.1402 Y2.4725
G01 X14.1382 Y2.4780
G01 X14.1349 Y2.4839
G01 X14.1307 Y2.4892
G01 X14.1264 Y2.4931
G01 X14.1207 Y2.4968
G01 X14.1154 Y2.4992
G01 X14.1098 Y2.5007
G01 X14.1031 Y2.5015
G01 X12.5781 Y2.5015
G01 X12.5723 Y2.5011
G01 X12.5676 Y2.5001
G01 X12.5621 Y2.4981
G01 X12.5570 Y2.4954
G01 X12.5516 Y2.4913
G01 X12.5476 Y2.4871
G01 X12.5442 Y2.4823
G01 X12.5416 Y2.4771
G01 X12.5396 Y2.4707
G01 X12.5387 Y2.4649
G01 X12.5386 Y2.0610
G01 X12.5396 Y2.0533
G01 X12.5420 Y2.0460
G01 X12.5458 Y2.0393
G01 X12.5509 Y2.0334
G01 X12.5570 Y2.0286
G01 X12.5630 Y2.0255
G01 X12.5704 Y2.0233
G01 X12.5781 Y2.0225
G00 Z2.0000
G00 X11.6401 Y-0.0395
G01 F60.00
G01 Z-0.0300
G01 F60.00
G01 X12.0430 Y-0.0394
G01 X12.0488 Y-0.0385
G01 X12.0543 Y-0.0369
G01 X12.0604 Y-0.0339
G01 X12.0652 Y-0.0305
G01 X12.0700 Y-0.0258
G01 X12.0735 Y-0.0211
G01 X12.0766 Y-0.0151
G01 X12.0784 Y-0.0096
G01 X12.0793 Y-0.0048
G01 X12.0796 Y0.0000
G01 X12.0796 Y1.5250
G01 X12.0788 Y1.5317
G01 X12.0773 Y1.5373
G01 X12.0749 Y1.5426
G01 X12.0712 Y1.5483
G01 X12.0673 Y1.5526
G01 X12.0620 Y1.5568
G01 X12.0561 Y1.5601
G01 X12.0497 Y1.5623
G01 X12.0449 Y1.5632
G01 X12.0401 Y1.5635
G01 X11.6372 Y1.5634
G01 X11.6305 Y1.5623
G01 X11.6250 Y1.5605
G01 X11.6198 Y1.5579
G01 X11.6150 Y1.5545
G01 X11.6108 Y1.5505
G01 X11.6067 Y1.5451
G01 X11.6036 Y1.5391
G01 X11.6018 Y1.5336
G01 X11.6009 Y1.5288
G01 X11.6006 Y1.5240
G01 X11.6006 Y-0.0010
G01 X11.6016 Y-0.0087
G01 X11.6040 Y-0.0160
G01 X11.6078 Y-0.0227
G01 X11.6129 Y-0.0286
G01 X11.6190 Y-0.0334
G01 X11.6259 Y-0.0369
G01 X11.6324 Y-0.0387
G01 X11.6401 Y-0.0395
G00 Z2.0000
G00 X11.1401 Y-0.0395
G01 F60.00
G01 Z-0.0300
G01 F60.00
G01 X11.5430 Y-0.0394
G01 X11.5488 Y-0.0385
G01 X11.5543 Y-0.0369
G01 X11.5604 Y-0.0339
G01 X11.5652 Y-0.0305
G01 X11.5700 Y-0.0258
G01 X11.5735 Y-0.0211
G01 X11.5766 Y-0.0151
G01 X11.5784 Y-0.0096
G01 X11.5793 Y-0.0048
G01 X11.5796 Y0.0000
G01 X11.5796 Y1.5250
G01 X11.5788 Y1.5317
G01 X11.5773 Y1.5373
G01 X11.5749 Y1.5426
G01 X11.5712 Y1.5483
G01 X11.5673 Y1.5526
G01 X11.5620 Y1.5568
G01 X11.5561 Y1.5601
G01 X11.5497 Y1.5623
G01 X11.5449 Y1.5632
G01 X11.5401 Y1.5635
G01 X11.1372 Y1.5634
G01 X11.1305 Y1.5623
G01 X11.1250 Y1.5605
G01 X11.1198 Y1.5579
G01 X11.1150 Y1.5545
G01 X11.1108 Y1.5505
G01 X11.1067 Y1.5451
G01 X11.1036 Y1.5391
G01 X11.1018 Y1.5336
G01 X11.1009 Y1.5288
G01 X11.1006 Y1.5240
G01 X11.1006 Y-0.0010
G01 X11.1016 Y-0.0087
G01 X11.1040 Y-0.0160
G01 X11.1078 Y-0.0227
G01 X11.1129 Y-0.0286
G01 X11.1190 Y-0.0334
G01 X11.1259 Y-0.0369
G01 X11.1324 Y-0.0387
G01 X11.1401 Y-0.0395
G00 Z2.0000
G00 X10.6401 Y-0.0395
G01 F60.00
G01 Z-0.0300
G01 F60.00
G01 X11.0430 Y-0.0394
G01 X11.0488 Y-0.0385
G01 X11.0543 Y-0.0369
G01 X11.0604 Y-0.0339
G01 X11.0652 Y-0.0305
G01 X11.0700 Y-0.0258
G01 X11.0735 Y-0.0211
G01 X11.0766 Y-0.0151
G01 X11.0784 Y-0.0096
G01 X11.0793 Y-0.0048
G01 X11.0796 Y0.0000
G01 X11.0796 Y1.5250
G01 X11.0788 Y1.5317
G01 X11.0773 Y1.5373
G01 X11.0749 Y1.5426
G01 X11.0712 Y1.5483
G01 X11.0673 Y1.5526
G01 X11.0620 Y1.5568
G01 X11.0561 Y1.5601
G01 X11.0497 Y1.5623
G01 X11.0449 Y1.5632
G01 X11.0401 Y1.5635
G01 X10.6372 Y1.5634
G01 X10.6305 Y1.5623
G01 X10.6250 Y1.5605
G01 X10.6198 Y1.5579
G01 X10.6150 Y1.5545
G01 X10.6108 Y1.5505
G01 X10.6067 Y1.5451
G01 X10.6036 Y1.5391
G01 X10.6018 Y1.5336
G01 X10.6009 Y1.5288
G01 X10.6006 Y1.5240
G01 X10.6006 Y-0.0010
G01 X10.6016 Y-0.0087
G01 X10.6040 Y-0.0160
G01 X10.6078 Y-0.0227
G01 X10.6129 Y-0.0286
G01 X10.6190 Y-0.0334
G01 X10.6259 Y-0.0369
G01 X10.6324 Y-0.0387
G01 X10.6401 Y-0.0395
G00 Z2.0000
G00 X10.1401 Y-0.0395
G01 F60.00
G01 Z-0.0300
G01 F60.00
G01 X10.5430 Y-0.0394
G01 X10.5488 Y-0.0385
G01 X10.5543 Y-0.0369
G01 X10.5604 Y-0.0339
G01 X10.5652 Y-0.0305
G01 X10.5700 Y-0.0258
G01 X10.5735 Y-0.0211
G01 X10.5766 Y-0.0151
G01 X10.5784 Y-0.0096
G01 X10.5793 Y-0.0048
G01 X10.5796 Y0.0000
G01 X10.5796 Y1.5250
G01 X10.5788 Y1.5317
G01 X10.5773 Y1.5373
G01 X10.5749 Y1.5426
G01 X10.5712 Y1.5483
G01 X10.5673 Y1.5526
G01 X10.5620 Y1.5568
G01 X10.5561 Y1.5601
G01 X10.5497 Y1.5623
G01 X10.5449 Y1.5632
G01 X10.5401 Y1.5635
G01 X10.1372 Y1.5634
G01 X10.1305 Y1.5623
G01 X10.1250 Y1.5605
G01 X10.1198 Y1.5579
G01 X10.1150 Y1.5545
G01 X10.1108 Y1.5505
G01 X10.1067 Y1.5451
G01 X10.1036 Y1.5391
G01 X10.1018 Y1.5336
G01 X10.1009 Y1.5288
G01 X10.1006 Y1.5240
G01 X10.1006 Y-0.0010
G01 X10.1016 Y-0.0087
G01 X10.1040 Y-0.0160
G01 X10.1078 Y-0.0227
G01 X10.1129 Y-0.0286
G01 X10.1190 Y-0.0334
G01 X10.1259 Y-0.0369
G01 X10.1324 Y-0.0387
G01 X10.1401 Y-0.0395
G00 Z2.0000
G00 X9.6401 Y-0.0395
G01 F60.00
G01 Z-0.0300
G01 F60.00
G01 X10.0430 Y-0.0394
G01 X10.0488 Y-0.0385
G01 X10.0543 Y-0.0369
G01 X10.0604 Y-0.0339
G01 X10.0652 Y-0.0305
G01 X10.0700 Y-0.0258
G01 X10.0735 Y-0.0211
G01 X10.0766 Y-0.0151
G01 X10.0784 Y-0.0096
G01 X10.0793 Y-0.0048
G01 X10.0796 Y0.0000
G01 X10.0796 Y1.5250
G01 X10.0788 Y1.5317
G01 X10.0773 Y1.5373
G01 X10.0749 Y1.5426
G01 X10.0712 Y1.5483
G01 X10.0673 Y1.5526
G01 X10.0620 Y1.5568
G01 X10.0561 Y1.5601
G01 X10.0497 Y1.5623
G01 X10.0449 Y1.5632
G01 X10.0401 Y1.5635
G01 X9.6372 Y1.5634
G01 X9.6305 Y1.5623
G01 X9.6250 Y1.5605
G01 X9.6198 Y1.5579
G01 X9.6150 Y1.5545
G01 X9.6108 Y1.5505
G01 X9.6067 Y1.5451
G01 X9.6036 Y1.5391
G01 X9.6018 Y1.5336
G01 X9.6009 Y1.5288
G01 X9.6006 Y1.5240
G01 X9.6006 Y-0.0010
G01 X9.6016 Y-0.0087
G01 X9.6040 Y-0.0160
G01 X9.6078 Y-0.0227
G01 X9.6129 Y-0.0286
G01 X9.6190 Y-0.0334
G01 X9.6259 Y-0.0369
G01 X9.6324 Y-0.0387
G01 X9.6401 Y-0.0395
G00 Z2.0000
G00 X9.1401 Y-0.0395
G01 F60.00
G01 Z-0.0300
G01 F60.00
G01 X9.5430 Y-0.0394
G01 X9.5488 Y-0.0385
G01 X9.5543 Y-0.0369
G01 X9.5604 Y-0.0339
G01 X9.5652 Y-0.0305
G01 X9.5700 Y-0.0258
G01 X9.5735 Y-0.0211
G01 X9.5766 Y-0.0151
G01 X9.5784 Y-0.0096
G01 X9.5793 Y-0.0048
G01 X9.5796 Y0.0000
G01 X9.5796 Y1.5250
G01 X9.5788 Y1.5317
G01 X9.5773 Y1.5373
G01 X9.5749 Y1.5426
G01 X9.5712 Y1.5483
G01 X9.5673 Y1.5526
G01 X9.5620 Y1.5568
G01 X9.5561 Y1.5601
G01 X9.5497 Y1.5623
G01 X9.5449 Y1.5632
G01 X9.5401 Y1.5635
G01 X9.1372 Y1.5634
G01 X9.1305 Y1.5623
G01 X9.1250 Y1.5605
G01 X9.1198 Y1.5579
G01 X9.1150 Y1.5545
G01 X9.1108 Y1.5505
G01 X9.1067 Y1.5451
G01 X9.1036 Y1.5391
G01 X9.1018 Y1.5336
G01 X9.1009 Y1.5288
G01 X9.1006 Y1.5240
G01 X9.1006 Y-0.0010
G01 X9.1016 Y-0.0087
G01 X9.1040 Y-0.0160
G01 X9.1078 Y-0.0227
G01 X9.1129 Y-0.0286
G01 X9.1190 Y-0.0334
G01 X9.1259 Y-0.0369
G01 X9.1324 Y-0.0387
G01 X9.1401 Y-0.0395
G00 Z2.0000
G00 X8.6401 Y-0.0395
G01 F60.00
G01 Z-0.0300
G01 F60.00
G01 X9.0430 Y-0.0394
G01 X9.0488 Y-0.0385
G01 X9.0543 Y-0.0369
G01 X9.0604 Y-0.0339
G01 X9.0652 Y-0.0305
G01 X9.0700 Y-0.0258
G01 X9.0735 Y-0.0211
G01 X9.0766 Y-0.0151
G01 X9.0784 Y-0.0096
G01 X9.0793 Y-0.0048
G01 X9.0796 Y0.0000
G01 X9.0796 Y1.5250
G01 X9.0788 Y1.5317
G01 X9.0773 Y1.5373
G01 X9.0749 Y1.5426
G01 X9.0712 Y1.5483
G01 X9.0673 Y1.5526
G01 X9.0620 Y1.5568
G01 X9.0561 Y1.5601
G01 X9.0497 Y1.5623
G01 X9.0449 Y1.5632
G01 X9.0401 Y1.5635
G01 X8.6372 Y1.5634
G01 X8.6305 Y1.5623
G01 X8.6250 Y1.5605
G01 X8.6198 Y1.5579
G01 X8.6150 Y1.5545
G01 X8.6108 Y1.5505
G01 X8.6067 Y1.5451
G01 X8.6036 Y1.5391
G01 X8.6018 Y1.5336
G01 X8.6009 Y1.5288
G01 X8.6006 Y1.5240
G01 X8.6006 Y-0.0010
G01 X8.6016 Y-0.0087
G01 X8.6040 Y-0.0160
G01 X8.6078 Y-0.0227
G01 X8.6129 Y-0.0286
G01 X8.6190 Y-0.0334
G01 X8.6259 Y-0.0369
G01 X8.6324 Y-0.0387
G01 X8.6401 Y-0.0395
G00 Z2.0000
G00 X8.1401 Y-0.0395
G01 F60.00
G01 Z-0.0300
G01 F60.00
G01 X8.5430 Y-0.0394
G01 X8.5488 Y-0.0385
G01 X8.5543 Y-0.0369
G01 X8.5604 Y-0.0339
G01 X8.5652 Y-0.0305
G01 X8.5700 Y-0.0258
G01 X8.5735 Y-0.0211
G01 X8.5766 Y-0.0151
G01 X8.5784 Y-0.0096
G01 X8.5793 Y-0.0048
G01 X8.5796 Y0.0000
G01 X8.5796 Y1.5250
G01 X8.5788 Y1.5317
G01 X8.5773 Y1.5373
G01 X8.5749 Y1.5426
G01 X8.5712 Y1.5483
G01 X8.5673 Y1.5526
G01 X8.5620 Y1.5568
G01 X8.5561 Y1.5601
G01 X8.5497 Y1.5623
G01 X8.5449 Y1.5632
G01 X8.5401 Y1.5635
G01 X8.1372 Y1.5634
G01 X8.1305 Y1.5623
G01 X8.1250 Y1.5605
G01 X8.1198 Y1.5579
G01 X8.1150 Y1.5545
G01 X8.1108 Y1.5505
G01 X8.1067 Y1.5451
G01 X8.1036 Y1.5391
G01 X8.1018 Y1.5336
G01 X8.1009 Y1.5288
G01 X8.1006 Y1.5240
G01 X8.1006 Y-0.0010
G01 X8.1016 Y-0.0087
G01 X8.1040 Y-0.0160
G01 X8.1078 Y-0.0227
G01 X8.1129 Y-0.0286
G01 X8.1190 Y-0.0334
G01 X8.1259 Y-0.0369
G01 X8.1324 Y-0.0387
G01 X8.1401 Y-0.0395
G00 Z2.0000
G00 X7.6401 Y-0.0395
G01 F60.00
G01 Z-0.0300
G01 F60.00
G01 X8.0430 Y-0.0394
G01 X8.0488 Y-0.0385
G01 X8.0543 Y-0.0369
G01 X8.0604 Y-0.0339
G01 X8.0652 Y-0.0305
G01 X8.0700 Y-0.0258
G01 X8.0735 Y-0.0211
G01 X8.0766 Y-0.0151
G01 X8.0784 Y-0.0096
G01 X8.0793 Y-0.0048
G01 X8.0796 Y0.0000
G01 X8.0796 Y1.5250
G01 X8.0788 Y1.5317
G01 X8.0773 Y1.5373
G01 X8.0749 Y1.5426
G01 X8.0712 Y1.5483
G01 X8.0673 Y1.5526
G01 X8.0620 Y1.5568
G01 X8.0561 Y1.5601
G01 X8.0497 Y1.5623
G01 X8.0449 Y1.5632
G01 X8.0401 Y1.5635
G01 X7.6372 Y1.5634
G01 X7.6314 Y1.5625
G01 X7.6259 Y1.5609
G01 X7.6198 Y1.5579
G01 X7.6150 Y1.5545
G01 X7.6102 Y1.5498
G01 X7.6067 Y1.5451
G01 X7.6040 Y1.5400
G01 X7.6018 Y1.5336
G01 X7.6009 Y1.5288
G01 X7.6006 Y1.5240
G01 X7.6006 Y-0.0010
G01 X7.6016 Y-0.0087
G01 X7.6036 Y-0.0151
G01 X7.6073 Y-0.0219
G01 X7.6122 Y-0.0279
G01 X7.6182 Y-0.0328
G01 X7.6250 Y-0.0365
G01 X7.6324 Y-0.0387
G01 X7.6401 Y-0.0395
G00 Z2.0000
G00 X7.1401 Y-0.0395
G01 F60.00
G01 Z-0.0300
G01 F60.00
G01 X7.5430 Y-0.0394
G01 X7.5497 Y-0.0383
G01 X7.5552 Y-0.0365
G01 X7.5604 Y-0.0339
G01 X7.5652 Y-0.0305
G01 X7.5694 Y-0.0265
G01 X7.5735 Y-0.0211
G01 X7.5762 Y-0.0160
G01 X7.5784 Y-0.0096
G01 X7.5793 Y-0.0048
G01 X7.5796 Y0.0000
G01 X7.5796 Y1.5250
G01 X7.5790 Y1.5308
G01 X7.5773 Y1.5373
G01 X7.5749 Y1.5426
G01 X7.5712 Y1.5483
G01 X7.5666 Y1.5533
G01 X7.5612 Y1.5574
G01 X7.5561 Y1.5601
G01 X7.5497 Y1.5623
G01 X7.5449 Y1.5632
G01 X7.5401 Y1.5635
G01 X7.1372 Y1.5634
G01 X7.1314 Y1.5625
G01 X7.1259 Y1.5609
G01 X7.1198 Y1.5579
G01 X7.1150 Y1.5545
G01 X7.1102 Y1.5498
G01 X7.1067 Y1.5451
G01 X7.1040 Y1.5400
G01 X7.1018 Y1.5336
G01 X7.1009 Y1.5288
G01 X7.1006 Y1.5240
G01 X7.1006 Y-0.0010
G01 X7.1016 Y-0.0087
G01 X7.1036 Y-0.0151
G01 X7.1073 Y-0.0219
G01 X7.1122 Y-0.0279
G01 X7.1182 Y-0.0328
G01 X7.1250 Y-0.0365
G01 X7.1324 Y-0.0387
G01 X7.1401 Y-0.0395
G00 Z2.0000
G00 X6.6401 Y-0.0395
G01 F60.00
G01 Z-0.0300
G01 F60.00
G01 X7.0430 Y-0.0394
G01 X7.0497 Y-0.0383
G01 X7.0552 Y-0.0365
G01 X7.0604 Y-0.0339
G01 X7.0652 Y-0.0305
G01 X7.0694 Y-0.0265
G01 X7.0735 Y-0.0211
G01 X7.0762 Y-0.0160
G01 X7.0784 Y-0.0096
G01 X7.0793 Y-0.0048
G01 X7.0796 Y0.0000
G01 X7.0796 Y1.5250
G01 X7.0790 Y1.5308
G01 X7.0773 Y1.5373
G01 X7.0749 Y1.5426
G01 X7.0712 Y1.5483
G01 X7.0666 Y1.5533
G01 X7.0612 Y1.5574
G01 X7.0561 Y1.5601
G01 X7.0497 Y1.5623
G01 X7.0449 Y1.5632
G01 X7.0401 Y1.5635
G01 X6.6372 Y1.5634
G01 X6.6314 Y1.5625
G01 X6.6259 Y1.5609
G01 X6.6198 Y1.5579
G01 X6.6150 Y1.5545
G01 X6.6102 Y1.5498
G01 X6.6067 Y1.5451
G01 X6.6040 Y1.5400
G01 X6.6018 Y1.5336
G01 X6.6009 Y1.5288
G01 X6.6006 Y1.5240
G01 X6.6006 Y-0.0010
G01 X6.6016 Y-0.0087
G01 X6.6036 Y-0.0151
G01 X6.6073 Y-0.0219
G01 X6.6122 Y-0.0279
G01 X6.6182 Y-0.0328
G01 X6.6250 Y-0.0365
G01 X6.6324 Y-0.0387
G01 X6.6401 Y-0.0395
G00 Z2.0000
G00 X6.1401 Y-0.0395
G01 F60.00
G01 Z-0.0300
G01 F60.00
G01 X6.5430 Y-0.0394
G01 X6.5497 Y-0.0383
G01 X6.5552 Y-0.0365
G01 X6.5604 Y-0.0339
G01 X6.5652 Y-0.0305
G01 X6.5694 Y-0.0265
G01 X6.5735 Y-0.0211
G01 X6.5762 Y-0.0160
G01 X6.5784 Y-0.0096
G01 X6.5793 Y-0.0048
G01 X6.5796 Y0.0000
G01 X6.5796 Y1.5250
G01 X6.5790 Y1.5308
G01 X6.5773 Y1.5373
G01 X6.5749 Y1.5426
G01 X6.5712 Y1.5483
G01 X6.5666 Y1.5533
G01 X6.5612 Y1.5574
G01 X6.5561 Y1.5601
G01 X6.5497 Y1.5623
G01 X6.5449 Y1.5632
G01 X6.5401 Y1.5635
G01 X6.1372 Y1.5634
G01 X6.1314 Y1.5625
G01 X6.1259 Y1.5609
G01 X6.1198 Y1.5579
G01 X6.1150 Y1.5545
G01 X6.1102 Y1.5498
G01 X6.1067 Y1.5451
G01 X6.1040 Y1.5400
G01 X6.1018 Y1.5336
G01 X6.1009 Y1.5288
G01 X6.1006 Y1.5240
G01 X6.1006 Y-0.0010
G01 X6.1016 Y-0.0087
G01 X6.1036 Y-0.0151
G01 X6.1073 Y-0.0219
G01 X6.1122 Y-0.0279
G01 X6.1182 Y-0.0328
G01 X6.1250 Y-0.0365
G01 X6.1324 Y-0.0387
G01 X6.1401 Y-0.0395
G00 Z2.0000
G00 X20.9155 Y1.4637
G01 F60.00
G01 Z-0.0300
G01 F60.00
G01 X20.9155 Y1.2020
G01 X20.9168 Y1.1776
G01 X20.9201 Y1.1553
G01 X20.9253 Y1.1343
G01 X20.9337 Y1.1103
G01 X20.9438 Y1.0891
G01 X20.9548 Y1.0705
G01 X20.9705 Y1.0493
G01 X20.9857 Y1.0326
G01 X21.0031 Y1.0168
G01 X21.0220 Y1.0028
G01 X21.0422 Y0.9907
G01 X21.0634 Y0.9806
G01 X21.0855 Y0.9727
G01 X21.1084 Y0.9670
G01 X21.1316 Y0.9636
G01 X21.1551 Y0.9624
G01 X21.1786 Y0.9636
G01 X21.2018 Y0.9670
G01 X21.2247 Y0.9727
G01 X21.2468 Y0.9806
G01 X21.2680 Y0.9907
G01 X21.2882 Y1.0028
G01 X21.3063 Y1.0162
G01 X21.3259 Y1.0340
G01 X21.3403 Y1.0500
G01 X21.3543 Y1.0689
G01 X21.3664 Y1.0891
G01 X21.3757 Y1.1085
G01 X21.3849 Y1.1343
G01 X21.3901 Y1.1553
G01 X21.3933 Y1.1766
G01 X21.3947 Y1.2001
G01 X21.3947 Y1.3645
G01 X22.5599 Y2.5297
G01 X22.5671 Y2.5308
G01 X22.5735 Y2.5330
G01 X22.5802 Y2.5368
G01 X22.5854 Y2.5412
G01 X23.2926 Y3.2484
G01 X23.2970 Y3.2536
G01 X23.3008 Y3.2603
G01 X23.3030 Y3.2667
G01 X23.3042 Y3.2744
G01 X23.3039 Y3.2811
G01 X23.3025 Y3.2878
G01 X23.2995 Y3.2949
G01 X23.2958 Y3.3006
G01 X23.2926 Y3.3042
G01 X22.9935 Y3.6032
G01 X22.9880 Y3.6072
G01 X22.9819 Y3.6102
G01 X22.9754 Y3.6120
G01 X22.9687 Y3.6128
G01 X22.9619 Y3.6124
G01 X22.9553 Y3.6108
G01 X22.9491 Y3.6081
G01 X22.9434 Y3.6044
G01 X22.9398 Y3.6012
G01 X22.2326 Y2.8940
G01 X22.2277 Y2.8880
G01 X22.2244 Y2.8821
G01 X22.2222 Y2.8757
G01 X22.2211 Y2.8685
G01 X20.9850 Y1.6324
G01 X20.9699 Y1.6157
G01 X20.9559 Y1.5968
G01 X20.9438 Y1.5766
G01 X20.9337 Y1.5554
G01 X20.9258 Y1.5333
G01 X20.9201 Y1.5104
G01 X20.9167 Y1.4872
G01 X20.9155 Y1.4637
G00 Z2.0000
G00 X22.5862 Y2.4846
G01 F60.00
G01 Z-0.0300
G01 F60.00
G01 X22.8846 Y2.1862
G01 X22.8892 Y2.1827
G01 X22.8933 Y2.1802
G01 X22.8987 Y2.1780
G01 X22.9043 Y2.1766
G01 X22.9101 Y2.1760
G01 X22.9159 Y2.1763
G01 X22.9216 Y2.1774
G01 X22.9262 Y2.1790
G01 X22.9330 Y2.1827
G01 X22.9390 Y2.1876
G01 X23.6469 Y2.8955
G01 X23.6506 Y2.9000
G01 X23.6536 Y2.9049
G01 X23.6558 Y2.9103
G01 X23.6572 Y2.9159
G01 X23.6578 Y2.9217
G01 X23.6575 Y2.9275
G01 X23.6566 Y2.9323
G01 X23.6548 Y2.9378
G01 X23.6511 Y2.9446
G01 X23.6462 Y2.9506
G01 X23.3478 Y3.2490
G01 X23.3432 Y3.2525
G01 X23.3382 Y3.2554
G01 X23.3337 Y3.2572
G01 X23.3281 Y3.2586
G01 X23.3223 Y3.2592
G01 X23.3165 Y3.2589
G01 X23.3117 Y3.2580
G01 X23.3062 Y3.2562
G01 X23.2994 Y3.2525
G01 X23.2934 Y3.2476
G01 X22.5855 Y2.5397
G01 X22.5807 Y2.5336
G01 X22.5772 Y2.5267
G01 X22.5752 Y2.5193
G01 X22.5746 Y2.5125
G01 X22.5754 Y2.5048
G01 X22.5776 Y2.4974
G01 X22.5813 Y2.4906
G01 X22.5862 Y2.4846
G00 Z2.0000
G00 X22.9398 Y2.1311
G01 F60.00
G01 Z-0.0300
G01 F60.00
G01 X23.2382 Y1.8327
G01 X23.2428 Y1.8292
G01 X23.2469 Y1.8267
G01 X23.2523 Y1.8245
G01 X23.2579 Y1.8231
G01 X23.2637 Y1.8225
G01 X23.2695 Y1.8228
G01 X23.2752 Y1.8239
G01 X23.2798 Y1.8255
G01 X23.2866 Y1.8292
G01 X23.2926 Y1.8341
G01 X24.0005 Y2.5420
G01 X24.0042 Y2.5465
G01 X24.0072 Y2.5514
G01 X24.0094 Y2.5568
G01 X24.0108 Y2.5624
G01 X24.0114 Y2.5682
G01 X24.0111 Y2.5740
G01 X24.0102 Y2.5788
G01 X24.0084 Y2.5843
G01 X24.0047 Y2.5911
G01 X23.9998 Y2.5971
G01 X23.7014 Y2.8955
G01 X23.6968 Y2.8990
G01 X23.6918 Y2.9019
G01 X23.6873 Y2.9037
G01 X23.6817 Y2.9051
G01 X23.6759 Y2.9057
G01 X23.6701 Y2.9054
G01 X23.6653 Y2.9045
G01 X23.6598 Y2.9027
G01 X23.6530 Y2.8990
G01 X23.6470 Y2.8941
G01 X22.9391 Y2.1862
G01 X22.9343 Y2.1801
G01 X22.9308 Y2.1732
G01 X22.9288 Y2.1658
G01 X22.9282 Y2.1590
G01 X22.9290 Y2.1513
G01 X22.9312 Y2.1439
G01 X22.9349 Y2.1371
G01 X22.9398 Y2.1311
G00 Z2.0000
G00 X23.2933 Y1.7775
G01 F60.00
G01 Z-0.0300
G01 F60.00
G01 X23.5917 Y1.4791
G01 X23.5963 Y1.4756
G01 X23.6004 Y1.4731
G01 X23.6058 Y1.4709
G01 X23.6114 Y1.4695
G01 X23.6172 Y1.4689
G01 X23.6230 Y1.4692
G01 X23.6287 Y1.4703
G01 X23.6333 Y1.4719
G01 X23.6401 Y1.4756
G01 X23.6461 Y1.4805
G01 X24.3540 Y2.1884
G01 X24.3577 Y2.1929
G01 X24.3607 Y2.1978
G01 X24.3629 Y2.2032
G01 X24.3643 Y2.2088
G01 X24.3649 Y2.2146
G01 X24.3646 Y2.2204
G01 X24.3637 Y2.2252
G01 X24.3619 Y2.2307
G01 X24.3582 Y2.2375
G01 X24.3533 Y2.2435
G01 X24.0549 Y2.5419
G01 X24.0503 Y2.5454
G01 X24.0453 Y2.5483
G01 X24.0408 Y2.5501
G01 X24.0352 Y2.5515
G01 X24.0294 Y2.5521
G01 X24.0236 Y2.5518
G01 X24.0188 Y2.5509
G01 X24.0133 Y2.5491
G01 X24.0065 Y2.5454
G01 X24.0005 Y2.5405
G01 X23.2926 Y1.8326
G01 X23.2878 Y1.8265
G01 X23.2843 Y1.8196
G01 X23.2823 Y1.8122
G01 X23.2817 Y1.8054
G01 X23.2825 Y1.7977
G01 X23.2847 Y1.7903
G01 X23.2884 Y1.7835
G01 X23.2933 Y1.7775
G00 Z2.0000
G00 X23.6469 Y1.4240
G01 F60.00
G01 Z-0.0300
G01 F60.00
G01 X23.9453 Y1.1256
G01 X23.9499 Y1.1221
G01 X23.9540 Y1.1196
G01 X23.9594 Y1.1174
G01 X23.9650 Y1.1160
G01 X23.9708 Y1.1154
G01 X23.9766 Y1.1157
G01 X23.9823 Y1.1168
G01 X23.9869 Y1.1184
G01 X23.9937 Y1.1221
G01 X23.9997 Y1.1270
G01 X24.7076 Y1.8349
G01 X24.7113 Y1.8394
G01 X24.7143 Y1.8443
G01 X24.7165 Y1.8497
G01 X24.7179 Y1.8553
G01 X24.7185 Y1.8611
G01 X24.7182 Y1.8669
G01 X24.7173 Y1.8717
G01 X24.7155 Y1.8772
G01 X24.7118 Y1.8840
G01 X24.7069 Y1.8900
G01 X24.4085 Y2.1884
G01 X24.4039 Y2.1919
G01 X24.3989 Y2.1948
G01 X24.3944 Y2.1966
G01 X24.3888 Y2.1980
G01 X24.3830 Y2.1986
G01 X24.3772 Y2.1983
G01 X24.3724 Y2.1974
G01 X24.3669 Y2.1956
G01 X24.3601 Y2.1919
G01 X24.3541 Y2.1870
G01 X23.6462 Y1.4791
G01 X23.6414 Y1.4730
G01 X23.6379 Y1.4661
G01 X23.6359 Y1.4587
G01 X23.6353 Y1.4519
G01 X23.6361 Y1.4442
G01 X23.6383 Y1.4368
G01 X23.6420 Y1.4300
G01 X23.6469 Y1.4240
G00 Z2.0000
G00 X24.0004 Y1.0704
G01 F60.00
G01 Z-0.0300
G01 F60.00
G01 X24.2988 Y0.7720
G01 X24.3034 Y0.7685
G01 X24.3075 Y0.7660
G01 X24.3129 Y0.7638
G01 X24.3185 Y0.7624
G01 X24.3243 Y0.7618
G01 X24.3301 Y0.7621
G01 X24.3358 Y0.7632
G01 X24.3404 Y0.7648
G01 X24.3472 Y0.7685
G01 X24.3532 Y0.7734
G01 X25.0611 Y1.4813
G01 X25.0648 Y1.4858
G01 X25.0678 Y1.4907
G01 X25.0700 Y1.4961
G01 X25.0714 Y1.5017
G01 X25.0720 Y1.5075
G01 X25.0717 Y1.5133
G01 X25.0708 Y1.5181
G01 X25.0690 Y1.5236
G01 X25.0653 Y1.5304
G01 X25.0604 Y1.5364
G01 X24.7620 Y1.8348
G01 X24.7574 Y1.8383
G01 X24.7524 Y1.8412
G01 X24.7479 Y1.8430
G01 X24.7423 Y1.8444
G01 X24.7365 Y1.8450
G01 X24.7307 Y1.8447
G01 X24.7259 Y1.8438
G01 X24.7204 Y1.8420
G01 X24.7136 Y1.8383
G01 X24.7076 Y1.8334
G01 X23.9997 Y1.1255
G01 X23.9949 Y1.1194
G01 X23.9914 Y1.1125
G01 X23.9894 Y1.1051
G01 X23.9888 Y1.0983
G01 X23.9896 Y1.0906
G01 X23.9918 Y1.0832
G01 X23.9955 Y1.0764
G01 X24.0004 Y1.0704
G00 Z2.0000
G00 X24.3540 Y0.7169
G01 F60.00
G01 Z-0.0300
G01 F60.00
G01 X24.6524 Y0.4185
G01 X24.6570 Y0.4150
G01 X24.6611 Y0.4125
G01 X24.6665 Y0.4103
G01 X24.6721 Y0.4089
G01 X24.6779 Y0.4083
G01 X24.6837 Y0.4086
G01 X24.6894 Y0.4097
G01 X24.6940 Y0.4113
G01 X24.7008 Y0.4150
G01 X24.7068 Y0.4199
G01 X25.4147 Y1.1278
G01 X25.4184 Y1.1323
G01 X25.4214 Y1.1372
G01 X25.4236 Y1.1426
G01 X25.4250 Y1.1482
G01 X25.4256 Y1.1540
G01 X25.4253 Y1.1598
G01 X25.4244 Y1.1646
G01 X25.4226 Y1.1701
G01 X25.4189 Y1.1769
G01 X25.4140 Y1.1829
G01 X25.1156 Y1.4813
G01 X25.1110 Y1.4848
G01 X25.1060 Y1.4877
G01 X25.1015 Y1.4895
G01 X25.0959 Y1.4909
G01 X25.0901 Y1.4915
G01 X25.0843 Y1.4912
G01 X25.0795 Y1.4903
G01 X25.0740 Y1.4885
G01 X25.0672 Y1.4848
G01 X25.0612 Y1.4799
G01 X24.3533 Y0.7720
G01 X24.3485 Y0.7659
G01 X24.3450 Y0.7590
G01 X24.3430 Y0.7516
G01 X24.3424 Y0.7448
G01 X24.3432 Y0.7371
G01 X24.3454 Y0.7297
G01 X24.3491 Y0.7229
G01 X24.3540 Y0.7169
G00 Z2.0000
G00 X24.7075 Y0.3633
G01 F60.00
G01 Z-0.0300
G01 F60.00
G01 X25.0059 Y0.0649
G01 X25.0105 Y0.0614
G01 X25.0146 Y0.0589
G01 X25.0200 Y0.0567
G01 X25.0256 Y0.0553
G01 X25.0314 Y0.0547
G01 X25.0372 Y0.0550
G01 X25.0429 Y0.0561
G01 X25.0475 Y0.0577
G01 X25.0543 Y0.0614
G01 X25.0603 Y0.0663
G01 X25.7682 Y0.7742
G01 X25.7719 Y0.7787
G01 X25.7749 Y0.7836
G01 X25.7771 Y0.7890
G01 X25.7785 Y0.7946
G01 X25.7791 Y0.8004
G01 X25.7788 Y0.8062
G01 X25.7779 Y0.8110
G01 X25.7761 Y0.8165
G01 X25.7724 Y0.8233
G01 X25.7675 Y0.8293
G01 X25.4691 Y1.1277
G01 X25.4645 Y1.1312
G01 X25.4595 Y1.1341
G01 X25.4550 Y1.1359
G01 X25.4494 Y1.1373
G01 X25.4436 Y1.1379
G01 X25.4378 Y1.1376
G01 X25.4330 Y1.1367
G01 X25.4275 Y1.1349
G01 X25.4207 Y1.1312
G01 X25.4147 Y1.1263
G01 X24.7068 Y0.4184
G01 X24.7020 Y0.4123
G01 X24.6985 Y0.4054
G01 X24.6965 Y0.3980
G01 X24.6959 Y0.3912
G01 X24.6967 Y0.3835
G01 X24.6989 Y0.3761
G01 X24.7026 Y0.3693
G01 X24.7075 Y0.3633
G00 Z2.0000
G00 X25.8884 Y0.8018
G01 F60.00
G01 Z-0.0300
G01 F60.00
G01 X26.5956 Y0.0946
G01 X26.6024 Y0.0891
G01 X26.6102 Y0.0853
G01 X26.6148 Y0.0840
G01 X26.6206 Y0.0831
G01 X26.6264 Y0.0831
G01 X26.6312 Y0.0838
G01 X26.6359 Y0.0850
G01 X26.6413 Y0.0872
G01 X26.6454 Y0.0897
G01 X26.6500 Y0.0932
G01 X26.9484 Y0.3916
G01 X26.9539 Y0.3984
G01 X26.9577 Y0.4062
G01 X26.9592 Y0.4118
G01 X26.9599 Y0.4166
G01 X26.9599 Y0.4224
G01 X26.9592 Y0.4272
G01 X26.9577 Y0.4328
G01 X26.9558 Y0.4373
G01 X26.9528 Y0.4422
G01 X26.9491 Y0.4467
G01 X26.2412 Y1.1546
G01 X26.2344 Y1.1601
G01 X26.2266 Y1.1639
G01 X26.2220 Y1.1652
G01 X26.2162 Y1.1661
G01 X26.2114 Y1.1662
G01 X26.2056 Y1.1654
G01 X26.2000 Y1.1639
G01 X26.1955 Y1.1620
G01 X26.1914 Y1.1595
G01 X26.1868 Y1.1560
G01 X25.8877 Y0.8569
G01 X25.8835 Y0.8516
G01 X25.8798 Y0.8448
G01 X25.8776 Y0.8374
G01 X25.8768 Y0.8297
G01 X25.8776 Y0.8220
G01 X25.8798 Y0.8146
G01 X25.8835 Y0.8078
G01 X25.8884 Y0.8018
G00 Z2.0000
G00 X26.2419 Y1.1554
G01 F60.00
G01 Z-0.0300
G01 F60.00
G01 X26.9491 Y0.4482
G01 X26.9559 Y0.4427
G01 X26.9637 Y0.4389
G01 X26.9683 Y0.4376
G01 X26.9741 Y0.4367
G01 X26.9799 Y0.4367
G01 X26.9847 Y0.4374
G01 X26.9894 Y0.4386
G01 X26.9948 Y0.4408
G01 X26.9989 Y0.4433
G01 X27.0035 Y0.4468
G01 X27.3019 Y0.7452
G01 X27.3074 Y0.7520
G01 X27.3112 Y0.7598
G01 X27.3127 Y0.7654
G01 X27.3134 Y0.7702
G01 X27.3134 Y0.7760
G01 X27.3127 Y0.7808
G01 X27.3112 Y0.7864
G01 X27.3093 Y0.7909
G01 X27.3063 Y0.7958
G01 X27.3026 Y0.8003
G01 X26.5947 Y1.5082
G01 X26.5879 Y1.5137
G01 X26.5801 Y1.5175
G01 X26.5755 Y1.5188
G01 X26.5697 Y1.5197
G01 X26.5649 Y1.5198
G01 X26.5591 Y1.5190
G01 X26.5535 Y1.5175
G01 X26.5490 Y1.5156
G01 X26.5449 Y1.5131
G01 X26.5403 Y1.5096
G01 X26.2412 Y1.2105
G01 X26.2370 Y1.2052
G01 X26.2333 Y1.1984
G01 X26.2311 Y1.1910
G01 X26.2303 Y1.1833
G01 X26.2311 Y1.1756
G01 X26.2333 Y1.1682
G01 X26.2370 Y1.1614
G01 X26.2419 Y1.1554
G00 Z2.0000
G00 X26.5955 Y1.5089
G01 F60.00
G01 Z-0.0300
G01 F60.00
G01 X27.3027 Y0.8017
G01 X27.3095 Y0.7962
G01 X27.3173 Y0.7924
G01 X27.3229 Y0.7909
G01 X27.3277 Y0.7902
G01 X27.3335 Y0.7902
G01 X27.3383 Y0.7909
G01 X27.3430 Y0.7921
G01 X27.3484 Y0.7943
G01 X27.3533 Y0.7973
G01 X27.3571 Y0.8003
G01 X27.6555 Y1.0987
G01 X27.6610 Y1.1055
G01 X27.6648 Y1.1133
G01 X27.6663 Y1.1189
G01 X27.6670 Y1.1237
G01 X27.6670 Y1.1295
G01 X27.6663 Y1.1343
G01 X27.6648 Y1.1399
G01 X27.6629 Y1.1444
G01 X27.6599 Y1.1493
G01 X27.6562 Y1.1538
G01 X26.9483 Y1.8617
G01 X26.9415 Y1.8672
G01 X26.9337 Y1.8710
G01 X26.9291 Y1.8723
G01 X26.9233 Y1.8732
G01 X26.9185 Y1.8733
G01 X26.9127 Y1.8725
G01 X26.9071 Y1.8710
G01 X26.9026 Y1.8691
G01 X26.8985 Y1.8666
G01 X26.8939 Y1.8631
G01 X26.5948 Y1.5640
G01 X26.5906 Y1.5587
G01 X26.5869 Y1.5519
G01 X26.5847 Y1.5445
G01 X26.5839 Y1.5368
G01 X26.5847 Y1.5291
G01 X26.5869 Y1.5217
G01 X26.5906 Y1.5149
G01 X26.5955 Y1.5089
G00 Z2.0000
G00 X26.9490 Y1.8625
G01 F60.00
G01 Z-0.0300
G01 F60.00
G01 X27.6562 Y1.1553
G01 X27.6630 Y1.1498
G01 X27.6708 Y1.1460
G01 X27.6764 Y1.1445
G01 X27.6812 Y1.1438
G01 X27.6870 Y1.1438
G01 X27.6918 Y1.1445
G01 X27.6965 Y1.1457
G01 X27.7019 Y1.1479
G01 X27.7068 Y1.1509
G01 X27.7106 Y1.1539
G01 X28.0090 Y1.4523
G01 X28.0145 Y1.4591
G01 X28.0183 Y1.4669
G01 X28.0198 Y1.4725
G01 X28.0205 Y1.4773
G01 X28.0205 Y1.4831
G01 X28.0198 Y1.4879
G01 X28.0183 Y1.4935
G01 X28.0164 Y1.4980
G01 X28.0134 Y1.5029
G01 X28.0097 Y1.5074
G01 X27.3018 Y2.2153
G01 X27.2950 Y2.2208
G01 X27.2872 Y2.2246
G01 X27.2826 Y2.2259
G01 X27.2768 Y2.2268
G01 X27.2720 Y2.2269
G01 X27.2662 Y2.2261
G01 X27.2606 Y2.2246
G01 X27.2561 Y2.2227
G01 X27.2520 Y2.2202
G01 X27.2474 Y2.2167
G01 X26.9483 Y1.9176
G01 X26.9441 Y1.9123
G01 X26.9404 Y1.9055
G01 X26.9382 Y1.8981
G01 X26.9374 Y1.8904
G01 X26.9382 Y1.8827
G01 X26.9404 Y1.8753
G01 X26.9441 Y1.8685
G01 X26.9490 Y1.8625
G00 Z2.0000
G00 X27.3026 Y2.2160
G01 F60.00
G01 Z-0.0300
G01 F60.00
G01 X28.0098 Y1.5088
G01 X28.0166 Y1.5033
G01 X28.0244 Y1.4995
G01 X28.0300 Y1.4980
G01 X28.0348 Y1.4973
G01 X28.0406 Y1.4973
G01 X28.0454 Y1.4980
G01 X28.0501 Y1.4992
G01 X28.0555 Y1.5014
G01 X28.0604 Y1.5044
G01 X28.0642 Y1.5074
G01 X28.3626 Y1.8058
G01 X28.3681 Y1.8126
G01 X28.3719 Y1.8204
G01 X28.3734 Y1.8260
G01 X28.3741 Y1.8308
G01 X28.3741 Y1.8366
G01 X28.3734 Y1.8414
G01 X28.3719 Y1.8470
G01 X28.3700 Y1.8515
G01 X28.3670 Y1.8564
G01 X28.3633 Y1.8609
G01 X27.6554 Y2.5688
G01 X27.6486 Y2.5743
G01 X27.6408 Y2.5781
G01 X27.6362 Y2.5794
G01 X27.6304 Y2.5803
G01 X27.6256 Y2.5804
G01 X27.6198 Y2.5796
G01 X27.6142 Y2.5781
G01 X27.6097 Y2.5762
G01 X27.6056 Y2.5737
G01 X27.6010 Y2.5702
G01 X27.3019 Y2.2711
G01 X27.2977 Y2.2658
G01 X27.2940 Y2.2590
G01 X27.2918 Y2.2516
G01 X27.2910 Y2.2439
G01 X27.2918 Y2.2362
G01 X27.2940 Y2.2288
G01 X27.2977 Y2.2220
G01 X27.3026 Y2.2160
G00 Z2.0000
G00 X27.6562 Y2.5696
G01 F60.00
G01 Z-0.0300
G01 F60.00
G01 X28.3634 Y1.8624
G01 X28.3702 Y1.8569
G01 X28.3780 Y1.8531
G01 X28.3836 Y1.8516
G01 X28.3884 Y1.8509
G01 X28.3942 Y1.8509
G01 X28.3990 Y1.8516
G01 X28.4037 Y1.8528
G01 X28.4091 Y1.8550
G01 X28.4140 Y1.8580
G01 X28.4178 Y1.8610
G01 X28.7162 Y2.1594
G01 X28.7217 Y2.1662
G01 X28.7255 Y2.1740
G01 X28.7270 Y2.1796
G01 X28.7277 Y2.1844
G01 X28.7277 Y2.1902
G01 X28.7270 Y2.1950
G01 X28.7255 Y2.2006
G01 X28.7236 Y2.2051
G01 X28.7206 Y2.2100
G01 X28.7169 Y2.2145
G01 X28.0090 Y2.9224
G01 X28.0022 Y2.9279
G01 X27.9944 Y2.9317
G01 X27.9898 Y2.9330
G01 X27.9840 Y2.9339
G01 X27.9792 Y2.9340
G01 X27.9734 Y2.9332
G01 X27.9678 Y2.9317
G01 X27.9633 Y2.9298
G01 X27.9592 Y2.9273
G01 X27.9546 Y2.9238
G01 X27.6555 Y2.6247
G01 X27.6513 Y2.6194
G01 X27.6476 Y2.6126
G01 X27.6454 Y2.6052
G01 X27.6446 Y2.5975
G01 X27.6454 Y2.5898
G01 X27.6476 Y2.5824
G01 X27.6513 Y2.5756
G01 X27.6562 Y2.5696
G00 Z2.0000
G00 X28.0097 Y2.9231
G01 F60.00
G01 Z-0.0300
G01 F60.00
G01 X28.7169 Y2.2159
G01 X28.7237 Y2.2104
G01 X28.7315 Y2.2066
G01 X28.7361 Y2.2053
G01 X28.7419 Y2.2044
G01 X28.7467 Y2.2043
G01 X28.7525 Y2.2051
G01 X28.7572 Y2.2063
G01 X28.7626 Y2.2085
G01 X28.7675 Y2.2115
G01 X28.7713 Y2.2145
G01 X29.0697 Y2.5129
G01 X29.0752 Y2.5197
G01 X29.0790 Y2.5275
G01 X29.0805 Y2.5331
G01 X29.0812 Y2.5379
G01 X29.0812 Y2.5437
G01 X29.0805 Y2.5485
G01 X29.0790 Y2.5541
G01 X29.0771 Y2.5586
G01 X29.0741 Y2.5635
G01 X29.0704 Y2.5680
G01 X28.3625 Y3.2759
G01 X28.3557 Y3.2814
G01 X28.3479 Y3.2852
G01 X28.3433 Y3.2865
G01 X28.3375 Y3.2874
G01 X28.3327 Y3.2875
G01 X28.3269 Y3.2867
G01 X28.3213 Y3.2852
G01 X28.3168 Y3.2833
G01 X28.3127 Y3.2808
G01 X28.3081 Y3.2773
G01 X28.0090 Y2.9782
G01 X28.0048 Y2.9729
G01 X28.0011 Y2.9661
G01 X27.9989 Y2.9587
G01 X27.9981 Y2.9510
G01 X27.9989 Y2.9433
G01 X28.0011 Y2.9359
G01 X28.0048 Y2.9291
G01 X28.0097 Y2.9231
G00 Z2.0000
G00 X28.3633 Y3.2767
G01 F60.00
G01 Z-0.0300
G01 F60.00
G01 X29.0705 Y2.5695
G01 X29.0773 Y2.5640
G01 X29.0851 Y2.5602
G01 X29.0897 Y2.5589
G01 X29.0955 Y2.5580
G01 X29.1003 Y2.5579
G01 X29.1061 Y2.5587
G01 X29.1108 Y2.5599
G01 X29.1162 Y2.5621
G01 X29.1211 Y2.5651
G01 X29.1249 Y2.5681
G01 X29.4233 Y2.8665
G01 X29.4288 Y2.8733
G01 X29.4326 Y2.8811
G01 X29.4341 Y2.8867
G01 X29.4348 Y2.8915
G01 X29.4348 Y2.8973
G01 X29.4341 Y2.9021
G01 X29.4326 Y2.9077
G01 X29.4307 Y2.9122
G01 X29.4277 Y2.9171
G01 X29.4240 Y2.9216
G01 X28.7161 Y3.6295
G01 X28.7093 Y3.6350
G01 X28.7015 Y3.6388
G01 X28.6969 Y3.6401
G01 X28.6911 Y3.6410
G01 X28.6863 Y3.6411
G01 X28.6805 Y3.6403
G01 X28.6749 Y3.6388
G01 X28.6704 Y3.6369
G01 X28.6663 Y3.6344
G01 X28.6617 Y3.6309
G01 X28.3626 Y3.3318
G01 X28.3584 Y3.3265
G01 X28.3547 Y3.3197
G01 X28.3525 Y3.3123
G01 X28.3517 Y3.3046
G01 X28.3525 Y3.2969
G01 X28.3547 Y3.2895
G01 X28.3584 Y3.2827
G01 X28.3633 Y3.2767
G00 Z2.0000
G00 X28.7168 Y3.6302
G01 F60.00
G01 Z-0.0300
G01 F60.00
G01 X29.4240 Y2.9230
G01 X29.4308 Y2.9175
G01 X29.4386 Y2.9137
G01 X29.4432 Y2.9124
G01 X29.4490 Y2.9115
G01 X29.4538 Y2.9114
G01 X29.4596 Y2.9122
G01 X29.4643 Y2.9134
G01 X29.4697 Y2.9156
G01 X29.4746 Y2.9186
G01 X29.4784 Y2.9216
G01 X29.7768 Y3.2200
G01 X29.7823 Y3.2268
G01 X29.7861 Y3.2346
G01 X29.7876 Y3.2402
G01 X29.7883 Y3.2450
G01 X29.7883 Y3.2508
G01 X29.7876 Y3.2556
G01 X29.7861 Y3.2612
G01 X29.7842 Y3.2657
G01 X29.7812 Y3.2706
G01 X29.7775 Y3.2751
G01 X29.0696 Y3.9830
G01 X29.0628 Y3.9885
G01 X29.0550 Y3.9923
G01 X29.0504 Y3.9936
G01 X29.0446 Y3.9945
G01 X29.0398 Y3.9946
G01 X29.0340 Y3.9938
G01 X29.0284 Y3.9923
G01 X29.0239 Y3.9904
G01 X29.0198 Y3.9879
G01 X29.0152 Y3.9844
G01 X28.7161 Y3.6853
G01 X28.7119 Y3.6800
G01 X28.7082 Y3.6732
G01 X28.7060 Y3.6658
G01 X28.7052 Y3.6581
G01 X28.7060 Y3.6504
G01 X28.7082 Y3.6430
G01 X28.7119 Y3.6362
G01 X28.7168 Y3.6302
G00 Z2.0000
G00 X29.0704 Y3.9838
G01 F60.00
G01 Z-0.0300
G01 F60.00
G01 X29.7776 Y3.2766
G01 X29.7844 Y3.2711
G01 X29.7922 Y3.2673
G01 X29.7968 Y3.2660
G01 X29.8026 Y3.2651
G01 X29.8074 Y3.2650
G01 X29.8132 Y3.2658
G01 X29.8179 Y3.2670
G01 X29.8233 Y3.2692
G01 X29.8282 Y3.2722
G01 X29.8320 Y3.2752
G01 X30.1304 Y3.5736
G01 X30.1359 Y3.5804
G01 X30.1397 Y3.5882
G01 X30.1412 Y3.5938
G01 X30.1419 Y3.5986
G01 X30.1419 Y3.6044
G01 X30.1412 Y3.6092
G01 X30.1397 Y3.6148
G01 X30.1378 Y3.6193
G01 X30.1348 Y3.6242
G01 X30.1311 Y3.6287
G01 X29.4232 Y4.3366
G01 X29.4164 Y4.3421
G01 X29.4086 Y4.3459
G01 X29.4040 Y4.3472
G01 X29.3982 Y4.3481
G01 X29.3934 Y4.3482
G01 X29.3876 Y4.3474
G01 X29.3820 Y4.3459
G01 X29.3775 Y4.3440
G01 X29.3734 Y4.3415
G01 X29.3688 Y4.3380
G01 X29.0697 Y4.0389
G01 X29.0655 Y4.0336
G01 X29.0618 Y4.0268
G01 X29.0596 Y4.0194
G01 X29.0588 Y4.0117
G01 X29.0596 Y4.0040
G01 X29.0618 Y3.9966
G01 X29.0655 Y3.9898
G01 X29.0704 Y3.9838
G00 Z2.0000
G00 X29.4239 Y4.3373
G01 F60.00
G01 Z-0.0300
G01 F60.00
G01 X30.1311 Y3.6301
G01 X30.1379 Y3.6246
G01 X30.1457 Y3.6208
G01 X30.1503 Y3.6195
G01 X30.1561 Y3.6186
G01 X30.1609 Y3.6185
G01 X30.1667 Y3.6193
G01 X30.1714 Y3.6205
G01 X30.1768 Y3.6227
G01 X30.1817 Y3.6257
G01 X30.1855 Y3.6287
G01 X30.4839 Y3.9271
G01 X30.4894 Y3.9339
G01 X30.4932 Y3.9417
G01 X30.4947 Y3.9473
G01 X30.4954 Y3.9521
G01 X30.4954 Y3.9579
G01 X30.4947 Y3.9627
G01 X30.4932 Y3.9683
G01 X30.4913 Y3.9728
G01 X30.4883 Y3.9777
G01 X30.4846 Y3.9822
G01 X29.7767 Y4.6901
G01 X29.7699 Y4.6956
G01 X29.7621 Y4.6994
G01 X29.7575 Y4.7007
G01 X29.7517 Y4.7016
G01 X29.7469 Y4.7017
G01 X29.7411 Y4.7009
G01 X29.7355 Y4.6994
G01 X29.7310 Y4.6975
G01 X29.7269 Y4.6950
G01 X29.7223 Y4.6915
G01 X29.4232 Y4.3924
G01 X29.4190 Y4.3871
G01 X29.4153 Y4.3803
G01 X29.4131 Y4.3729
G01 X29.4123 Y4.3652
G01 X29.4131 Y4.3575
G01 X29.4153 Y4.3501
G01 X29.4190 Y4.3433
G01 X29.4239 Y4.3373
G00 Z2.0000
G00 X29.7775 Y4.6909
G01 F60.00
G01 Z-0.0300
G01 F60.00
G01 X30.4847 Y3.9837
G01 X30.4915 Y3.9782
G01 X30.4993 Y3.9744
G01 X30.5039 Y3.9731
G01 X30.5097 Y3.9722
G01 X30.5145 Y3.9721
G01 X30.5203 Y3.9729
G01 X30.5250 Y3.9741
G01 X30.5304 Y3.9763
G01 X30.5353 Y3.9793
G01 X30.5391 Y3.9823
G01 X30.8375 Y4.2807
G01 X30.8430 Y4.2875
G01 X30.8468 Y4.2953
G01 X30.8483 Y4.3009
G01 X30.8490 Y4.3057
G01 X30.8490 Y4.3115
G01 X30.8483 Y4.3163
G01 X30.8468 Y4.3219
G01 X30.8449 Y4.3264
G01 X30.8419 Y4.3313
G01 X30.8382 Y4.3358
G01 X30.1303 Y5.0437
G01 X30.1235 Y5.0492
G01 X30.1157 Y5.0530
G01 X30.1111 Y5.0543
G01 X30.1053 Y5.0552
G01 X30.1005 Y5.0553
G01 X30.0947 Y5.0545
G01 X30.0891 Y5.0530
G01 X30.0846 Y5.0511
G01 X30.0805 Y5.0486
G01 X30.0759 Y5.0451
G01 X29.7768 Y4.7460
G01 X29.7726 Y4.7407
G01 X29.7689 Y4.7339
G01 X29.7667 Y4.7265
G01 X29.7659 Y4.7188
G01 X29.7667 Y4.7111
G01 X29.7689 Y4.7037
G01 X29.7726 Y4.6969
G01 X29.7775 Y4.6909
G00 Z2.0000
G00 X29.7845 Y5.4121
G01 F60.00
G01 Z-0.0300
G01 F60.00
G01 X30.0829 Y5.1137
G01 X30.0875 Y5.1102
G01 X30.0916 Y5.1077
G01 X30.0970 Y5.1055
G01 X30.1026 Y5.1041
G01 X30.1075 Y5.1035
G01 X30.1133 Y5.1037
G01 X30.1190 Y5.1047
G01 X30.1245 Y5.1065
G01 X30.1313 Y5.1102
G01 X30.1373 Y5.1151
G01 X30.8452 Y5.8230
G01 X30.8489 Y5.8275
G01 X30.8519 Y5.8324
G01 X30.8541 Y5.8378
G01 X30.8555 Y5.8434
G01 X30.8561 Y5.8492
G01 X30.8558 Y5.8550
G01 X30.8549 Y5.8598
G01 X30.8531 Y5.8653
G01 X30.8494 Y5.8721
G01 X30.8445 Y5.8781
G01 X30.5461 Y6.1765
G01 X30.5415 Y6.1800
G01 X30.5365 Y6.1829
G01 X30.5320 Y6.1847
G01 X30.5264 Y6.1861
G01 X30.5206 Y6.1867
G01 X30.5148 Y6.1864
G01 X30.5100 Y6.1855
G01 X30.5045 Y6.1837
G01 X30.4977 Y6.1800
G01 X30.4917 Y6.1751
G01 X29.7838 Y5.4672
G01 X29.7790 Y5.4611
G01 X29.7755 Y5.4542
G01 X29.7735 Y5.4468
G01 X29.7729 Y5.4400
G01 X29.7737 Y5.4323
G01 X29.7759 Y5.4249
G01 X29.7796 Y5.4181
G01 X29.7845 Y5.4121
G00 Z2.0000
G00 X29.4310 Y5.7656
G01 F60.00
G01 Z-0.0300
G01 F60.00
G01 X29.7294 Y5.4672
G01 X29.7340 Y5.4637
G01 X29.7381 Y5.4612
G01 X29.7435 Y5.4590
G01 X29.7491 Y5.4576
G01 X29.7540 Y5.4570
G01 X29.7598 Y5.4572
G01 X29.7655 Y5.4582
G01 X29.7710 Y5.4600
G01 X29.7778 Y5.4637
G01 X29.7838 Y5.4686
G01 X30.4917 Y6.1765
G01 X30.4954 Y6.1810
G01 X30.4984 Y6.1859
G01 X30.5006 Y6.1913
G01 X30.5020 Y6.1969
G01 X30.5026 Y6.2027
G01 X30.5023 Y6.2085
G01 X30.5014 Y6.2133
G01 X30.4996 Y6.2188
G01 X30.4959 Y6.2256
G01 X30.4910 Y6.2316
G01 X30.1926 Y6.5300
G01 X30.1880 Y6.5335
G01 X30.1830 Y6.5364
G01 X30.1785 Y6.5382
G01 X30.1729 Y6.5396
G01 X30.1671 Y6.5402
G01 X30.1613 Y6.5399
G01 X30.1565 Y6.5390
G01 X30.1510 Y6.5372
G01 X30.1442 Y6.5335
G01 X30.1382 Y6.5286
G01 X29.4303 Y5.8207
G01 X29.4255 Y5.8146
G01 X29.4220 Y5.8077
G01 X29.4200 Y5.8003
G01 X29.4194 Y5.7935
G01 X29.4202 Y5.7858
G01 X29.4224 Y5.7784
G01 X29.4261 Y5.7716
G01 X29.4310 Y5.7656
G00 Z2.0000
G00 X29.0774 Y6.1192
G01 F60.00
G01 Z-0.0300
G01 F60.00
G01 X29.3758 Y5.8208
G01 X29.3804 Y5.8173
G01 X29.3845 Y5.8148
G01 X29.3899 Y5.8126
G01 X29.3955 Y5.8112
G01 X29.4004 Y5.8106
G01 X29.4062 Y5.8108
G01 X29.4119 Y5.8118
G01 X29.4174 Y5.8136
G01 X29.4242 Y5.8173
G01 X29.4302 Y5.8222
G01 X30.1381 Y6.5301
G01 X30.1418 Y6.5346
G01 X30.1448 Y6.5395
G01 X30.1470 Y6.5449
G01 X30.1484 Y6.5505
G01 X30.1490 Y6.5563
G01 X30.1487 Y6.5621
G01 X30.1478 Y6.5669
G01 X30.1460 Y6.5724
G01 X30.1423 Y6.5792
G01 X30.1374 Y6.5852
G01 X29.8390 Y6.8836
G01 X29.8344 Y6.8871
G01 X29.8294 Y6.8900
G01 X29.8249 Y6.8918
G01 X29.8193 Y6.8932
G01 X29.8135 Y6.8938
G01 X29.8077 Y6.8935
G01 X29.8029 Y6.8926
G01 X29.7974 Y6.8908
G01 X29.7906 Y6.8871
G01 X29.7846 Y6.8822
G01 X29.0767 Y6.1743
G01 X29.0719 Y6.1682
G01 X29.0684 Y6.1613
G01 X29.0664 Y6.1539
G01 X29.0658 Y6.1471
G01 X29.0666 Y6.1394
G01 X29.0688 Y6.1320
G01 X29.0725 Y6.1252
G01 X29.0774 Y6.1192
G00 Z2.0000
G00 X28.7239 Y6.4727
G01 F60.00
G01 Z-0.0300
G01 F60.00
G01 X29.0230 Y6.1737
G01 X29.0285 Y6.1697
G01 X29.0346 Y6.1667
G01 X29.0411 Y6.1649
G01 X29.0478 Y6.1641
G01 X29.0546 Y6.1645
G01 X29.0621 Y6.1664
G01 X29.0683 Y6.1692
G01 X29.0739 Y6.1731
G01 X29.7839 Y6.8829
G01 X29.7888 Y6.8889
G01 X29.7921 Y6.8948
G01 X29.7943 Y6.9012
G01 X29.7954 Y6.9084
G01 X31.9939 Y9.1069
G01 X32.0083 Y9.1229
G01 X32.0223 Y9.1418
G01 X32.0344 Y9.1620
G01 X32.0437 Y9.1814
G01 X32.0529 Y9.2072
G01 X32.0581 Y9.2282
G01 X32.0615 Y9.2514
G01 X32.0627 Y9.2749
G01 X32.0627 Y9.8380
G01 X32.0615 Y9.8615
G01 X32.0581 Y9.8847
G01 X32.0524 Y9.9076
G01 X32.0445 Y9.9297
G01 X32.0344 Y9.9509
G01 X32.0223 Y9.9711
G01 X32.0083 Y9.9900
G01 X31.9911 Y10.0088
G01 X31.9751 Y10.0232
G01 X31.9562 Y10.0372
G01 X31.9360 Y10.0493
G01 X31.9148 Y10.0594
G01 X31.8927 Y10.0673
G01 X31.8698 Y10.0730
G01 X31.8466 Y10.0764
G01 X31.8231 Y10.0776
G01 X31.7996 Y10.0764
G01 X31.7764 Y10.0730
G01 X31.7535 Y10.0673
G01 X31.7314 Y10.0594
G01 X31.7102 Y10.0493
G01 X31.6900 Y10.0372
G01 X31.6711 Y10.0232
G01 X31.6523 Y10.0060
G01 X31.6379 Y9.9900
G01 X31.6239 Y9.9711
G01 X31.6118 Y9.9509
G01 X31.6025 Y9.9315
G01 X31.5933 Y9.9057
G01 X31.5881 Y9.8847
G01 X31.5847 Y9.8615
G01 X31.5835 Y9.8380
G01 X31.5835 Y9.3741
G01 X29.4566 Y7.2472
G01 X29.4494 Y7.2461
G01 X29.4430 Y7.2439
G01 X29.4371 Y7.2406
G01 X29.4311 Y7.2357
G01 X28.7239 Y6.5285
G01 X28.7190 Y6.5225
G01 X28.7153 Y6.5157
G01 X28.7131 Y6.5083
G01 X28.7123 Y6.5006
G01 X28.7131 Y6.4929
G01 X28.7153 Y6.4855
G01 X28.7190 Y6.4787
G01 X28.7239 Y6.4727
G00 Z2.0000
G00 X28.3703 Y6.8263
G01 F60.00
G01 Z-0.0300
G01 F60.00
G01 X28.6694 Y6.5273
G01 X28.6749 Y6.5233
G01 X28.6810 Y6.5203
G01 X28.6875 Y6.5185
G01 X28.6942 Y6.5177
G01 X28.7010 Y6.5181
G01 X28.7076 Y6.5197
G01 X28.7138 Y6.5224
G01 X28.7195 Y6.5261
G01 X28.7231 Y6.5293
G01 X29.4303 Y7.2365
G01 X29.4352 Y7.2425
G01 X29.4385 Y7.2484
G01 X29.4407 Y7.2548
G01 X29.4418 Y7.2620
G01 X29.8034 Y7.6235
G01 X29.8090 Y7.6263
G01 X29.8291 Y7.6384
G01 X29.8472 Y7.6519
G01 X29.8632 Y7.6663
G01 X29.9605 Y7.7636
G01 X29.9763 Y7.7810
G01 X29.9903 Y7.7999
G01 X30.0015 Y7.8184
G01 X30.0132 Y7.8431
G01 X30.0204 Y7.8634
G01 X30.0261 Y7.8863
G01 X30.0295 Y7.9095
G01 X30.0307 Y7.9330
G01 X30.0295 Y7.9565
G01 X30.0264 Y7.9778
G01 X30.0198 Y8.0044
G01 X30.0125 Y8.0247
G01 X30.0024 Y8.0459
G01 X29.9903 Y8.0661
G01 X29.9769 Y8.0842
G01 X29.9605 Y8.1024
G01 X29.9431 Y8.1182
G01 X29.9242 Y8.1322
G01 X29.9040 Y8.1443
G01 X29.8828 Y8.1544
G01 X29.8607 Y8.1623
G01 X29.8378 Y8.1680
G01 X29.8146 Y8.1714
G01 X29.7911 Y8.1726
G01 X29.7676 Y8.1714
G01 X29.7444 Y8.1680
G01 X29.7215 Y8.1623
G01 X29.6994 Y8.1544
G01 X29.6782 Y8.1443
G01 X29.6580 Y8.1322
G01 X29.6399 Y8.1188
G01 X29.6224 Y8.1031
G01 X29.5697 Y8.0506
G01 X29.5644 Y8.0479
G01 X29.5443 Y8.0358
G01 X29.5262 Y8.0224
G01 X29.5095 Y8.0072
G01 X29.1030 Y7.6008
G01 X29.0958 Y7.5997
G01 X29.0894 Y7.5975
G01 X29.0835 Y7.5942
G01 X29.0782 Y7.5900
G01 X28.3703 Y6.8821
G01 X28.3654 Y6.8761
G01 X28.3617 Y6.8693
G01 X28.3595 Y6.8619
G01 X28.3587 Y6.8542
G01 X28.3595 Y6.8465
G01 X28.3617 Y6.8391
G01 X28.3654 Y6.8323
G01 X28.3703 Y6.8263
G00 Z2.0000
G00 X28.0168 Y7.1798
G01 F60.00
G01 Z-0.0300
G01 F60.00
G01 X28.3159 Y6.8808
G01 X28.3206 Y6.8773
G01 X28.3266 Y6.8742
G01 X28.3330 Y6.8722
G01 X28.3398 Y6.8712
G01 X28.3465 Y6.8715
G01 X28.3532 Y6.8729
G01 X28.3595 Y6.8754
G01 X28.3644 Y6.8784
G01 X28.3696 Y6.8828
G01 X29.0768 Y7.5900
G01 X29.0817 Y7.5960
G01 X29.0850 Y7.6019
G01 X29.0872 Y7.6083
G01 X29.0883 Y7.6155
G01 X30.0875 Y8.6148
G01 X30.1020 Y8.6307
G01 X30.1184 Y8.6527
G01 X30.1294 Y8.6713
G01 X30.1402 Y8.6943
G01 X30.1474 Y8.7147
G01 X30.1531 Y8.7375
G01 X30.1565 Y8.7607
G01 X30.1577 Y8.7842
G01 X30.1577 Y8.8230
G01 X30.1565 Y8.8455
G01 X30.1531 Y8.8687
G01 X30.1477 Y8.8906
G01 X30.1395 Y8.9137
G01 X30.1294 Y8.9349
G01 X30.1173 Y8.9551
G01 X30.1039 Y8.9732
G01 X30.0875 Y8.9914
G01 X30.0716 Y9.0059
G01 X30.0496 Y9.0223
G01 X30.0310 Y9.0333
G01 X30.0098 Y9.0434
G01 X29.9877 Y9.0513
G01 X29.9639 Y9.0572
G01 X29.9416 Y9.0604
G01 X29.9181 Y9.0616
G01 X29.8946 Y9.0604
G01 X29.8714 Y9.0570
G01 X29.8485 Y9.0513
G01 X29.8264 Y9.0434
G01 X29.8052 Y9.0333
G01 X29.7898 Y9.0242
G01 X31.1395 Y10.3738
G01 X31.1528 Y10.3786
G01 X31.1732 Y10.3882
G01 X31.1950 Y10.4013
G01 X31.2131 Y10.4148
G01 X31.2291 Y10.4292
G01 X31.2463 Y10.4480
G01 X31.2603 Y10.4669
G01 X31.2724 Y10.4871
G01 X31.2825 Y10.5083
G01 X31.2904 Y10.5304
G01 X31.2961 Y10.5533
G01 X31.2995 Y10.5765
G01 X31.3007 Y10.6000
G01 X31.2995 Y10.6235
G01 X31.2961 Y10.6467
G01 X31.2904 Y10.6696
G01 X31.2825 Y10.6917
G01 X31.2724 Y10.7129
G01 X31.2603 Y10.7331
G01 X31.2463 Y10.7520
G01 X31.2305 Y10.7694
G01 X31.2146 Y10.7839
G01 X31.1942 Y10.7992
G01 X31.1757 Y10.8104
G01 X31.1510 Y10.8221
G01 X31.1307 Y10.8293
G01 X31.1078 Y10.8350
G01 X31.0846 Y10.8384
G01 X31.0611 Y10.8396
G01 X31.0258 Y10.8396
G01 X31.0033 Y10.8384
G01 X30.9801 Y10.8350
G01 X30.9582 Y10.8296
G01 X30.9351 Y10.8214
G01 X30.9139 Y10.8113
G01 X30.8937 Y10.7992
G01 X30.8756 Y10.7858
G01 X30.8574 Y10.7694
G01 X29.7756 Y9.6876
G01 X29.7767 Y9.7110
G01 X29.7757 Y9.7326
G01 X29.7721 Y9.7577
G01 X29.7664 Y9.7806
G01 X29.7592 Y9.8009
G01 X29.7475 Y9.8256
G01 X29.7363 Y9.8441
G01 X29.7235 Y9.8615
G01 X29.7051 Y9.8818
G01 X29.6891 Y9.8962
G01 X29.6702 Y9.9102
G01 X29.6500 Y9.9223
G01 X29.6306 Y9.9316
G01 X29.6048 Y9.9408
G01 X29.5838 Y9.9460
G01 X29.5596 Y9.9495
G01 X29.5371 Y9.9506
G01 X29.4307 Y9.9506
G01 X29.4082 Y9.9495
G01 X29.3821 Y9.9456
G01 X29.3611 Y9.9403
G01 X29.3408 Y9.9331
G01 X29.3178 Y9.9223
G01 X29.2960 Y9.9091
G01 X29.2787 Y9.8962
G01 X29.2613 Y9.8804
G01 X28.0424 Y8.6615
G01 X28.0352 Y8.6604
G01 X28.0288 Y8.6582
G01 X28.0229 Y8.6549
G01 X28.0169 Y8.6500
G01 X27.3083 Y7.9414
G01 X27.3042 Y7.9360
G01 X27.3007 Y7.9291
G01 X27.2987 Y7.9217
G01 X27.2981 Y7.9139
G01 X27.2991 Y7.9062
G01 X27.3015 Y7.8989
G01 X27.3048 Y7.8930
G01 X27.3097 Y7.8870
G01 X27.6088 Y7.5880
G01 X27.6135 Y7.5845
G01 X27.6195 Y7.5814
G01 X27.6259 Y7.5794
G01 X27.6327 Y7.5784
G01 X27.6385 Y7.5786
G01 X27.6451 Y7.5798
G01 X27.6515 Y7.5822
G01 X27.6565 Y7.5851
G01 X27.6625 Y7.5900
G01 X28.3697 Y8.2972
G01 X28.3746 Y8.3032
G01 X28.3779 Y8.3091
G01 X28.3801 Y8.3155
G01 X28.3812 Y8.3227
G01 X29.5299 Y9.4714
G01 X29.5390 Y9.4714
G01 X29.5605 Y9.4725
G01 X28.3959 Y8.3079
G01 X28.3887 Y8.3068
G01 X28.3823 Y8.3046
G01 X28.3764 Y8.3013
G01 X28.3704 Y8.2964
G01 X27.6632 Y7.5892
G01 X27.6583 Y7.5832
G01 X27.6550 Y7.5773
G01 X27.6528 Y7.5709
G01 X27.6517 Y7.5642
G01 X27.6518 Y7.5574
G01 X27.6530 Y7.5508
G01 X27.6554 Y7.5444
G01 X27.6588 Y7.5386
G01 X27.6632 Y7.5334
G01 X27.9623 Y7.2344
G01 X27.9670 Y7.2309
G01 X27.9730 Y7.2278
G01 X27.9794 Y7.2258
G01 X27.9862 Y7.2248
G01 X27.9920 Y7.2250
G01 X27.9986 Y7.2262
G01 X28.0050 Y7.2286
G01 X28.0100 Y7.2315
G01 X28.0160 Y7.2364
G01 X28.7232 Y7.9436
G01 X28.7281 Y7.9496
G01 X28.7314 Y7.9555
G01 X28.7336 Y7.9619
G01 X28.7347 Y7.9691
G01 X29.7159 Y8.9503
G01 X29.7068 Y8.9349
G01 X29.6975 Y8.9155
G01 X29.6900 Y8.8949
G01 X28.7494 Y7.9543
G01 X28.7423 Y7.9532
G01 X28.7359 Y7.9510
G01 X28.7292 Y7.9472
G01 X28.7240 Y7.9428
G01 X28.0161 Y7.2349
G01 X28.0113 Y7.2288
G01 X28.0078 Y7.2219
G01 X28.0058 Y7.2145
G01 X28.0052 Y7.2077
G01 X28.0060 Y7.2000
G01 X28.0082 Y7.1926
G01 X28.0119 Y7.1858
G01 X28.0168 Y7.1798
G00 Z2.0000
G00 X26.9561 Y8.2405
G01 F60.00
G01 Z-0.0300
G01 F60.00
G01 X27.2552 Y7.9415
G01 X27.2615 Y7.9370
G01 X27.2677 Y7.9342
G01 X27.2742 Y7.9325
G01 X27.2810 Y7.9319
G01 X27.2887 Y7.9327
G01 X27.2952 Y7.9345
G01 X27.3013 Y7.9375
G01 X27.3068 Y7.9415
G01 X28.0161 Y8.6507
G01 X28.0210 Y8.6567
G01 X28.0243 Y8.6626
G01 X28.0265 Y8.6690
G01 X28.0276 Y8.6762
G01 X28.4333 Y9.0819
G01 X28.4497 Y9.1001
G01 X28.4631 Y9.1182
G01 X28.4743 Y9.1367
G01 X28.4853 Y9.1596
G01 X28.4937 Y9.1836
G01 X28.4989 Y9.2046
G01 X28.5022 Y9.2262
G01 X28.6905 Y9.4146
G01 X28.7050 Y9.4305
G01 X28.7214 Y9.4525
G01 X28.7324 Y9.4711
G01 X28.7425 Y9.4923
G01 X28.7504 Y9.5144
G01 X28.7557 Y9.5354
G01 X28.7595 Y9.5605
G01 X28.7607 Y9.5859
G01 X28.7595 Y9.6075
G01 X28.7564 Y9.6288
G01 X28.7504 Y9.6536
G01 X28.7417 Y9.6775
G01 X28.7324 Y9.6969
G01 X28.7214 Y9.7155
G01 X28.7057 Y9.7367
G01 X28.6905 Y9.7534
G01 X28.6731 Y9.7692
G01 X28.6542 Y9.7832
G01 X28.6340 Y9.7953
G01 X28.6128 Y9.8054
G01 X28.5907 Y9.8133
G01 X28.5678 Y9.8190
G01 X28.5446 Y9.8224
G01 X28.5211 Y9.8236
G01 X28.4976 Y9.8224
G01 X28.4744 Y9.8190
G01 X28.4515 Y9.8133
G01 X28.4294 Y9.8054
G01 X28.4082 Y9.7953
G01 X28.3880 Y9.7832
G01 X28.3684 Y9.7686
G01 X28.3517 Y9.7534
G01 X28.0945 Y9.4962
G01 X28.0787 Y9.4788
G01 X28.0647 Y9.4599
G01 X28.0535 Y9.4414
G01 X28.0425 Y9.4185
G01 X28.0341 Y9.3945
G01 X28.0289 Y9.3735
G01 X28.0256 Y9.3519
G01 X27.6888 Y9.0150
G01 X27.6816 Y9.0139
G01 X27.6752 Y9.0117
G01 X27.6693 Y9.0084
G01 X27.6633 Y9.0035
G01 X26.9547 Y8.2949
G01 X26.9506 Y8.2895
G01 X26.9471 Y8.2826
G01 X26.9451 Y8.2752
G01 X26.9445 Y8.2674
G01 X26.9455 Y8.2597
G01 X26.9479 Y8.2524
G01 X26.9512 Y8.2465
G01 X26.9561 Y8.2405
G00 Z2.0000
G00 X26.6026 Y8.5941
G01 F60.00
G01 Z-0.0300
G01 F60.00
G01 X26.9010 Y8.2957
G01 X26.9056 Y8.2922
G01 X26.9106 Y8.2893
G01 X26.9151 Y8.2875
G01 X26.9207 Y8.2861
G01 X26.9265 Y8.2855
G01 X26.9323 Y8.2858
G01 X26.9371 Y8.2867
G01 X26.9426 Y8.2885
G01 X26.9494 Y8.2922
G01 X26.9554 Y8.2971
G01 X27.6633 Y9.0050
G01 X27.6670 Y9.0095
G01 X27.6700 Y9.0144
G01 X27.6722 Y9.0198
G01 X27.6736 Y9.0254
G01 X27.6742 Y9.0312
G01 X27.6739 Y9.0370
G01 X27.6730 Y9.0418
G01 X27.6712 Y9.0473
G01 X27.6675 Y9.0541
G01 X27.6626 Y9.0601
G01 X27.3642 Y9.3585
G01 X27.3596 Y9.3620
G01 X27.3546 Y9.3649
G01 X27.3501 Y9.3667
G01 X27.3445 Y9.3681
G01 X27.3387 Y9.3687
G01 X27.3329 Y9.3684
G01 X27.3272 Y9.3673
G01 X27.3226 Y9.3657
G01 X27.3158 Y9.3620
G01 X27.3098 Y9.3571
G01 X26.6019 Y8.6492
G01 X26.5971 Y8.6431
G01 X26.5936 Y8.6362
G01 X26.5916 Y8.6288
G01 X26.5910 Y8.6220
G01 X26.5918 Y8.6143
G01 X26.5940 Y8.6069
G01 X26.5977 Y8.6001
G01 X26.6026 Y8.5941
G00 Z2.0000
G00 X26.2490 Y8.9476
G01 F60.00
G01 Z-0.0300
G01 F60.00
G01 X26.5481 Y8.6486
G01 X26.5536 Y8.6446
G01 X26.5597 Y8.6416
G01 X26.5662 Y8.6398
G01 X26.5729 Y8.6390
G01 X26.5797 Y8.6394
G01 X26.5872 Y8.6413
G01 X26.5934 Y8.6441
G01 X26.5990 Y8.6480
G01 X27.3090 Y9.3578
G01 X27.3139 Y9.3638
G01 X27.3172 Y9.3697
G01 X27.3194 Y9.3761
G01 X27.3205 Y9.3833
G01 X27.6586 Y9.7213
G01 X27.6722 Y9.7234
G01 X27.6941 Y9.7288
G01 X27.7181 Y9.7374
G01 X27.7384 Y9.7471
G01 X27.7570 Y9.7581
G01 X27.7790 Y9.7745
G01 X27.7949 Y9.7890
G01 X28.3095 Y10.3036
G01 X28.3247 Y10.3203
G01 X28.3393 Y10.3399
G01 X28.3505 Y10.3584
G01 X28.3622 Y10.3831
G01 X28.3694 Y10.4034
G01 X28.3751 Y10.4263
G01 X28.3785 Y10.4495
G01 X28.3797 Y10.4730
G01 X28.3785 Y10.4965
G01 X28.3751 Y10.5197
G01 X28.3694 Y10.5426
G01 X28.3622 Y10.5629
G01 X28.3505 Y10.5876
G01 X28.3393 Y10.6061
G01 X28.3253 Y10.6250
G01 X28.3095 Y10.6424
G01 X28.2921 Y10.6582
G01 X28.2732 Y10.6722
G01 X28.2530 Y10.6843
G01 X28.2318 Y10.6944
G01 X28.2097 Y10.7023
G01 X28.1868 Y10.7080
G01 X28.1636 Y10.7114
G01 X28.1401 Y10.7126
G01 X28.1166 Y10.7114
G01 X28.0934 Y10.7080
G01 X28.0705 Y10.7023
G01 X28.0484 Y10.6944
G01 X28.0272 Y10.6843
G01 X28.0070 Y10.6722
G01 X27.9881 Y10.6582
G01 X27.9707 Y10.6424
G01 X27.5237 Y10.1955
G01 X27.5101 Y10.1934
G01 X27.4882 Y10.1880
G01 X27.4642 Y10.1794
G01 X27.4439 Y10.1697
G01 X27.4253 Y10.1587
G01 X27.4041 Y10.1430
G01 X27.3874 Y10.1278
G01 X26.9817 Y9.7221
G01 X26.9745 Y9.7210
G01 X26.9681 Y9.7188
G01 X26.9622 Y9.7155
G01 X26.9562 Y9.7106
G01 X26.2476 Y9.0020
G01 X26.2435 Y8.9966
G01 X26.2400 Y8.9897
G01 X26.2380 Y8.9823
G01 X26.2374 Y8.9745
G01 X26.2384 Y8.9668
G01 X26.2408 Y8.9595
G01 X26.2441 Y8.9536
G01 X26.2490 Y8.9476
G00 Z2.0000
G00 X25.8955 Y9.3012
G01 F60.00
G01 Z-0.0300
G01 F60.00
G01 X26.1946 Y9.0022
G01 X26.2001 Y8.9982
G01 X26.2062 Y8.9952
G01 X26.2117 Y8.9936
G01 X26.2185 Y8.9926
G01 X26.2252 Y8.9929
G01 X26.2309 Y8.9940
G01 X26.2373 Y8.9964
G01 X26.2431 Y8.9998
G01 X26.2483 Y9.0042
G01 X28.2396 Y10.9954
G01 X30.0451 Y10.9954
G01 X30.0686 Y10.9966
G01 X30.0909 Y10.9998
G01 X30.1147 Y11.0057
G01 X30.1368 Y11.0136
G01 X30.1580 Y11.0237
G01 X30.1798 Y11.0369
G01 X30.1971 Y11.0498
G01 X30.2131 Y11.0642
G01 X30.2290 Y11.0815
G01 X30.2443 Y11.1019
G01 X30.2564 Y11.1221
G01 X30.2665 Y11.1433
G01 X30.2749 Y11.1673
G01 X30.2801 Y11.1883
G01 X30.2833 Y11.2096
G01 X30.2847 Y11.2331
G01 X30.2835 Y11.2585
G01 X30.2801 Y11.2817
G01 X30.2744 Y11.3046
G01 X30.2657 Y11.3285
G01 X30.2564 Y11.3479
G01 X30.2454 Y11.3665
G01 X30.2303 Y11.3870
G01 X30.2131 Y11.4058
G01 X30.1971 Y11.4202
G01 X30.1798 Y11.4331
G01 X30.1580 Y11.4463
G01 X30.1350 Y11.4571
G01 X30.1147 Y11.4643
G01 X30.0937 Y11.4696
G01 X30.0667 Y11.4736
G01 X30.0451 Y11.4746
G01 X28.1404 Y11.4746
G01 X28.1169 Y11.4734
G01 X28.0937 Y11.4700
G01 X28.0708 Y11.4643
G01 X28.0469 Y11.4556
G01 X28.0275 Y11.4463
G01 X28.0073 Y11.4342
G01 X27.9884 Y11.4202
G01 X27.9717 Y11.4051
G01 X26.6410 Y10.0744
G01 X26.6354 Y10.0755
G01 X26.6306 Y10.0758
G01 X26.6258 Y10.0755
G01 X26.6210 Y10.0746
G01 X26.6155 Y10.0728
G01 X26.6111 Y10.0707
G01 X26.6071 Y10.0680
G01 X26.6034 Y10.0649
G01 X25.8955 Y9.3570
G01 X25.8906 Y9.3510
G01 X25.8869 Y9.3442
G01 X25.8847 Y9.3368
G01 X25.8839 Y9.3291
G01 X25.8847 Y9.3214
G01 X25.8869 Y9.3140
G01 X25.8906 Y9.3072
G01 X25.8955 Y9.3012
G00 Z2.0000
G00 X24.4176 Y9.3295
G01 F60.00
G01 Z-0.0300
G01 F60.00
G01 X25.1248 Y8.6223
G01 X25.1316 Y8.6168
G01 X25.1394 Y8.6130
G01 X25.1450 Y8.6115
G01 X25.1498 Y8.6108
G01 X25.1556 Y8.6108
G01 X25.1604 Y8.6115
G01 X25.1651 Y8.6127
G01 X25.1705 Y8.6149
G01 X25.1746 Y8.6174
G01 X25.1792 Y8.6209
G01 X25.4776 Y8.9193
G01 X25.4831 Y8.9261
G01 X25.4869 Y8.9339
G01 X25.4884 Y8.9395
G01 X25.4891 Y8.9443
G01 X25.4891 Y8.9501
G01 X25.4884 Y8.9549
G01 X25.4869 Y8.9605
G01 X25.4850 Y8.9650
G01 X25.4820 Y8.9699
G01 X25.4783 Y8.9744
G01 X24.7704 Y9.6823
G01 X24.7636 Y9.6878
G01 X24.7558 Y9.6916
G01 X24.7512 Y9.6929
G01 X24.7454 Y9.6938
G01 X24.7396 Y9.6938
G01 X24.7348 Y9.6931
G01 X24.7292 Y9.6916
G01 X24.7247 Y9.6897
G01 X24.7206 Y9.6872
G01 X24.7160 Y9.6837
G01 X24.4169 Y9.3846
G01 X24.4127 Y9.3793
G01 X24.4090 Y9.3725
G01 X24.4068 Y9.3651
G01 X24.4060 Y9.3574
G01 X24.4068 Y9.3497
G01 X24.4090 Y9.3423
G01 X24.4127 Y9.3355
G01 X24.4176 Y9.3295
G00 Z2.0000
G00 X24.0641 Y8.9760
G01 F60.00
G01 Z-0.0300
G01 F60.00
G01 X24.7713 Y8.2688
G01 X24.7781 Y8.2633
G01 X24.7859 Y8.2595
G01 X24.7915 Y8.2580
G01 X24.7963 Y8.2573
G01 X24.8021 Y8.2573
G01 X24.8069 Y8.2580
G01 X24.8116 Y8.2592
G01 X24.8170 Y8.2614
G01 X24.8211 Y8.2639
G01 X24.8257 Y8.2674
G01 X25.1241 Y8.5658
G01 X25.1296 Y8.5726
G01 X25.1334 Y8.5804
G01 X25.1349 Y8.5860
G01 X25.1356 Y8.5908
G01 X25.1356 Y8.5966
G01 X25.1349 Y8.6014
G01 X25.1334 Y8.6070
G01 X25.1315 Y8.6115
G01 X25.1285 Y8.6164
G01 X25.1248 Y8.6209
G01 X24.4169 Y9.3288
G01 X24.4101 Y9.3343
G01 X24.4023 Y9.3381
G01 X24.3977 Y9.3394
G01 X24.3919 Y9.3403
G01 X24.3861 Y9.3403
G01 X24.3813 Y9.3396
G01 X24.3757 Y9.3381
G01 X24.3712 Y9.3362
G01 X24.3671 Y9.3337
G01 X24.3625 Y9.3302
G01 X24.0634 Y9.0311
G01 X24.0592 Y9.0258
G01 X24.0555 Y9.0190
G01 X24.0533 Y9.0116
G01 X24.0525 Y9.0039
G01 X24.0533 Y8.9962
G01 X24.0555 Y8.9888
G01 X24.0592 Y8.9820
G01 X24.0641 Y8.9760
G00 Z2.0000
G00 X23.7105 Y8.6224
G01 F60.00
G01 Z-0.0300
G01 F60.00
G01 X24.4177 Y7.9152
G01 X24.4245 Y7.9097
G01 X24.4323 Y7.9059
G01 X24.4379 Y7.9044
G01 X24.4427 Y7.9037
G01 X24.4475 Y7.9036
G01 X24.4533 Y7.9044
G01 X24.4580 Y7.9056
G01 X24.4634 Y7.9078
G01 X24.4683 Y7.9108
G01 X24.4721 Y7.9138
G01 X24.7705 Y8.2122
G01 X24.7760 Y8.2190
G01 X24.7798 Y8.2268
G01 X24.7813 Y8.2324
G01 X24.7820 Y8.2372
G01 X24.7820 Y8.2430
G01 X24.7813 Y8.2478
G01 X24.7798 Y8.2534
G01 X24.7779 Y8.2579
G01 X24.7749 Y8.2628
G01 X24.7712 Y8.2673
G01 X24.0633 Y8.9752
G01 X24.0565 Y8.9807
G01 X24.0487 Y8.9845
G01 X24.0441 Y8.9858
G01 X24.0383 Y8.9867
G01 X24.0325 Y8.9867
G01 X24.0277 Y8.9860
G01 X24.0221 Y8.9845
G01 X24.0176 Y8.9826
G01 X24.0135 Y8.9801
G01 X24.0089 Y8.9766
G01 X23.7098 Y8.6775
G01 X23.7056 Y8.6722
G01 X23.7019 Y8.6654
G01 X23.6997 Y8.6580
G01 X23.6989 Y8.6503
G01 X23.6997 Y8.6426
G01 X23.7019 Y8.6352
G01 X23.7056 Y8.6284
G01 X23.7105 Y8.6224
G00 Z2.0000
G00 X23.3570 Y8.2689
G01 F60.00
G01 Z-0.0300
G01 F60.00
G01 X24.0642 Y7.5617
G01 X24.0710 Y7.5562
G01 X24.0788 Y7.5524
G01 X24.0844 Y7.5509
G01 X24.0892 Y7.5502
G01 X24.0940 Y7.5501
G01 X24.0998 Y7.5509
G01 X24.1045 Y7.5521
G01 X24.1099 Y7.5543
G01 X24.1148 Y7.5573
G01 X24.1186 Y7.5603
G01 X24.4170 Y7.8587
G01 X24.4225 Y7.8655
G01 X24.4263 Y7.8733
G01 X24.4278 Y7.8789
G01 X24.4285 Y7.8837
G01 X24.4285 Y7.8895
G01 X24.4278 Y7.8943
G01 X24.4263 Y7.8999
G01 X24.4244 Y7.9044
G01 X24.4214 Y7.9093
G01 X24.4177 Y7.9138
G01 X23.7098 Y8.6217
G01 X23.7030 Y8.6272
G01 X23.6952 Y8.6310
G01 X23.6906 Y8.6323
G01 X23.6848 Y8.6332
G01 X23.6790 Y8.6332
G01 X23.6742 Y8.6325
G01 X23.6686 Y8.6310
G01 X23.6641 Y8.6291
G01 X23.6600 Y8.6266
G01 X23.6554 Y8.6231
G01 X23.3563 Y8.3240
G01 X23.3521 Y8.3187
G01 X23.3484 Y8.3119
G01 X23.3462 Y8.3045
G01 X23.3454 Y8.2968
G01 X23.3462 Y8.2891
G01 X23.3484 Y8.2817
G01 X23.3521 Y8.2749
G01 X23.3570 Y8.2689
G00 Z2.0000
G00 X23.0034 Y7.9153
G01 F60.00
G01 Z-0.0300
G01 F60.00
G01 X23.7106 Y7.2081
G01 X23.7174 Y7.2026
G01 X23.7252 Y7.1988
G01 X23.7308 Y7.1973
G01 X23.7356 Y7.1966
G01 X23.7404 Y7.1965
G01 X23.7462 Y7.1973
G01 X23.7509 Y7.1985
G01 X23.7563 Y7.2007
G01 X23.7612 Y7.2037
G01 X23.7650 Y7.2067
G01 X24.0634 Y7.5051
G01 X24.0689 Y7.5119
G01 X24.0727 Y7.5197
G01 X24.0742 Y7.5253
G01 X24.0749 Y7.5301
G01 X24.0749 Y7.5359
G01 X24.0742 Y7.5407
G01 X24.0727 Y7.5463
G01 X24.0708 Y7.5508
G01 X24.0678 Y7.5557
G01 X24.0641 Y7.5602
G01 X23.3562 Y8.2681
G01 X23.3494 Y8.2736
G01 X23.3416 Y8.2774
G01 X23.3370 Y8.2787
G01 X23.3312 Y8.2796
G01 X23.3254 Y8.2796
G01 X23.3206 Y8.2789
G01 X23.3150 Y8.2774
G01 X23.3105 Y8.2755
G01 X23.3064 Y8.2730
G01 X23.3018 Y8.2695
G01 X23.0027 Y7.9704
G01 X22.9985 Y7.9651
G01 X22.9948 Y7.9583
G01 X22.9926 Y7.9509
G01 X22.9918 Y7.9432
G01 X22.9926 Y7.9355
G01 X22.9948 Y7.9281
G01 X22.9985 Y7.9213
G01 X23.0034 Y7.9153
G00 Z2.0000
G00 X22.6498 Y7.5618
G01 F60.00
G01 Z-0.0300
G01 F60.00
G01 X23.3570 Y6.8546
G01 X23.3638 Y6.8491
G01 X23.3716 Y6.8453
G01 X23.3772 Y6.8438
G01 X23.3820 Y6.8431
G01 X23.3868 Y6.8430
G01 X23.3926 Y6.8438
G01 X23.3973 Y6.8450
G01 X23.4027 Y6.8472
G01 X23.4076 Y6.8502
G01 X23.4114 Y6.8532
G01 X23.7098 Y7.1516
G01 X23.7153 Y7.1584
G01 X23.7191 Y7.1662
G01 X23.7206 Y7.1718
G01 X23.7213 Y7.1766
G01 X23.7213 Y7.1824
G01 X23.7206 Y7.1872
G01 X23.7191 Y7.1928
G01 X23.7172 Y7.1973
G01 X23.7142 Y7.2022
G01 X23.7105 Y7.2067
G01 X23.0026 Y7.9146
G01 X22.9958 Y7.9201
G01 X22.9880 Y7.9239
G01 X22.9834 Y7.9252
G01 X22.9776 Y7.9261
G01 X22.9728 Y7.9262
G01 X22.9670 Y7.9254
G01 X22.9614 Y7.9239
G01 X22.9569 Y7.9220
G01 X22.9528 Y7.9195
G01 X22.9482 Y7.9160
G01 X22.6491 Y7.6169
G01 X22.6449 Y7.6116
G01 X22.6412 Y7.6048
G01 X22.6390 Y7.5974
G01 X22.6382 Y7.5897
G01 X22.6390 Y7.5820
G01 X22.6412 Y7.5746
G01 X22.6449 Y7.5678
G01 X22.6498 Y7.5618
G00 Z2.0000
G00 X22.2963 Y7.2082
G01 F60.00
G01 Z-0.0300
G01 F60.00
G01 X23.0035 Y6.5010
G01 X23.0103 Y6.4955
G01 X23.0181 Y6.4917
G01 X23.0237 Y6.4902
G01 X23.0285 Y6.4895
G01 X23.0333 Y6.4894
G01 X23.0391 Y6.4902
G01 X23.0438 Y6.4914
G01 X23.0492 Y6.4936
G01 X23.0541 Y6.4966
G01 X23.0579 Y6.4996
G01 X23.3563 Y6.7980
G01 X23.3618 Y6.8048
G01 X23.3656 Y6.8126
G01 X23.3671 Y6.8182
G01 X23.3678 Y6.8230
G01 X23.3678 Y6.8288
G01 X23.3671 Y6.8336
G01 X23.3656 Y6.8392
G01 X23.3637 Y6.8437
G01 X23.3607 Y6.8486
G01 X23.3570 Y6.8531
G01 X22.6491 Y7.5610
G01 X22.6423 Y7.5665
G01 X22.6345 Y7.5703
G01 X22.6299 Y7.5716
G01 X22.6241 Y7.5725
G01 X22.6193 Y7.5726
G01 X22.6135 Y7.5718
G01 X22.6079 Y7.5703
G01 X22.6034 Y7.5684
G01 X22.5993 Y7.5659
G01 X22.5947 Y7.5624
G01 X22.2956 Y7.2633
G01 X22.2914 Y7.2580
G01 X22.2877 Y7.2512
G01 X22.2855 Y7.2438
G01 X22.2847 Y7.2361
G01 X22.2855 Y7.2284
G01 X22.2877 Y7.2210
G01 X22.2914 Y7.2142
G01 X22.2963 Y7.2082
G00 Z2.0000
G00 X21.9427 Y6.8546
G01 F60.00
G01 Z-0.0300
G01 F60.00
G01 X22.6499 Y6.1474
G01 X22.6567 Y6.1419
G01 X22.6645 Y6.1381
G01 X22.6701 Y6.1366
G01 X22.6749 Y6.1359
G01 X22.6797 Y6.1358
G01 X22.6855 Y6.1366
G01 X22.6902 Y6.1378
G01 X22.6956 Y6.1400
G01 X22.7005 Y6.1430
G01 X22.7043 Y6.1460
G01 X23.0027 Y6.4444
G01 X23.0082 Y6.4512
G01 X23.0120 Y6.4590
G01 X23.0135 Y6.4646
G01 X23.0142 Y6.4694
G01 X23.0142 Y6.4752
G01 X23.0135 Y6.4800
G01 X23.0120 Y6.4856
G01 X23.0101 Y6.4901
G01 X23.0071 Y6.4950
G01 X23.0034 Y6.4995
G01 X22.2955 Y7.2074
G01 X22.2887 Y7.2129
G01 X22.2809 Y7.2167
G01 X22.2763 Y7.2180
G01 X22.2705 Y7.2189
G01 X22.2657 Y7.2190
G01 X22.2599 Y7.2182
G01 X22.2543 Y7.2167
G01 X22.2498 Y7.2148
G01 X22.2457 Y7.2123
G01 X22.2411 Y7.2088
G01 X21.9420 Y6.9097
G01 X21.9378 Y6.9044
G01 X21.9341 Y6.8976
G01 X21.9319 Y6.8902
G01 X21.9311 Y6.8825
G01 X21.9319 Y6.8748
G01 X21.9341 Y6.8674
G01 X21.9378 Y6.8606
G01 X21.9427 Y6.8546
G00 Z2.0000
G00 X19.9491 Y7.4480
G01 F60.00
G01 Z-0.0300
G01 F60.00
G01 X21.2241 Y6.1730
G01 X21.2252 Y6.1658
G01 X21.2274 Y6.1594
G01 X21.2307 Y6.1535
G01 X21.2356 Y6.1475
G01 X21.9428 Y5.4403
G01 X21.9472 Y5.4365
G01 X21.9521 Y5.4334
G01 X21.9583 Y5.4307
G01 X21.9649 Y5.4291
G01 X21.9717 Y5.4287
G01 X21.9784 Y5.4295
G01 X21.9849 Y5.4313
G01 X21.9910 Y5.4343
G01 X21.9965 Y5.4383
G01 X22.2956 Y5.7373
G01 X22.2994 Y5.7417
G01 X22.3030 Y5.7474
G01 X22.3055 Y5.7537
G01 X22.3070 Y5.7613
G01 X22.3071 Y5.7681
G01 X22.3058 Y5.7757
G01 X22.3034 Y5.7821
