(G-CODE GENERATED BY FLATCAM v8.994 - www.flatcam.org - Version Date: 2020/11/7)

(Name: PCB2.GTL_iso_combined_cnc)
(Type: G-code from Geometry)
(Units: MM)

(Created on Monday, 13 March 2023 at 13:03)

(This preprocessor is the default preprocessor used by FlatCAM.)
(It is made to work with MACH3 compatible motion controllers.)

(TOOL DIAMETER: 0.198 mm)
(Feedrate_XY: 60.0 mm/min)
(Feedrate_Z: 60.0 mm/min)
(Feedrate rapids 1500.0 mm/min)

(Z_Cut: -0.02 mm)
(Z_Move: 2.0 mm)
(Z Start: None mm)
(Z End: 15.0 mm)
(X,Y End: None mm)
(Steps per circle: 64)
(Preprocessor Geometry: default)

(X range:   -0.0990 ...   19.4491  mm)
(Y range:   -0.0990 ...   20.9731  mm)

(Spindle Speed: 10000.0 RPM)
G21
G90
G94

G01 F60.00

M5
G00 Z15.0000
G00 X0.0000 Y0.0000
T2
M6    
(MSG, Change to Tool Dia = 0.1980)
M0
G00 Z15.0000

M03 S10000.0
G01 F60.00
G00 X6.2950 Y2.8372
G01 F60.00
G01 Z-0.0200
G01 F60.00
G01 X3.7840 Y0.3262
G01 X3.7691 Y0.3099
G01 X3.7530 Y0.2885
G01 X3.7404 Y0.2675
G01 X3.7300 Y0.2454
G01 X3.7217 Y0.2224
G01 X3.7158 Y0.1987
G01 X3.7122 Y0.1745
G01 X3.7110 Y0.1501
G01 X3.7122 Y0.1257
G01 X3.7158 Y0.1015
G01 X3.7217 Y0.0778
G01 X3.7300 Y0.0548
G01 X3.7404 Y0.0327
G01 X3.7530 Y0.0117
G01 X3.7675 Y-0.0079
G01 X3.7840 Y-0.0260
G01 X3.8002 Y-0.0409
G01 X3.8197 Y-0.0556
G01 X3.8384 Y-0.0672
G01 X3.8448 Y-0.0707
G01 X3.8603 Y-0.0781
G01 X3.8693 Y-0.0818
G01 X3.8878 Y-0.0883
G01 X3.9115 Y-0.0942
G01 X3.9357 Y-0.0978
G01 X3.9601 Y-0.0990
G01 X3.9845 Y-0.0978
G01 X4.0087 Y-0.0942
G01 X4.0324 Y-0.0883
G01 X4.0509 Y-0.0818
G01 X4.0576 Y-0.0791
G01 X4.0731 Y-0.0718
G01 X4.0817 Y-0.0672
G01 X4.1005 Y-0.0556
G01 X4.1162 Y-0.0440
G01 X4.1218 Y-0.0393
G01 X4.1362 Y-0.0260
G01 X6.7202 Y2.5580
G01 X6.7366 Y2.5761
G01 X6.7512 Y2.5957
G01 X6.7637 Y2.6167
G01 X6.7722 Y2.6343
G01 X6.7751 Y2.6410
G01 X6.7817 Y2.6595
G01 X6.7879 Y2.6831
G01 X6.7920 Y2.7097
G01 X6.7931 Y2.7316
G01 X6.7931 Y3.8345
G01 X6.8010 Y3.8217
G01 X6.8140 Y3.8040
G01 X6.8286 Y3.7875
G01 X6.8337 Y3.7823
G01 X6.8482 Y3.7691
G01 X6.8539 Y3.7645
G01 X6.8697 Y3.7530
G01 X6.8885 Y3.7416
G01 X6.9128 Y3.7300
G01 X6.9312 Y3.7232
G01 X6.9405 Y3.7204
G01 X6.9595 Y3.7158
G01 X6.9788 Y3.7128
G01 X6.9885 Y3.7118
G01 X7.0081 Y3.7110
G01 X7.0325 Y3.7122
G01 X7.0519 Y3.7150
G01 X7.0614 Y3.7169
G01 X7.0804 Y3.7217
G01 X7.0989 Y3.7282
G01 X7.1078 Y3.7319
G01 X7.1255 Y3.7404
G01 X7.1465 Y3.7530
G01 X7.1679 Y3.7691
G01 X7.1842 Y3.7840
G01 X7.2202 Y3.8200
G01 X7.2334 Y3.8344
G01 X7.2396 Y3.8419
G01 X7.2498 Y3.8557
G01 X7.2538 Y3.8618
G01 X7.2637 Y3.8787
G01 X7.2742 Y3.9008
G01 X7.2824 Y3.9238
G01 X7.2873 Y3.9427
G01 X7.2892 Y3.9523
G01 X7.2922 Y3.9741
G01 X7.2931 Y3.9961
G01 X7.2931 Y4.6192
G01 X7.3168 Y4.6107
G01 X7.3357 Y4.6059
G01 X7.3453 Y4.6040
G01 X7.3647 Y4.6012
G01 X7.3842 Y4.6001
G01 X7.3939 Y4.6001
G01 X7.4135 Y4.6012
G01 X7.4377 Y4.6048
G01 X7.4567 Y4.6094
G01 X7.4660 Y4.6122
G01 X7.4844 Y4.6190
G01 X7.5021 Y4.6272
G01 X7.5107 Y4.6318
G01 X7.5275 Y4.6420
G01 X7.5471 Y4.6565
G01 X7.5635 Y4.6713
G01 X7.7202 Y4.8280
G01 X7.7366 Y4.8461
G01 X7.7484 Y4.8617
G01 X7.7538 Y4.8698
G01 X7.7637 Y4.8867
G01 X7.7722 Y4.9043
G01 X7.7759 Y4.9133
G01 X7.7824 Y4.9318
G01 X7.7888 Y4.9579
G01 X7.7920 Y4.9797
G01 X7.7931 Y5.0041
G01 X7.7930 Y8.3485
G01 X7.7926 Y8.3558
G01 X7.7916 Y8.3630
G01 X7.7901 Y8.3701
G01 X7.7873 Y8.3794
G01 X7.7836 Y8.3884
G01 X7.7802 Y8.3949
G01 X7.7764 Y8.4011
G01 X7.7721 Y8.4070
G01 X7.7674 Y8.4126
G01 X7.7623 Y8.4178
G01 X7.7550 Y8.4241
G01 X7.7491 Y8.4284
G01 X7.7407 Y8.4334
G01 X7.7342 Y8.4366
G01 X7.7274 Y8.4393
G01 X7.7181 Y8.4421
G01 X7.7062 Y8.4443
G01 X7.6941 Y8.4451
G01 X7.3941 Y8.4451
G01 X7.3844 Y8.4446
G01 X7.3748 Y8.4432
G01 X7.3677 Y8.4415
G01 X7.3607 Y8.4393
G01 X7.3540 Y8.4366
G01 X7.3474 Y8.4334
G01 X7.3411 Y8.4297
G01 X7.3351 Y8.4256
G01 X7.3276 Y8.4194
G01 X7.3224 Y8.4143
G01 X7.3175 Y8.4089
G01 X7.3118 Y8.4011
G01 X7.3079 Y8.3949
G01 X7.3046 Y8.3884
G01 X7.3009 Y8.3794
G01 X7.2987 Y8.3725
G01 X7.2970 Y8.3654
G01 X7.2958 Y8.3582
G01 X7.2951 Y8.3461
G01 X7.2950 Y5.1072
G01 X7.2931 Y5.1054
G01 X7.2931 Y8.3461
G01 X7.2928 Y8.3534
G01 X7.2920 Y8.3606
G01 X7.2901 Y8.3701
G01 X7.2881 Y8.3771
G01 X7.2855 Y8.3840
G01 X7.2814 Y8.3927
G01 X7.2764 Y8.4011
G01 X7.2721 Y8.4070
G01 X7.2674 Y8.4126
G01 X7.2606 Y8.4194
G01 X7.2550 Y8.4241
G01 X7.2470 Y8.4297
G01 X7.2407 Y8.4334
G01 X7.2320 Y8.4375
G01 X7.2228 Y8.4408
G01 X7.2158 Y8.4427
G01 X7.2062 Y8.4443
G01 X7.1965 Y8.4450
G01 X6.8941 Y8.4451
G01 X6.8844 Y8.4446
G01 X6.8748 Y8.4432
G01 X6.8630 Y8.4401
G01 X6.8562 Y8.4375
G01 X6.8496 Y8.4345
G01 X6.8432 Y8.4310
G01 X6.8371 Y8.4270
G01 X6.8313 Y8.4226
G01 X6.8258 Y8.4178
G01 X6.8207 Y8.4126
G01 X6.8160 Y8.4070
G01 X6.8118 Y8.4011
G01 X6.8079 Y8.3949
G01 X6.8046 Y8.3884
G01 X6.8017 Y8.3817
G01 X6.7993 Y8.3748
G01 X6.7975 Y8.3678
G01 X6.7958 Y8.3582
G01 X6.7951 Y8.3461
G01 X6.7950 Y4.0887
G01 X6.7931 Y4.0856
G01 X6.7931 Y8.3461
G01 X6.7923 Y8.3582
G01 X6.7907 Y8.3678
G01 X6.7888 Y8.3748
G01 X6.7855 Y8.3840
G01 X6.7825 Y8.3906
G01 X6.7790 Y8.3970
G01 X6.7736 Y8.4050
G01 X6.7674 Y8.4126
G01 X6.7606 Y8.4194
G01 X6.7550 Y8.4241
G01 X6.7470 Y8.4297
G01 X6.7407 Y8.4334
G01 X6.7320 Y8.4375
G01 X6.7228 Y8.4408
G01 X6.7158 Y8.4427
G01 X6.7062 Y8.4443
G01 X6.6965 Y8.4450
G01 X6.3941 Y8.4451
G01 X6.3844 Y8.4446
G01 X6.3748 Y8.4432
G01 X6.3630 Y8.4401
G01 X6.3562 Y8.4375
G01 X6.3496 Y8.4345
G01 X6.3432 Y8.4310
G01 X6.3371 Y8.4270
G01 X6.3313 Y8.4226
G01 X6.3258 Y8.4178
G01 X6.3207 Y8.4126
G01 X6.3160 Y8.4070
G01 X6.3118 Y8.4011
G01 X6.3079 Y8.3949
G01 X6.3046 Y8.3884
G01 X6.3017 Y8.3817
G01 X6.2980 Y8.3701
G01 X6.2958 Y8.3582
G01 X6.2951 Y8.3461
G01 X6.2950 Y2.8372
G00 Z2.0000
G00 X7.8941 Y6.7231
G01 F60.00
G01 Z-0.0200
G01 F60.00
G01 X8.1941 Y6.7231
G01 X8.2038 Y6.7236
G01 X8.2134 Y6.7250
G01 X8.2205 Y6.7267
G01 X8.2274 Y6.7289
G01 X8.2342 Y6.7316
G01 X8.2407 Y6.7348
G01 X8.2470 Y6.7384
G01 X8.2530 Y6.7426
G01 X8.2587 Y6.7471
G01 X8.2641 Y6.7521
G01 X8.2690 Y6.7574
G01 X8.2736 Y6.7631
G01 X8.2777 Y6.7691
G01 X8.2814 Y6.7754
G01 X8.2846 Y6.7820
G01 X8.2873 Y6.7887
G01 X8.2901 Y6.7980
G01 X8.2916 Y6.8051
G01 X8.2928 Y6.8148
G01 X8.2931 Y6.8221
G01 X8.2930 Y8.3509
G01 X8.2923 Y8.3582
G01 X8.2912 Y8.3654
G01 X8.2895 Y8.3725
G01 X8.2864 Y8.3817
G01 X8.2836 Y8.3884
G01 X8.2790 Y8.3970
G01 X8.2736 Y8.4050
G01 X8.2690 Y8.4107
G01 X8.2623 Y8.4178
G01 X8.2569 Y8.4226
G01 X8.2491 Y8.4284
G01 X8.2429 Y8.4322
G01 X8.2342 Y8.4366
G01 X8.2274 Y8.4393
G01 X8.2205 Y8.4415
G01 X8.2110 Y8.4436
G01 X8.2014 Y8.4448
G01 X8.1941 Y8.4451
G01 X7.8941 Y8.4451
G01 X7.8844 Y8.4446
G01 X7.8748 Y8.4432
G01 X7.8653 Y8.4408
G01 X7.8584 Y8.4384
G01 X7.8517 Y8.4356
G01 X7.8453 Y8.4322
G01 X7.8391 Y8.4284
G01 X7.8332 Y8.4241
G01 X7.8276 Y8.4194
G01 X7.8224 Y8.4143
G01 X7.8175 Y8.4089
G01 X7.8131 Y8.4031
G01 X7.8092 Y8.3970
G01 X7.8056 Y8.3906
G01 X7.8026 Y8.3840
G01 X7.8001 Y8.3771
G01 X7.7980 Y8.3701
G01 X7.7965 Y8.3630
G01 X7.7956 Y8.3558
G01 X7.7951 Y8.3461
G01 X7.7952 Y6.8172
G01 X7.7961 Y6.8075
G01 X7.7980 Y6.7980
G01 X7.8009 Y6.7887
G01 X7.8036 Y6.7820
G01 X7.8079 Y6.7733
G01 X7.8131 Y6.7651
G01 X7.8191 Y6.7574
G01 X7.8258 Y6.7504
G01 X7.8332 Y6.7440
G01 X7.8391 Y6.7398
G01 X7.8474 Y6.7348
G01 X7.8562 Y6.7306
G01 X7.8653 Y6.7273
G01 X7.8748 Y6.7250
G01 X7.8844 Y6.7236
G01 X7.8941 Y6.7231
G00 Z2.0000
G00 X8.3941 Y6.7231
G01 F60.00
G01 Z-0.0200
G01 F60.00
G01 X8.6941 Y6.7231
G01 X8.7038 Y6.7236
G01 X8.7134 Y6.7250
G01 X8.7205 Y6.7267
G01 X8.7274 Y6.7289
G01 X8.7342 Y6.7316
G01 X8.7407 Y6.7348
G01 X8.7470 Y6.7384
G01 X8.7530 Y6.7426
G01 X8.7587 Y6.7471
G01 X8.7641 Y6.7521
G01 X8.7690 Y6.7574
G01 X8.7736 Y6.7631
G01 X8.7777 Y6.7691
G01 X8.7814 Y6.7754
G01 X8.7846 Y6.7820
G01 X8.7873 Y6.7887
G01 X8.7901 Y6.7980
G01 X8.7916 Y6.8051
G01 X8.7928 Y6.8148
G01 X8.7931 Y6.8221
G01 X8.7930 Y8.3509
G01 X8.7923 Y8.3582
G01 X8.7912 Y8.3654
G01 X8.7895 Y8.3725
G01 X8.7864 Y8.3817
G01 X8.7836 Y8.3884
G01 X8.7790 Y8.3970
G01 X8.7736 Y8.4050
G01 X8.7690 Y8.4107
G01 X8.7623 Y8.4178
G01 X8.7569 Y8.4226
G01 X8.7491 Y8.4284
G01 X8.7429 Y8.4322
G01 X8.7342 Y8.4366
G01 X8.7274 Y8.4393
G01 X8.7205 Y8.4415
G01 X8.7110 Y8.4436
G01 X8.7014 Y8.4448
G01 X8.6941 Y8.4451
G01 X8.3941 Y8.4451
G01 X8.3844 Y8.4446
G01 X8.3748 Y8.4432
G01 X8.3677 Y8.4415
G01 X8.3607 Y8.4393
G01 X8.3540 Y8.4366
G01 X8.3474 Y8.4334
G01 X8.3411 Y8.4297
G01 X8.3351 Y8.4256
G01 X8.3294 Y8.4210
G01 X8.3241 Y8.4161
G01 X8.3191 Y8.4107
G01 X8.3146 Y8.4050
G01 X8.3104 Y8.3990
G01 X8.3068 Y8.3927
G01 X8.3036 Y8.3862
G01 X8.3001 Y8.3771
G01 X8.2980 Y8.3701
G01 X8.2965 Y8.3630
G01 X8.2953 Y8.3534
G01 X8.2951 Y8.3461
G01 X8.2952 Y6.8172
G01 X8.2961 Y6.8075
G01 X8.2980 Y6.7980
G01 X8.3001 Y6.7910
G01 X8.3036 Y6.7820
G01 X8.3079 Y6.7733
G01 X8.3131 Y6.7651
G01 X8.3191 Y6.7574
G01 X8.3258 Y6.7504
G01 X8.3332 Y6.7440
G01 X8.3391 Y6.7398
G01 X8.3474 Y6.7348
G01 X8.3562 Y6.7306
G01 X8.3653 Y6.7273
G01 X8.3748 Y6.7250
G01 X8.3844 Y6.7236
G01 X8.3941 Y6.7231
G00 Z2.0000
G00 X8.8941 Y6.7231
G01 F60.00
G01 Z-0.0200
G01 F60.00
G01 X9.1941 Y6.7231
G01 X9.2038 Y6.7236
G01 X9.2134 Y6.7250
G01 X9.2205 Y6.7267
G01 X9.2274 Y6.7289
G01 X9.2342 Y6.7316
G01 X9.2407 Y6.7348
G01 X9.2470 Y6.7384
G01 X9.2530 Y6.7426
G01 X9.2587 Y6.7471
G01 X9.2641 Y6.7521
G01 X9.2690 Y6.7574
G01 X9.2736 Y6.7631
G01 X9.2777 Y6.7691
G01 X9.2814 Y6.7754
G01 X9.2846 Y6.7820
G01 X9.2873 Y6.7887
G01 X9.2901 Y6.7980
G01 X9.2916 Y6.8051
G01 X9.2928 Y6.8148
G01 X9.2931 Y6.8221
G01 X9.2930 Y8.3509
G01 X9.2923 Y8.3582
G01 X9.2912 Y8.3654
G01 X9.2895 Y8.3725
G01 X9.2864 Y8.3817
G01 X9.2836 Y8.3884
G01 X9.2790 Y8.3970
G01 X9.2736 Y8.4050
G01 X9.2690 Y8.4107
G01 X9.2623 Y8.4178
G01 X9.2569 Y8.4226
G01 X9.2491 Y8.4284
G01 X9.2429 Y8.4322
G01 X9.2342 Y8.4366
G01 X9.2274 Y8.4393
G01 X9.2205 Y8.4415
G01 X9.2110 Y8.4436
G01 X9.2014 Y8.4448
G01 X9.1941 Y8.4451
G01 X8.8941 Y8.4451
G01 X8.8844 Y8.4446
G01 X8.8748 Y8.4432
G01 X8.8677 Y8.4415
G01 X8.8607 Y8.4393
G01 X8.8540 Y8.4366
G01 X8.8474 Y8.4334
G01 X8.8411 Y8.4297
G01 X8.8351 Y8.4256
G01 X8.8294 Y8.4210
G01 X8.8241 Y8.4161
G01 X8.8191 Y8.4107
G01 X8.8146 Y8.4050
G01 X8.8104 Y8.3990
G01 X8.8068 Y8.3927
G01 X8.8036 Y8.3862
G01 X8.8001 Y8.3771
G01 X8.7980 Y8.3701
G01 X8.7965 Y8.3630
G01 X8.7953 Y8.3534
G01 X8.7951 Y8.3461
G01 X8.7952 Y6.8172
G01 X8.7961 Y6.8075
G01 X8.7980 Y6.7980
G01 X8.8001 Y6.7910
G01 X8.8036 Y6.7820
G01 X8.8079 Y6.7733
G01 X8.8131 Y6.7651
G01 X8.8191 Y6.7574
G01 X8.8258 Y6.7504
G01 X8.8332 Y6.7440
G01 X8.8391 Y6.7398
G01 X8.8474 Y6.7348
G01 X8.8562 Y6.7306
G01 X8.8653 Y6.7273
G01 X8.8748 Y6.7250
G01 X8.8844 Y6.7236
G01 X8.8941 Y6.7231
G00 Z2.0000
G00 X9.3941 Y6.7231
G01 F60.00
G01 Z-0.0200
G01 F60.00
G01 X9.6941 Y6.7231
G01 X9.7038 Y6.7236
G01 X9.7134 Y6.7250
G01 X9.7205 Y6.7267
G01 X9.7274 Y6.7289
G01 X9.7342 Y6.7316
G01 X9.7407 Y6.7348
G01 X9.7470 Y6.7384
G01 X9.7530 Y6.7426
G01 X9.7587 Y6.7471
G01 X9.7641 Y6.7521
G01 X9.7690 Y6.7574
G01 X9.7736 Y6.7631
G01 X9.7777 Y6.7691
G01 X9.7814 Y6.7754
G01 X9.7846 Y6.7820
G01 X9.7873 Y6.7887
G01 X9.7901 Y6.7980
G01 X9.7916 Y6.8051
G01 X9.7928 Y6.8148
G01 X9.7931 Y6.8221
G01 X9.7930 Y8.3509
G01 X9.7923 Y8.3582
G01 X9.7912 Y8.3654
G01 X9.7895 Y8.3725
G01 X9.7864 Y8.3817
G01 X9.7836 Y8.3884
G01 X9.7790 Y8.3970
G01 X9.7736 Y8.4050
G01 X9.7690 Y8.4107
G01 X9.7623 Y8.4178
G01 X9.7569 Y8.4226
G01 X9.7491 Y8.4284
G01 X9.7429 Y8.4322
G01 X9.7342 Y8.4366
G01 X9.7274 Y8.4393
G01 X9.7205 Y8.4415
G01 X9.7110 Y8.4436
G01 X9.7014 Y8.4448
G01 X9.6941 Y8.4451
G01 X9.3941 Y8.4451
G01 X9.3844 Y8.4446
G01 X9.3748 Y8.4432
G01 X9.3677 Y8.4415
G01 X9.3607 Y8.4393
G01 X9.3540 Y8.4366
G01 X9.3474 Y8.4334
G01 X9.3411 Y8.4297
G01 X9.3351 Y8.4256
G01 X9.3294 Y8.4210
G01 X9.3241 Y8.4161
G01 X9.3191 Y8.4107
G01 X9.3146 Y8.4050
G01 X9.3104 Y8.3990
G01 X9.3068 Y8.3927
G01 X9.3036 Y8.3862
G01 X9.3001 Y8.3771
G01 X9.2980 Y8.3701
G01 X9.2965 Y8.3630
G01 X9.2953 Y8.3534
G01 X9.2951 Y8.3461
G01 X9.2952 Y6.8172
G01 X9.2961 Y6.8075
G01 X9.2980 Y6.7980
G01 X9.3001 Y6.7910
G01 X9.3036 Y6.7820
G01 X9.3079 Y6.7733
G01 X9.3131 Y6.7651
G01 X9.3191 Y6.7574
G01 X9.3258 Y6.7504
G01 X9.3332 Y6.7440
G01 X9.3391 Y6.7398
G01 X9.3474 Y6.7348
G01 X9.3562 Y6.7306
G01 X9.3653 Y6.7273
G01 X9.3748 Y6.7250
G01 X9.3844 Y6.7236
G01 X9.3941 Y6.7231
G00 Z2.0000
G00 X9.8941 Y6.7231
G01 F60.00
G01 Z-0.0200
G01 F60.00
G01 X10.1941 Y6.7231
G01 X10.2038 Y6.7236
G01 X10.2134 Y6.7250
G01 X10.2205 Y6.7267
G01 X10.2274 Y6.7289
G01 X10.2342 Y6.7316
G01 X10.2407 Y6.7348
G01 X10.2470 Y6.7384
G01 X10.2530 Y6.7426
G01 X10.2587 Y6.7471
G01 X10.2641 Y6.7521
G01 X10.2690 Y6.7574
G01 X10.2736 Y6.7631
G01 X10.2777 Y6.7691
G01 X10.2814 Y6.7754
G01 X10.2846 Y6.7820
G01 X10.2873 Y6.7887
G01 X10.2901 Y6.7980
G01 X10.2916 Y6.8051
G01 X10.2928 Y6.8148
G01 X10.2931 Y6.8221
G01 X10.2930 Y8.3509
G01 X10.2923 Y8.3582
G01 X10.2912 Y8.3654
G01 X10.2895 Y8.3725
G01 X10.2864 Y8.3817
G01 X10.2836 Y8.3884
G01 X10.2790 Y8.3970
G01 X10.2736 Y8.4050
G01 X10.2690 Y8.4107
G01 X10.2623 Y8.4178
G01 X10.2569 Y8.4226
G01 X10.2491 Y8.4284
G01 X10.2429 Y8.4322
G01 X10.2342 Y8.4366
G01 X10.2274 Y8.4393
G01 X10.2205 Y8.4415
G01 X10.2110 Y8.4436
G01 X10.2014 Y8.4448
G01 X10.1941 Y8.4451
G01 X9.8941 Y8.4451
G01 X9.8844 Y8.4446
G01 X9.8748 Y8.4432
G01 X9.8677 Y8.4415
G01 X9.8607 Y8.4393
G01 X9.8540 Y8.4366
G01 X9.8474 Y8.4334
G01 X9.8411 Y8.4297
G01 X9.8351 Y8.4256
G01 X9.8294 Y8.4210
G01 X9.8241 Y8.4161
G01 X9.8191 Y8.4107
G01 X9.8146 Y8.4050
G01 X9.8104 Y8.3990
G01 X9.8068 Y8.3927
G01 X9.8036 Y8.3862
G01 X9.8001 Y8.3771
G01 X9.7980 Y8.3701
G01 X9.7965 Y8.3630
G01 X9.7953 Y8.3534
G01 X9.7951 Y8.3461
G01 X9.7952 Y6.8172
G01 X9.7961 Y6.8075
G01 X9.7980 Y6.7980
G01 X9.8001 Y6.7910
G01 X9.8036 Y6.7820
G01 X9.8079 Y6.7733
G01 X9.8131 Y6.7651
G01 X9.8191 Y6.7574
G01 X9.8258 Y6.7504
G01 X9.8332 Y6.7440
G01 X9.8391 Y6.7398
G01 X9.8474 Y6.7348
G01 X9.8562 Y6.7306
G01 X9.8653 Y6.7273
G01 X9.8748 Y6.7250
G01 X9.8844 Y6.7236
G01 X9.8941 Y6.7231
G00 Z2.0000
G00 X10.3941 Y6.7231
G01 F60.00
G01 Z-0.0200
G01 F60.00
G01 X10.6941 Y6.7231
G01 X10.7038 Y6.7236
G01 X10.7134 Y6.7250
G01 X10.7205 Y6.7267
G01 X10.7274 Y6.7289
G01 X10.7342 Y6.7316
G01 X10.7407 Y6.7348
G01 X10.7470 Y6.7384
G01 X10.7530 Y6.7426
G01 X10.7587 Y6.7471
G01 X10.7641 Y6.7521
G01 X10.7690 Y6.7574
G01 X10.7736 Y6.7631
G01 X10.7777 Y6.7691
G01 X10.7814 Y6.7754
G01 X10.7846 Y6.7820
G01 X10.7873 Y6.7887
G01 X10.7901 Y6.7980
G01 X10.7916 Y6.8051
G01 X10.7928 Y6.8148
G01 X10.7931 Y6.8221
G01 X10.7930 Y8.3509
G01 X10.7923 Y8.3582
G01 X10.7912 Y8.3654
G01 X10.7895 Y8.3725
G01 X10.7864 Y8.3817
G01 X10.7836 Y8.3884
G01 X10.7790 Y8.3970
G01 X10.7736 Y8.4050
G01 X10.7690 Y8.4107
G01 X10.7623 Y8.4178
G01 X10.7569 Y8.4226
G01 X10.7491 Y8.4284
G01 X10.7429 Y8.4322
G01 X10.7342 Y8.4366
G01 X10.7274 Y8.4393
G01 X10.7205 Y8.4415
G01 X10.7110 Y8.4436
G01 X10.7014 Y8.4448
G01 X10.6941 Y8.4451
G01 X10.3941 Y8.4451
G01 X10.3844 Y8.4446
G01 X10.3748 Y8.4432
G01 X10.3677 Y8.4415
G01 X10.3607 Y8.4393
G01 X10.3540 Y8.4366
G01 X10.3474 Y8.4334
G01 X10.3411 Y8.4297
G01 X10.3351 Y8.4256
G01 X10.3294 Y8.4210
G01 X10.3241 Y8.4161
G01 X10.3191 Y8.4107
G01 X10.3146 Y8.4050
G01 X10.3104 Y8.3990
G01 X10.3068 Y8.3927
G01 X10.3036 Y8.3862
G01 X10.3001 Y8.3771
G01 X10.2980 Y8.3701
G01 X10.2965 Y8.3630
G01 X10.2953 Y8.3534
G01 X10.2951 Y8.3461
G01 X10.2952 Y6.8172
G01 X10.2961 Y6.8075
G01 X10.2980 Y6.7980
G01 X10.3001 Y6.7910
G01 X10.3036 Y6.7820
G01 X10.3079 Y6.7733
G01 X10.3131 Y6.7651
G01 X10.3191 Y6.7574
G01 X10.3258 Y6.7504
G01 X10.3332 Y6.7440
G01 X10.3391 Y6.7398
G01 X10.3474 Y6.7348
G01 X10.3562 Y6.7306
G01 X10.3653 Y6.7273
G01 X10.3748 Y6.7250
G01 X10.3844 Y6.7236
G01 X10.3941 Y6.7231
G00 Z2.0000
G00 X10.8941 Y6.7231
G01 F60.00
G01 Z-0.0200
G01 F60.00
G01 X11.1941 Y6.7231
G01 X11.2038 Y6.7236
G01 X11.2134 Y6.7250
G01 X11.2205 Y6.7267
G01 X11.2274 Y6.7289
G01 X11.2342 Y6.7316
G01 X11.2407 Y6.7348
G01 X11.2470 Y6.7384
G01 X11.2530 Y6.7426
G01 X11.2587 Y6.7471
G01 X11.2641 Y6.7521
G01 X11.2690 Y6.7574
G01 X11.2736 Y6.7631
G01 X11.2777 Y6.7691
G01 X11.2814 Y6.7754
G01 X11.2846 Y6.7820
G01 X11.2873 Y6.7887
G01 X11.2901 Y6.7980
G01 X11.2916 Y6.8051
G01 X11.2928 Y6.8148
G01 X11.2931 Y6.8221
G01 X11.2930 Y8.3509
G01 X11.2923 Y8.3582
G01 X11.2912 Y8.3654
G01 X11.2895 Y8.3725
G01 X11.2864 Y8.3817
G01 X11.2836 Y8.3884
G01 X11.2790 Y8.3970
G01 X11.2736 Y8.4050
G01 X11.2690 Y8.4107
G01 X11.2623 Y8.4178
G01 X11.2569 Y8.4226
G01 X11.2491 Y8.4284
G01 X11.2429 Y8.4322
G01 X11.2342 Y8.4366
G01 X11.2274 Y8.4393
G01 X11.2205 Y8.4415
G01 X11.2110 Y8.4436
G01 X11.2014 Y8.4448
G01 X11.1941 Y8.4451
G01 X10.8941 Y8.4451
G01 X10.8844 Y8.4446
G01 X10.8748 Y8.4432
G01 X10.8677 Y8.4415
G01 X10.8607 Y8.4393
G01 X10.8540 Y8.4366
G01 X10.8474 Y8.4334
G01 X10.8411 Y8.4297
G01 X10.8351 Y8.4256
G01 X10.8294 Y8.4210
G01 X10.8241 Y8.4161
G01 X10.8191 Y8.4107
G01 X10.8146 Y8.4050
G01 X10.8104 Y8.3990
G01 X10.8068 Y8.3927
G01 X10.8036 Y8.3862
G01 X10.8001 Y8.3771
G01 X10.7980 Y8.3701
G01 X10.7965 Y8.3630
G01 X10.7953 Y8.3534
G01 X10.7951 Y8.3461
G01 X10.7952 Y6.8172
G01 X10.7961 Y6.8075
G01 X10.7980 Y6.7980
G01 X10.8001 Y6.7910
G01 X10.8036 Y6.7820
G01 X10.8079 Y6.7733
G01 X10.8131 Y6.7651
G01 X10.8191 Y6.7574
G01 X10.8258 Y6.7504
G01 X10.8332 Y6.7440
G01 X10.8391 Y6.7398
G01 X10.8474 Y6.7348
G01 X10.8562 Y6.7306
G01 X10.8653 Y6.7273
G01 X10.8748 Y6.7250
G01 X10.8844 Y6.7236
G01 X10.8941 Y6.7231
G00 Z2.0000
G00 X11.3941 Y6.7231
G01 F60.00
G01 Z-0.0200
G01 F60.00
G01 X11.6941 Y6.7231
G01 X11.7038 Y6.7236
G01 X11.7134 Y6.7250
G01 X11.7205 Y6.7267
G01 X11.7274 Y6.7289
G01 X11.7342 Y6.7316
G01 X11.7407 Y6.7348
G01 X11.7470 Y6.7384
G01 X11.7530 Y6.7426
G01 X11.7587 Y6.7471
G01 X11.7641 Y6.7521
G01 X11.7690 Y6.7574
G01 X11.7736 Y6.7631
G01 X11.7777 Y6.7691
G01 X11.7814 Y6.7754
G01 X11.7846 Y6.7820
G01 X11.7873 Y6.7887
G01 X11.7901 Y6.7980
G01 X11.7916 Y6.8051
G01 X11.7928 Y6.8148
G01 X11.7931 Y6.8221
G01 X11.7930 Y8.3509
G01 X11.7923 Y8.3582
G01 X11.7912 Y8.3654
G01 X11.7895 Y8.3725
G01 X11.7864 Y8.3817
G01 X11.7836 Y8.3884
G01 X11.7790 Y8.3970
G01 X11.7736 Y8.4050
G01 X11.7690 Y8.4107
G01 X11.7623 Y8.4178
G01 X11.7569 Y8.4226
G01 X11.7491 Y8.4284
G01 X11.7429 Y8.4322
G01 X11.7342 Y8.4366
G01 X11.7274 Y8.4393
G01 X11.7205 Y8.4415
G01 X11.7110 Y8.4436
G01 X11.7014 Y8.4448
G01 X11.6941 Y8.4451
G01 X11.3941 Y8.4451
G01 X11.3844 Y8.4446
G01 X11.3748 Y8.4432
G01 X11.3677 Y8.4415
G01 X11.3607 Y8.4393
G01 X11.3540 Y8.4366
G01 X11.3474 Y8.4334
G01 X11.3411 Y8.4297
G01 X11.3351 Y8.4256
G01 X11.3294 Y8.4210
G01 X11.3241 Y8.4161
G01 X11.3191 Y8.4107
G01 X11.3146 Y8.4050
G01 X11.3104 Y8.3990
G01 X11.3068 Y8.3927
G01 X11.3036 Y8.3862
G01 X11.3001 Y8.3771
G01 X11.2980 Y8.3701
G01 X11.2965 Y8.3630
G01 X11.2953 Y8.3534
G01 X11.2951 Y8.3461
G01 X11.2952 Y6.8172
G01 X11.2961 Y6.8075
G01 X11.2980 Y6.7980
G01 X11.3001 Y6.7910
G01 X11.3036 Y6.7820
G01 X11.3079 Y6.7733
G01 X11.3131 Y6.7651
G01 X11.3191 Y6.7574
G01 X11.3258 Y6.7504
G01 X11.3332 Y6.7440
G01 X11.3391 Y6.7398
G01 X11.3474 Y6.7348
G01 X11.3562 Y6.7306
G01 X11.3653 Y6.7273
G01 X11.3748 Y6.7250
G01 X11.3844 Y6.7236
G01 X11.3941 Y6.7231
G00 Z2.0000
G00 X11.8941 Y6.7231
G01 F60.00
G01 Z-0.0200
G01 F60.00
G01 X12.1941 Y6.7231
G01 X12.2038 Y6.7236
G01 X12.2134 Y6.7250
G01 X12.2205 Y6.7267
G01 X12.2274 Y6.7289
G01 X12.2342 Y6.7316
G01 X12.2407 Y6.7348
G01 X12.2470 Y6.7384
G01 X12.2530 Y6.7426
G01 X12.2587 Y6.7471
G01 X12.2641 Y6.7521
G01 X12.2690 Y6.7574
G01 X12.2736 Y6.7631
G01 X12.2777 Y6.7691
G01 X12.2814 Y6.7754
G01 X12.2846 Y6.7820
G01 X12.2873 Y6.7887
G01 X12.2901 Y6.7980
G01 X12.2916 Y6.8051
G01 X12.2928 Y6.8148
G01 X12.2931 Y6.8221
G01 X12.2930 Y8.3509
G01 X12.2923 Y8.3582
G01 X12.2912 Y8.3654
G01 X12.2895 Y8.3725
G01 X12.2864 Y8.3817
G01 X12.2836 Y8.3884
G01 X12.2790 Y8.3970
G01 X12.2736 Y8.4050
G01 X12.2690 Y8.4107
G01 X12.2623 Y8.4178
G01 X12.2569 Y8.4226
G01 X12.2491 Y8.4284
G01 X12.2429 Y8.4322
G01 X12.2342 Y8.4366
G01 X12.2274 Y8.4393
G01 X12.2205 Y8.4415
G01 X12.2110 Y8.4436
G01 X12.2014 Y8.4448
G01 X12.1941 Y8.4451
G01 X11.8941 Y8.4451
G01 X11.8844 Y8.4446
G01 X11.8748 Y8.4432
G01 X11.8677 Y8.4415
G01 X11.8607 Y8.4393
G01 X11.8540 Y8.4366
G01 X11.8474 Y8.4334
G01 X11.8411 Y8.4297
G01 X11.8351 Y8.4256
G01 X11.8294 Y8.4210
G01 X11.8241 Y8.4161
G01 X11.8191 Y8.4107
G01 X11.8146 Y8.4050
G01 X11.8104 Y8.3990
G01 X11.8068 Y8.3927
G01 X11.8036 Y8.3862
G01 X11.8001 Y8.3771
G01 X11.7980 Y8.3701
G01 X11.7965 Y8.3630
G01 X11.7953 Y8.3534
G01 X11.7951 Y8.3461
G01 X11.7952 Y6.8172
G01 X11.7961 Y6.8075
G01 X11.7980 Y6.7980
G01 X11.8001 Y6.7910
G01 X11.8036 Y6.7820
G01 X11.8079 Y6.7733
G01 X11.8131 Y6.7651
G01 X11.8191 Y6.7574
G01 X11.8258 Y6.7504
G01 X11.8332 Y6.7440
G01 X11.8391 Y6.7398
G01 X11.8474 Y6.7348
G01 X11.8562 Y6.7306
G01 X11.8653 Y6.7273
G01 X11.8748 Y6.7250
G01 X11.8844 Y6.7236
G01 X11.8941 Y6.7231
G00 Z2.0000
G00 X12.7821 Y8.8351
G01 F60.00
G01 Z-0.0200
G01 F60.00
G01 X13.4408 Y8.8351
G01 X15.5710 Y6.7050
G01 X15.5891 Y6.6885
G01 X15.6087 Y6.6740
G01 X15.6297 Y6.6614
G01 X15.6495 Y6.6519
G01 X15.6748 Y6.6427
G01 X15.6985 Y6.6368
G01 X15.7227 Y6.6332
G01 X15.7446 Y6.6320
G01 X17.1681 Y6.6320
G01 X17.1901 Y6.6330
G01 X17.2119 Y6.6360
G01 X17.2190 Y6.6373
G01 X17.2404 Y6.6427
G01 X17.2589 Y6.6492
G01 X17.2678 Y6.6529
G01 X17.2855 Y6.6614
G01 X17.3023 Y6.6714
G01 X17.3104 Y6.6768
G01 X17.3261 Y6.6885
G01 X17.3407 Y6.7016
G01 X17.3475 Y6.7085
G01 X17.3606 Y6.7231
G01 X17.3724 Y6.7387
G01 X17.3778 Y6.7468
G01 X17.3877 Y6.7637
G01 X17.3972 Y6.7835
G01 X17.4064 Y6.8088
G01 X17.4124 Y6.8325
G01 X17.4160 Y6.8567
G01 X17.4170 Y6.8762
G01 X17.4170 Y6.8859
G01 X17.4160 Y6.9055
G01 X17.4132 Y6.9249
G01 X17.4119 Y6.9320
G01 X17.4077 Y6.9487
G01 X17.4049 Y6.9580
G01 X17.3982 Y6.9764
G01 X17.3877 Y6.9985
G01 X17.3752 Y7.0195
G01 X17.3606 Y7.0391
G01 X17.3442 Y7.0572
G01 X17.3298 Y7.0704
G01 X17.3223 Y7.0766
G01 X17.3065 Y7.0882
G01 X17.2897 Y7.0983
G01 X17.2833 Y7.1019
G01 X17.2678 Y7.1092
G01 X17.2611 Y7.1121
G01 X17.2427 Y7.1187
G01 X17.2190 Y7.1249
G01 X17.1925 Y7.1290
G01 X17.1681 Y7.1301
G01 X15.8502 Y7.1301
G01 X14.1453 Y8.8351
G01 X14.3085 Y8.8351
G01 X14.3206 Y8.8361
G01 X14.3301 Y8.8380
G01 X14.3417 Y8.8417
G01 X14.3527 Y8.8468
G01 X14.3631 Y8.8531
G01 X14.3707 Y8.8591
G01 X14.3794 Y8.8676
G01 X14.3856 Y8.8751
G01 X14.3922 Y8.8853
G01 X14.3975 Y8.8962
G01 X14.4001 Y8.9030
G01 X14.4027 Y8.9124
G01 X14.4043 Y8.9220
G01 X14.4050 Y8.9316
G01 X14.4051 Y9.2341
G01 X14.4043 Y9.2462
G01 X14.4021 Y9.2581
G01 X14.3984 Y9.2697
G01 X14.3934 Y9.2807
G01 X14.3897 Y9.2870
G01 X14.3856 Y9.2930
G01 X14.3810 Y9.2987
G01 X14.3761 Y9.3041
G01 X14.3670 Y9.3121
G01 X14.3570 Y9.3190
G01 X14.3462 Y9.3246
G01 X14.3371 Y9.3281
G01 X14.3254 Y9.3312
G01 X14.3158 Y9.3326
G01 X14.3061 Y9.3331
G01 X12.7821 Y9.3331
G01 X12.7748 Y9.3328
G01 X12.7675 Y9.3320
G01 X12.7604 Y9.3307
G01 X12.7533 Y9.3288
G01 X12.7420 Y9.3246
G01 X12.7354 Y9.3214
G01 X12.7291 Y9.3177
G01 X12.7231 Y9.3136
G01 X12.7174 Y9.3090
G01 X12.7121 Y9.3041
G01 X12.7071 Y9.2987
G01 X12.7026 Y9.2930
G01 X12.6984 Y9.2870
G01 X12.6926 Y9.2764
G01 X12.6881 Y9.2651
G01 X12.6860 Y9.2581
G01 X12.6845 Y9.2510
G01 X12.6836 Y9.2438
G01 X12.6831 Y9.2341
G01 X12.6832 Y8.9292
G01 X12.6838 Y8.9220
G01 X12.6855 Y8.9124
G01 X12.6881 Y8.9030
G01 X12.6916 Y8.8940
G01 X12.6959 Y8.8853
G01 X12.7011 Y8.8771
G01 X12.7071 Y8.8694
G01 X12.7138 Y8.8624
G01 X12.7193 Y8.8575
G01 X12.7271 Y8.8518
G01 X12.7354 Y8.8468
G01 X12.7442 Y8.8426
G01 X12.7533 Y8.8393
G01 X12.7628 Y8.8370
G01 X12.7724 Y8.8356
G01 X12.7821 Y8.8351
G00 Z2.0000
G00 X12.7821 Y9.3351
G01 F60.00
G01 Z-0.0200
G01 F60.00
G01 X14.3061 Y9.3351
G01 X14.3182 Y9.3358
G01 X14.3301 Y9.3380
G01 X14.3417 Y9.3417
G01 X14.3484 Y9.3446
G01 X14.3549 Y9.3479
G01 X14.3611 Y9.3518
G01 X14.3670 Y9.3560
G01 X14.3726 Y9.3607
G01 X14.3778 Y9.3658
G01 X14.3826 Y9.3713
G01 X14.3870 Y9.3771
G01 X14.3910 Y9.3832
G01 X14.3945 Y9.3896
G01 X14.3975 Y9.3962
G01 X14.4001 Y9.4030
G01 X14.4021 Y9.4100
G01 X14.4036 Y9.4171
G01 X14.4048 Y9.4268
G01 X14.4051 Y9.4341
G01 X14.4051 Y9.7341
G01 X14.4043 Y9.7462
G01 X14.4021 Y9.7581
G01 X14.4001 Y9.7651
G01 X14.3975 Y9.7720
G01 X14.3945 Y9.7786
G01 X14.3897 Y9.7870
G01 X14.3856 Y9.7930
G01 X14.3794 Y9.8006
G01 X14.3743 Y9.8058
G01 X14.3689 Y9.8106
G01 X14.3631 Y9.8150
G01 X14.3549 Y9.8202
G01 X14.3484 Y9.8236
G01 X14.3417 Y9.8264
G01 X14.3348 Y9.8288
G01 X14.3278 Y9.8307
G01 X14.3206 Y9.8320
G01 X14.3109 Y9.8330
G01 X12.7821 Y9.8331
G01 X12.7700 Y9.8323
G01 X12.7580 Y9.8301
G01 X12.7510 Y9.8281
G01 X12.7442 Y9.8255
G01 X12.7333 Y9.8202
G01 X12.7271 Y9.8164
G01 X12.7212 Y9.8121
G01 X12.7156 Y9.8074
G01 X12.7104 Y9.8023
G01 X12.7055 Y9.7969
G01 X12.7011 Y9.7911
G01 X12.6972 Y9.7850
G01 X12.6936 Y9.7786
G01 X12.6889 Y9.7674
G01 X12.6867 Y9.7605
G01 X12.6850 Y9.7534
G01 X12.6836 Y9.7438
G01 X12.6831 Y9.7341
G01 X12.6832 Y9.4292
G01 X12.6838 Y9.4220
G01 X12.6855 Y9.4124
G01 X12.6881 Y9.4030
G01 X12.6916 Y9.3940
G01 X12.6959 Y9.3853
G01 X12.7011 Y9.3771
G01 X12.7071 Y9.3694
G01 X12.7138 Y9.3624
G01 X12.7212 Y9.3560
G01 X12.7291 Y9.3504
G01 X12.7376 Y9.3456
G01 X12.7442 Y9.3426
G01 X12.7533 Y9.3393
G01 X12.7628 Y9.3370
G01 X12.7724 Y9.3356
G01 X12.7821 Y9.3351
G00 Z2.0000
G00 X12.7821 Y9.8351
G01 F60.00
G01 Z-0.0200
G01 F60.00
G01 X14.3061 Y9.8351
G01 X14.3182 Y9.8358
G01 X14.3301 Y9.8380
G01 X14.3417 Y9.8417
G01 X14.3484 Y9.8446
G01 X14.3549 Y9.8479
G01 X14.3611 Y9.8518
G01 X14.3670 Y9.8560
G01 X14.3726 Y9.8607
G01 X14.3778 Y9.8658
G01 X14.3826 Y9.8713
G01 X14.3870 Y9.8771
G01 X14.3910 Y9.8832
G01 X14.3945 Y9.8896
G01 X14.3975 Y9.8962
G01 X14.4001 Y9.9030
G01 X14.4021 Y9.9100
G01 X14.4036 Y9.9171
G01 X14.4048 Y9.9268
G01 X14.4051 Y9.9341
G01 X14.4051 Y10.2341
G01 X14.4043 Y10.2462
G01 X14.4021 Y10.2581
G01 X14.4001 Y10.2651
G01 X14.3975 Y10.2720
G01 X14.3945 Y10.2786
G01 X14.3897 Y10.2870
G01 X14.3856 Y10.2930
G01 X14.3794 Y10.3006
G01 X14.3743 Y10.3058
G01 X14.3689 Y10.3106
G01 X14.3631 Y10.3150
G01 X14.3549 Y10.3202
G01 X14.3484 Y10.3236
G01 X14.3417 Y10.3264
G01 X14.3348 Y10.3288
G01 X14.3278 Y10.3307
G01 X14.3206 Y10.3320
G01 X14.3109 Y10.3330
G01 X12.7821 Y10.3331
G01 X12.7700 Y10.3323
G01 X12.7580 Y10.3301
G01 X12.7510 Y10.3281
G01 X12.7442 Y10.3255
G01 X12.7333 Y10.3202
G01 X12.7271 Y10.3164
G01 X12.7212 Y10.3121
G01 X12.7156 Y10.3074
G01 X12.7104 Y10.3023
G01 X12.7055 Y10.2969
G01 X12.7011 Y10.2911
G01 X12.6972 Y10.2850
G01 X12.6936 Y10.2786
G01 X12.6889 Y10.2674
G01 X12.6867 Y10.2605
G01 X12.6850 Y10.2534
G01 X12.6836 Y10.2438
G01 X12.6831 Y10.2341
G01 X12.6832 Y9.9292
G01 X12.6838 Y9.9220
G01 X12.6855 Y9.9124
G01 X12.6881 Y9.9030
G01 X12.6916 Y9.8940
G01 X12.6959 Y9.8853
G01 X12.7011 Y9.8771
G01 X12.7071 Y9.8694
G01 X12.7138 Y9.8624
G01 X12.7212 Y9.8560
G01 X12.7291 Y9.8504
G01 X12.7376 Y9.8456
G01 X12.7442 Y9.8426
G01 X12.7533 Y9.8393
G01 X12.7628 Y9.8370
G01 X12.7724 Y9.8356
G01 X12.7821 Y9.8351
G00 Z2.0000
G00 X12.7821 Y10.3351
G01 F60.00
G01 Z-0.0200
G01 F60.00
G01 X14.3061 Y10.3351
G01 X14.3182 Y10.3358
G01 X14.3301 Y10.3380
G01 X14.3417 Y10.3417
G01 X14.3484 Y10.3446
G01 X14.3549 Y10.3479
G01 X14.3611 Y10.3518
G01 X14.3670 Y10.3560
G01 X14.3726 Y10.3607
G01 X14.3778 Y10.3658
G01 X14.3826 Y10.3713
G01 X14.3870 Y10.3771
G01 X14.3910 Y10.3832
G01 X14.3945 Y10.3896
G01 X14.3975 Y10.3962
G01 X14.4001 Y10.4030
G01 X14.4021 Y10.4100
G01 X14.4036 Y10.4171
G01 X14.4048 Y10.4268
G01 X14.4051 Y10.4341
G01 X14.4051 Y10.7341
G01 X14.4043 Y10.7462
G01 X14.4021 Y10.7581
G01 X14.4001 Y10.7651
G01 X14.3975 Y10.7720
G01 X14.3945 Y10.7786
G01 X14.3897 Y10.7870
G01 X14.3856 Y10.7930
G01 X14.3794 Y10.8006
G01 X14.3743 Y10.8058
G01 X14.3689 Y10.8106
G01 X14.3631 Y10.8150
G01 X14.3549 Y10.8202
G01 X14.3484 Y10.8236
G01 X14.3417 Y10.8264
G01 X14.3348 Y10.8288
G01 X14.3278 Y10.8307
G01 X14.3206 Y10.8320
G01 X14.3109 Y10.8330
G01 X12.7821 Y10.8331
G01 X12.7700 Y10.8323
G01 X12.7580 Y10.8301
G01 X12.7510 Y10.8281
G01 X12.7442 Y10.8255
G01 X12.7333 Y10.8202
G01 X12.7271 Y10.8164
G01 X12.7212 Y10.8121
G01 X12.7156 Y10.8074
G01 X12.7104 Y10.8023
G01 X12.7055 Y10.7969
G01 X12.7011 Y10.7911
G01 X12.6972 Y10.7850
G01 X12.6936 Y10.7786
G01 X12.6889 Y10.7674
G01 X12.6867 Y10.7605
G01 X12.6850 Y10.7534
G01 X12.6836 Y10.7438
G01 X12.6831 Y10.7341
G01 X12.6832 Y10.4292
G01 X12.6838 Y10.4220
G01 X12.6855 Y10.4124
G01 X12.6881 Y10.4030
G01 X12.6916 Y10.3940
G01 X12.6959 Y10.3853
G01 X12.7011 Y10.3771
G01 X12.7071 Y10.3694
G01 X12.7138 Y10.3624
G01 X12.7212 Y10.3560
G01 X12.7291 Y10.3504
G01 X12.7376 Y10.3456
G01 X12.7442 Y10.3426
G01 X12.7533 Y10.3393
G01 X12.7628 Y10.3370
G01 X12.7724 Y10.3356
G01 X12.7821 Y10.3351
G00 Z2.0000
G00 X12.7821 Y10.8351
G01 F60.00
G01 Z-0.0200
G01 F60.00
G01 X14.3061 Y10.8351
G01 X14.3182 Y10.8358
G01 X14.3301 Y10.8380
G01 X14.3417 Y10.8417
G01 X14.3484 Y10.8446
G01 X14.3549 Y10.8479
G01 X14.3611 Y10.8518
G01 X14.3670 Y10.8560
G01 X14.3726 Y10.8607
G01 X14.3778 Y10.8658
G01 X14.3826 Y10.8713
G01 X14.3870 Y10.8771
G01 X14.3910 Y10.8832
G01 X14.3945 Y10.8896
G01 X14.3975 Y10.8962
G01 X14.4001 Y10.9030
G01 X14.4021 Y10.9100
G01 X14.4036 Y10.9171
G01 X14.4048 Y10.9268
G01 X14.4051 Y10.9341
G01 X14.4051 Y11.2341
G01 X14.4043 Y11.2462
G01 X14.4021 Y11.2581
G01 X14.4001 Y11.2651
G01 X14.3975 Y11.2720
G01 X14.3945 Y11.2786
G01 X14.3897 Y11.2870
G01 X14.3856 Y11.2930
G01 X14.3794 Y11.3006
G01 X14.3743 Y11.3058
G01 X14.3689 Y11.3106
G01 X14.3631 Y11.3150
G01 X14.3549 Y11.3202
G01 X14.3484 Y11.3236
G01 X14.3417 Y11.3264
G01 X14.3348 Y11.3288
G01 X14.3278 Y11.3307
G01 X14.3206 Y11.3320
G01 X14.3109 Y11.3330
G01 X12.7821 Y11.3331
G01 X12.7700 Y11.3323
G01 X12.7580 Y11.3301
G01 X12.7510 Y11.3281
G01 X12.7442 Y11.3255
G01 X12.7333 Y11.3202
G01 X12.7271 Y11.3164
G01 X12.7212 Y11.3121
G01 X12.7156 Y11.3074
G01 X12.7104 Y11.3023
G01 X12.7055 Y11.2969
G01 X12.7011 Y11.2911
G01 X12.6972 Y11.2850
G01 X12.6936 Y11.2786
G01 X12.6889 Y11.2674
G01 X12.6867 Y11.2605
G01 X12.6850 Y11.2534
G01 X12.6836 Y11.2438
G01 X12.6831 Y11.2341
G01 X12.6832 Y10.9292
G01 X12.6838 Y10.9220
G01 X12.6855 Y10.9124
G01 X12.6881 Y10.9030
G01 X12.6916 Y10.8940
G01 X12.6959 Y10.8853
G01 X12.7011 Y10.8771
G01 X12.7071 Y10.8694
G01 X12.7138 Y10.8624
G01 X12.7212 Y10.8560
G01 X12.7291 Y10.8504
G01 X12.7376 Y10.8456
G01 X12.7442 Y10.8426
G01 X12.7533 Y10.8393
G01 X12.7628 Y10.8370
G01 X12.7724 Y10.8356
G01 X12.7821 Y10.8351
G00 Z2.0000
G00 X12.7821 Y11.3351
G01 F60.00
G01 Z-0.0200
G01 F60.00
G01 X14.3061 Y11.3351
G01 X14.3182 Y11.3358
G01 X14.3301 Y11.3380
G01 X14.3417 Y11.3417
G01 X14.3484 Y11.3446
G01 X14.3549 Y11.3479
G01 X14.3611 Y11.3518
G01 X14.3670 Y11.3560
G01 X14.3726 Y11.3607
G01 X14.3778 Y11.3658
G01 X14.3826 Y11.3713
G01 X14.3870 Y11.3771
G01 X14.3910 Y11.3832
G01 X14.3945 Y11.3896
G01 X14.3975 Y11.3962
G01 X14.4001 Y11.4030
G01 X14.4021 Y11.4100
G01 X14.4036 Y11.4171
G01 X14.4048 Y11.4268
G01 X14.4051 Y11.4341
G01 X14.4051 Y11.7341
G01 X14.4043 Y11.7462
G01 X14.4021 Y11.7581
G01 X14.4001 Y11.7651
G01 X14.3975 Y11.7720
G01 X14.3945 Y11.7786
G01 X14.3897 Y11.7870
G01 X14.3856 Y11.7930
G01 X14.3794 Y11.8006
G01 X14.3743 Y11.8058
G01 X14.3689 Y11.8106
G01 X14.3631 Y11.8150
G01 X14.3549 Y11.8202
G01 X14.3484 Y11.8236
G01 X14.3417 Y11.8264
G01 X14.3348 Y11.8288
G01 X14.3278 Y11.8307
G01 X14.3206 Y11.8320
G01 X14.3109 Y11.8330
G01 X12.7821 Y11.8331
G01 X12.7700 Y11.8323
G01 X12.7580 Y11.8301
G01 X12.7510 Y11.8281
G01 X12.7442 Y11.8255
G01 X12.7333 Y11.8202
G01 X12.7271 Y11.8164
G01 X12.7212 Y11.8121
G01 X12.7156 Y11.8074
G01 X12.7104 Y11.8023
G01 X12.7055 Y11.7969
G01 X12.7011 Y11.7911
G01 X12.6972 Y11.7850
G01 X12.6936 Y11.7786
G01 X12.6889 Y11.7674
G01 X12.6867 Y11.7605
G01 X12.6850 Y11.7534
G01 X12.6836 Y11.7438
G01 X12.6831 Y11.7341
G01 X12.6832 Y11.4292
G01 X12.6838 Y11.4220
G01 X12.6855 Y11.4124
G01 X12.6881 Y11.4030
G01 X12.6916 Y11.3940
G01 X12.6959 Y11.3853
G01 X12.7011 Y11.3771
G01 X12.7071 Y11.3694
G01 X12.7138 Y11.3624
G01 X12.7212 Y11.3560
G01 X12.7291 Y11.3504
G01 X12.7376 Y11.3456
G01 X12.7442 Y11.3426
G01 X12.7533 Y11.3393
G01 X12.7628 Y11.3370
G01 X12.7724 Y11.3356
G01 X12.7821 Y11.3351
G00 Z2.0000
G00 X12.7821 Y11.8351
G01 F60.00
G01 Z-0.0200
G01 F60.00
G01 X14.3061 Y11.8351
G01 X14.3182 Y11.8358
G01 X14.3301 Y11.8380
G01 X14.3417 Y11.8417
G01 X14.3484 Y11.8446
G01 X14.3549 Y11.8479
G01 X14.3611 Y11.8518
G01 X14.3670 Y11.8560
G01 X14.3726 Y11.8607
G01 X14.3778 Y11.8658
G01 X14.3826 Y11.8713
G01 X14.3870 Y11.8771
G01 X14.3910 Y11.8832
G01 X14.3945 Y11.8896
G01 X14.3975 Y11.8962
G01 X14.4001 Y11.9030
G01 X14.4021 Y11.9100
G01 X14.4036 Y11.9171
G01 X14.4048 Y11.9268
G01 X14.4051 Y11.9341
G01 X14.4051 Y12.2341
G01 X14.4043 Y12.2462
G01 X14.4021 Y12.2581
G01 X14.4001 Y12.2651
G01 X14.3975 Y12.2720
G01 X14.3945 Y12.2786
G01 X14.3897 Y12.2870
G01 X14.3856 Y12.2930
G01 X14.3794 Y12.3006
G01 X14.3743 Y12.3058
G01 X14.3689 Y12.3106
G01 X14.3631 Y12.3150
G01 X14.3549 Y12.3202
G01 X14.3484 Y12.3236
G01 X14.3417 Y12.3264
G01 X14.3348 Y12.3288
G01 X14.3278 Y12.3307
G01 X14.3206 Y12.3320
G01 X14.3109 Y12.3330
G01 X12.7821 Y12.3331
G01 X12.7700 Y12.3323
G01 X12.7580 Y12.3301
G01 X12.7510 Y12.3281
G01 X12.7442 Y12.3255
G01 X12.7333 Y12.3202
G01 X12.7271 Y12.3164
G01 X12.7212 Y12.3121
G01 X12.7156 Y12.3074
G01 X12.7104 Y12.3023
G01 X12.7055 Y12.2969
G01 X12.7011 Y12.2911
G01 X12.6972 Y12.2850
G01 X12.6936 Y12.2786
G01 X12.6889 Y12.2674
G01 X12.6867 Y12.2605
G01 X12.6850 Y12.2534
G01 X12.6836 Y12.2438
G01 X12.6831 Y12.2341
G01 X12.6832 Y11.9292
G01 X12.6838 Y11.9220
G01 X12.6855 Y11.9124
G01 X12.6881 Y11.9030
G01 X12.6916 Y11.8940
G01 X12.6959 Y11.8853
G01 X12.7011 Y11.8771
G01 X12.7071 Y11.8694
G01 X12.7138 Y11.8624
G01 X12.7212 Y11.8560
G01 X12.7291 Y11.8504
G01 X12.7376 Y11.8456
G01 X12.7442 Y11.8426
G01 X12.7533 Y11.8393
G01 X12.7628 Y11.8370
G01 X12.7724 Y11.8356
G01 X12.7821 Y11.8351
G00 Z2.0000
G00 X12.7821 Y12.3351
G01 F60.00
G01 Z-0.0200
G01 F60.00
G01 X14.3061 Y12.3351
G01 X14.3182 Y12.3358
G01 X14.3301 Y12.3380
G01 X14.3417 Y12.3417
G01 X14.3484 Y12.3446
G01 X14.3549 Y12.3479
G01 X14.3611 Y12.3518
G01 X14.3670 Y12.3560
G01 X14.3726 Y12.3607
G01 X14.3778 Y12.3658
G01 X14.3826 Y12.3713
G01 X14.3870 Y12.3771
G01 X14.3910 Y12.3832
G01 X14.3945 Y12.3896
G01 X14.3975 Y12.3962
G01 X14.4001 Y12.4030
G01 X14.4021 Y12.4100
G01 X14.4036 Y12.4171
G01 X14.4048 Y12.4268
G01 X14.4051 Y12.4341
G01 X14.4051 Y12.7341
G01 X14.4043 Y12.7462
G01 X14.4021 Y12.7581
G01 X14.4001 Y12.7651
G01 X14.3975 Y12.7720
G01 X14.3945 Y12.7786
G01 X14.3897 Y12.7870
G01 X14.3856 Y12.7930
G01 X14.3794 Y12.8006
G01 X14.3743 Y12.8058
G01 X14.3689 Y12.8106
G01 X14.3631 Y12.8150
G01 X14.3549 Y12.8202
G01 X14.3484 Y12.8236
G01 X14.3417 Y12.8264
G01 X14.3348 Y12.8288
G01 X14.3278 Y12.8307
G01 X14.3206 Y12.8320
G01 X14.3109 Y12.8330
G01 X12.7821 Y12.8331
G01 X12.7700 Y12.8323
G01 X12.7580 Y12.8301
G01 X12.7510 Y12.8281
G01 X12.7442 Y12.8255
G01 X12.7333 Y12.8202
G01 X12.7271 Y12.8164
G01 X12.7212 Y12.8121
G01 X12.7156 Y12.8074
G01 X12.7104 Y12.8023
G01 X12.7055 Y12.7969
G01 X12.7011 Y12.7911
G01 X12.6972 Y12.7850
G01 X12.6936 Y12.7786
G01 X12.6889 Y12.7674
G01 X12.6867 Y12.7605
G01 X12.6850 Y12.7534
G01 X12.6836 Y12.7438
G01 X12.6831 Y12.7341
G01 X12.6832 Y12.4292
G01 X12.6838 Y12.4220
G01 X12.6855 Y12.4124
G01 X12.6881 Y12.4030
G01 X12.6916 Y12.3940
G01 X12.6959 Y12.3853
G01 X12.7011 Y12.3771
G01 X12.7071 Y12.3694
G01 X12.7138 Y12.3624
G01 X12.7212 Y12.3560
G01 X12.7291 Y12.3504
G01 X12.7376 Y12.3456
G01 X12.7442 Y12.3426
G01 X12.7533 Y12.3393
G01 X12.7628 Y12.3370
G01 X12.7724 Y12.3356
G01 X12.7821 Y12.3351
G00 Z2.0000
G00 X12.7821 Y12.8351
G01 F60.00
G01 Z-0.0200
G01 F60.00
G01 X14.3061 Y12.8351
G01 X14.3182 Y12.8358
G01 X14.3301 Y12.8380
G01 X14.3417 Y12.8417
G01 X14.3484 Y12.8446
G01 X14.3549 Y12.8479
G01 X14.3611 Y12.8518
G01 X14.3670 Y12.8560
G01 X14.3726 Y12.8607
G01 X14.3778 Y12.8658
G01 X14.3826 Y12.8713
G01 X14.3870 Y12.8771
G01 X14.3910 Y12.8832
G01 X14.3945 Y12.8896
G01 X14.3975 Y12.8962
G01 X14.4001 Y12.9030
G01 X14.4021 Y12.9100
G01 X14.4036 Y12.9171
G01 X14.4048 Y12.9268
G01 X14.4051 Y12.9341
G01 X14.4051 Y13.2341
G01 X14.4043 Y13.2462
G01 X14.4021 Y13.2581
G01 X14.4001 Y13.2651
G01 X14.3975 Y13.2720
G01 X14.3945 Y13.2786
G01 X14.3897 Y13.2870
G01 X14.3856 Y13.2930
G01 X14.3794 Y13.3006
G01 X14.3743 Y13.3058
G01 X14.3689 Y13.3106
G01 X14.3631 Y13.3150
G01 X14.3549 Y13.3202
G01 X14.3484 Y13.3236
G01 X14.3417 Y13.3264
G01 X14.3348 Y13.3288
G01 X14.3278 Y13.3307
G01 X14.3206 Y13.3320
G01 X14.3109 Y13.3330
G01 X12.7821 Y13.3331
G01 X12.7700 Y13.3323
G01 X12.7580 Y13.3301
G01 X12.7510 Y13.3281
G01 X12.7442 Y13.3255
G01 X12.7333 Y13.3202
G01 X12.7271 Y13.3164
G01 X12.7212 Y13.3121
G01 X12.7156 Y13.3074
G01 X12.7104 Y13.3023
G01 X12.7055 Y13.2969
G01 X12.7011 Y13.2911
G01 X12.6972 Y13.2850
G01 X12.6936 Y13.2786
G01 X12.6889 Y13.2674
G01 X12.6867 Y13.2605
G01 X12.6850 Y13.2534
G01 X12.6836 Y13.2438
G01 X12.6831 Y13.2341
G01 X12.6832 Y12.9292
G01 X12.6838 Y12.9220
G01 X12.6855 Y12.9124
G01 X12.6881 Y12.9030
G01 X12.6916 Y12.8940
G01 X12.6959 Y12.8853
G01 X12.7011 Y12.8771
G01 X12.7071 Y12.8694
G01 X12.7138 Y12.8624
G01 X12.7212 Y12.8560
G01 X12.7291 Y12.8504
G01 X12.7376 Y12.8456
G01 X12.7442 Y12.8426
G01 X12.7533 Y12.8393
G01 X12.7628 Y12.8370
G01 X12.7724 Y12.8356
G01 X12.7821 Y12.8351
G00 Z2.0000
G00 X12.7821 Y13.3351
G01 F60.00
G01 Z-0.0200
G01 F60.00
G01 X14.3061 Y13.3351
G01 X14.3182 Y13.3358
G01 X14.3301 Y13.3380
G01 X14.3417 Y13.3417
G01 X14.3484 Y13.3446
G01 X14.3549 Y13.3479
G01 X14.3611 Y13.3518
G01 X14.3670 Y13.3560
G01 X14.3726 Y13.3607
G01 X14.3778 Y13.3658
G01 X14.3826 Y13.3713
G01 X14.3870 Y13.3771
G01 X14.3910 Y13.3832
G01 X14.3945 Y13.3896
G01 X14.3975 Y13.3962
G01 X14.4001 Y13.4030
G01 X14.4021 Y13.4100
G01 X14.4036 Y13.4171
G01 X14.4048 Y13.4268
G01 X14.4051 Y13.4341
G01 X14.4051 Y13.7341
G01 X14.4043 Y13.7462
G01 X14.4021 Y13.7581
G01 X14.4001 Y13.7651
G01 X14.3975 Y13.7720
G01 X14.3945 Y13.7786
G01 X14.3897 Y13.7870
G01 X14.3856 Y13.7930
G01 X14.3794 Y13.8006
G01 X14.3743 Y13.8058
G01 X14.3689 Y13.8106
G01 X14.3631 Y13.8150
G01 X14.3549 Y13.8202
G01 X14.3484 Y13.8236
G01 X14.3417 Y13.8264
G01 X14.3348 Y13.8288
G01 X14.3278 Y13.8307
G01 X14.3206 Y13.8320
G01 X14.3109 Y13.8330
G01 X12.7821 Y13.8331
G01 X12.7700 Y13.8323
G01 X12.7580 Y13.8301
G01 X12.7510 Y13.8281
G01 X12.7442 Y13.8255
G01 X12.7333 Y13.8202
G01 X12.7271 Y13.8164
G01 X12.7212 Y13.8121
G01 X12.7156 Y13.8074
G01 X12.7104 Y13.8023
G01 X12.7055 Y13.7969
G01 X12.7011 Y13.7911
G01 X12.6972 Y13.7850
G01 X12.6936 Y13.7786
G01 X12.6889 Y13.7674
G01 X12.6867 Y13.7605
G01 X12.6850 Y13.7534
G01 X12.6836 Y13.7438
G01 X12.6831 Y13.7341
G01 X12.6832 Y13.4292
G01 X12.6838 Y13.4220
G01 X12.6855 Y13.4124
G01 X12.6881 Y13.4030
G01 X12.6916 Y13.3940
G01 X12.6959 Y13.3853
G01 X12.7011 Y13.3771
G01 X12.7071 Y13.3694
G01 X12.7138 Y13.3624
G01 X12.7212 Y13.3560
G01 X12.7291 Y13.3504
G01 X12.7376 Y13.3456
G01 X12.7442 Y13.3426
G01 X12.7533 Y13.3393
G01 X12.7628 Y13.3370
G01 X12.7724 Y13.3356
G01 X12.7821 Y13.3351
G00 Z2.0000
G00 X12.7821 Y13.8351
G01 F60.00
G01 Z-0.0200
G01 F60.00
G01 X14.3061 Y13.8351
G01 X14.3182 Y13.8358
G01 X14.3301 Y13.8380
G01 X14.3417 Y13.8417
G01 X14.3484 Y13.8446
G01 X14.3549 Y13.8479
G01 X14.3611 Y13.8518
G01 X14.3670 Y13.8560
G01 X14.3726 Y13.8607
G01 X14.3778 Y13.8658
G01 X14.3826 Y13.8713
G01 X14.3870 Y13.8771
G01 X14.3910 Y13.8832
G01 X14.3945 Y13.8896
G01 X14.3975 Y13.8962
G01 X14.4001 Y13.9030
G01 X14.4021 Y13.9100
G01 X14.4036 Y13.9171
G01 X14.4048 Y13.9268
G01 X14.4051 Y13.9341
G01 X14.4051 Y14.2341
G01 X14.4043 Y14.2462
G01 X14.4021 Y14.2581
G01 X14.4001 Y14.2651
G01 X14.3975 Y14.2720
G01 X14.3945 Y14.2786
G01 X14.3897 Y14.2870
G01 X14.3856 Y14.2930
G01 X14.3794 Y14.3006
G01 X14.3743 Y14.3058
G01 X14.3689 Y14.3106
G01 X14.3631 Y14.3150
G01 X14.3549 Y14.3202
G01 X14.3484 Y14.3236
G01 X14.3417 Y14.3264
G01 X14.3348 Y14.3288
G01 X14.3278 Y14.3307
G01 X14.3206 Y14.3320
G01 X14.3109 Y14.3330
G01 X12.7821 Y14.3331
G01 X12.7700 Y14.3323
G01 X12.7580 Y14.3301
G01 X12.7510 Y14.3281
G01 X12.7442 Y14.3255
G01 X12.7333 Y14.3202
G01 X12.7271 Y14.3164
G01 X12.7212 Y14.3121
G01 X12.7156 Y14.3074
G01 X12.7104 Y14.3023
G01 X12.7055 Y14.2969
G01 X12.7011 Y14.2911
G01 X12.6972 Y14.2850
G01 X12.6936 Y14.2786
G01 X12.6889 Y14.2674
G01 X12.6867 Y14.2605
G01 X12.6850 Y14.2534
G01 X12.6836 Y14.2438
G01 X12.6831 Y14.2341
G01 X12.6832 Y13.9292
G01 X12.6838 Y13.9220
G01 X12.6855 Y13.9124
G01 X12.6881 Y13.9030
G01 X12.6916 Y13.8940
G01 X12.6959 Y13.8853
G01 X12.7011 Y13.8771
G01 X12.7071 Y13.8694
G01 X12.7138 Y13.8624
G01 X12.7212 Y13.8560
G01 X12.7291 Y13.8504
G01 X12.7376 Y13.8456
G01 X12.7442 Y13.8426
G01 X12.7533 Y13.8393
G01 X12.7628 Y13.8370
G01 X12.7724 Y13.8356
G01 X12.7821 Y13.8351
G00 Z2.0000
G00 X12.7821 Y14.3351
G01 F60.00
G01 Z-0.0200
G01 F60.00
G01 X19.0139 Y14.3350
G01 X19.0257 Y14.3233
G01 X19.0402 Y14.3101
G01 X19.0597 Y14.2954
G01 X19.0827 Y14.2814
G01 X19.1025 Y14.2719
G01 X19.1278 Y14.2627
G01 X19.1515 Y14.2568
G01 X19.1757 Y14.2532
G01 X19.2025 Y14.2520
G01 X19.2245 Y14.2532
G01 X19.2487 Y14.2568
G01 X19.2724 Y14.2627
G01 X19.2954 Y14.2710
G01 X19.3175 Y14.2814
G01 X19.3385 Y14.2940
G01 X19.3581 Y14.3085
G01 X19.3762 Y14.3250
G01 X19.3926 Y14.3431
G01 X19.4072 Y14.3627
G01 X19.4197 Y14.3837
G01 X19.4302 Y14.4058
G01 X19.4384 Y14.4288
G01 X19.4444 Y14.4525
G01 X19.4480 Y14.4767
G01 X19.4491 Y14.5035
G01 X19.4480 Y14.5255
G01 X19.4444 Y14.5497
G01 X19.4384 Y14.5734
G01 X19.4302 Y14.5964
G01 X19.4197 Y14.6185
G01 X19.4072 Y14.6395
G01 X19.3926 Y14.6591
G01 X19.3779 Y14.6755
G01 X19.2915 Y14.7619
G01 X19.2751 Y14.7766
G01 X19.2534 Y14.7925
G01 X19.2366 Y14.8026
G01 X19.2239 Y14.8089
G01 X19.2101 Y14.8151
G01 X19.1917 Y14.8217
G01 X19.1657 Y14.8284
G01 X19.1463 Y14.8314
G01 X19.1366 Y14.8323
G01 X19.1171 Y14.8331
G01 X12.7796 Y14.8330
G01 X12.7724 Y14.8326
G01 X12.7651 Y14.8316
G01 X12.7557 Y14.8295
G01 X12.7487 Y14.8273
G01 X12.7420 Y14.8246
G01 X12.7333 Y14.8202
G01 X12.7251 Y14.8150
G01 X12.7193 Y14.8106
G01 X12.7121 Y14.8041
G01 X12.7071 Y14.7987
G01 X12.7026 Y14.7930
G01 X12.6984 Y14.7870
G01 X12.6948 Y14.7807
G01 X12.6916 Y14.7742
G01 X12.6881 Y14.7651
G01 X12.6860 Y14.7581
G01 X12.6838 Y14.7462
G01 X12.6831 Y14.7341
G01 X12.6831 Y14.4341
G01 X12.6836 Y14.4244
G01 X12.6850 Y14.4148
G01 X12.6873 Y14.4053
G01 X12.6906 Y14.3962
G01 X12.6948 Y14.3874
G01 X12.6998 Y14.3791
G01 X12.7055 Y14.3713
G01 X12.7121 Y14.3641
G01 X12.7193 Y14.3575
G01 X12.7271 Y14.3518
G01 X12.7354 Y14.3468
G01 X12.7442 Y14.3426
G01 X12.7533 Y14.3393
G01 X12.7628 Y14.3370
G01 X12.7724 Y14.3356
G01 X12.7821 Y14.3351
G00 Z2.0000
G00 X11.8941 Y15.2231
G01 F60.00
G01 Z-0.0200
G01 F60.00
G01 X12.1941 Y15.2231
G01 X12.2038 Y15.2236
G01 X12.2134 Y15.2250
G01 X12.2205 Y15.2267
G01 X12.2274 Y15.2289
G01 X12.2342 Y15.2316
G01 X12.2407 Y15.2348
G01 X12.2470 Y15.2384
G01 X12.2530 Y15.2426
G01 X12.2606 Y15.2487
G01 X12.2658 Y15.2538
G01 X12.2706 Y15.2593
G01 X12.2750 Y15.2651
G01 X12.2790 Y15.2712
G01 X12.2825 Y15.2776
G01 X12.2855 Y15.2842
G01 X12.2881 Y15.2910
G01 X12.2901 Y15.2980
G01 X12.2916 Y15.3051
G01 X12.2928 Y15.3148
G01 X12.2931 Y15.3221
G01 X12.2930 Y16.8509
G01 X12.2920 Y16.8606
G01 X12.2907 Y16.8678
G01 X12.2888 Y16.8748
G01 X12.2855 Y16.8840
G01 X12.2814 Y16.8927
G01 X12.2777 Y16.8990
G01 X12.2721 Y16.9070
G01 X12.2674 Y16.9126
G01 X12.2623 Y16.9178
G01 X12.2569 Y16.9226
G01 X12.2511 Y16.9270
G01 X12.2429 Y16.9322
G01 X12.2342 Y16.9366
G01 X12.2274 Y16.9393
G01 X12.2205 Y16.9415
G01 X12.2110 Y16.9436
G01 X12.2014 Y16.9448
G01 X12.1941 Y16.9451
G01 X11.8941 Y16.9451
G01 X11.8844 Y16.9446
G01 X11.8748 Y16.9432
G01 X11.8677 Y16.9415
G01 X11.8607 Y16.9393
G01 X11.8540 Y16.9366
G01 X11.8474 Y16.9334
G01 X11.8411 Y16.9297
G01 X11.8351 Y16.9256
G01 X11.8276 Y16.9194
G01 X11.8224 Y16.9143
G01 X11.8175 Y16.9089
G01 X11.8131 Y16.9031
G01 X11.8092 Y16.8970
G01 X11.8056 Y16.8906
G01 X11.8026 Y16.8840
G01 X11.8001 Y16.8771
G01 X11.7980 Y16.8701
G01 X11.7965 Y16.8630
G01 X11.7953 Y16.8534
G01 X11.7951 Y16.8461
G01 X11.7952 Y15.3172
G01 X11.7961 Y15.3075
G01 X11.7980 Y15.2980
G01 X11.8001 Y15.2910
G01 X11.8036 Y15.2820
G01 X11.8079 Y15.2733
G01 X11.8131 Y15.2651
G01 X11.8191 Y15.2574
G01 X11.8258 Y15.2504
G01 X11.8332 Y15.2440
G01 X11.8411 Y15.2384
G01 X11.8474 Y15.2348
G01 X11.8562 Y15.2306
G01 X11.8653 Y15.2273
G01 X11.8748 Y15.2250
G01 X11.8844 Y15.2236
G01 X11.8941 Y15.2231
G00 Z2.0000
G00 X11.3941 Y15.2231
G01 F60.00
G01 Z-0.0200
G01 F60.00
G01 X11.6941 Y15.2231
G01 X11.7038 Y15.2236
G01 X11.7134 Y15.2250
G01 X11.7205 Y15.2267
G01 X11.7274 Y15.2289
G01 X11.7342 Y15.2316
G01 X11.7407 Y15.2348
G01 X11.7470 Y15.2384
G01 X11.7530 Y15.2426
G01 X11.7606 Y15.2487
G01 X11.7658 Y15.2538
G01 X11.7706 Y15.2593
G01 X11.7750 Y15.2651
G01 X11.7790 Y15.2712
G01 X11.7825 Y15.2776
G01 X11.7855 Y15.2842
G01 X11.7881 Y15.2910
G01 X11.7901 Y15.2980
G01 X11.7916 Y15.3051
G01 X11.7928 Y15.3148
G01 X11.7931 Y15.3221
G01 X11.7930 Y16.8509
G01 X11.7920 Y16.8606
G01 X11.7907 Y16.8678
G01 X11.7888 Y16.8748
G01 X11.7855 Y16.8840
G01 X11.7814 Y16.8927
G01 X11.7777 Y16.8990
G01 X11.7721 Y16.9070
G01 X11.7674 Y16.9126
G01 X11.7623 Y16.9178
G01 X11.7569 Y16.9226
G01 X11.7511 Y16.9270
G01 X11.7429 Y16.9322
G01 X11.7342 Y16.9366
G01 X11.7274 Y16.9393
G01 X11.7205 Y16.9415
G01 X11.7110 Y16.9436
G01 X11.7014 Y16.9448
G01 X11.6941 Y16.9451
G01 X11.3941 Y16.9451
G01 X11.3844 Y16.9446
G01 X11.3748 Y16.9432
G01 X11.3677 Y16.9415
G01 X11.3607 Y16.9393
G01 X11.3540 Y16.9366
G01 X11.3474 Y16.9334
G01 X11.3411 Y16.9297
G01 X11.3351 Y16.9256
G01 X11.3276 Y16.9194
G01 X11.3224 Y16.9143
G01 X11.3175 Y16.9089
G01 X11.3131 Y16.9031
G01 X11.3092 Y16.8970
G01 X11.3056 Y16.8906
G01 X11.3026 Y16.8840
G01 X11.3001 Y16.8771
G01 X11.2980 Y16.8701
G01 X11.2965 Y16.8630
G01 X11.2953 Y16.8534
G01 X11.2951 Y16.8461
G01 X11.2952 Y15.3172
G01 X11.2961 Y15.3075
G01 X11.2980 Y15.2980
G01 X11.3001 Y15.2910
G01 X11.3036 Y15.2820
G01 X11.3079 Y15.2733
G01 X11.3131 Y15.2651
G01 X11.3191 Y15.2574
G01 X11.3258 Y15.2504
G01 X11.3332 Y15.2440
G01 X11.3411 Y15.2384
G01 X11.3474 Y15.2348
G01 X11.3562 Y15.2306
G01 X11.3653 Y15.2273
G01 X11.3748 Y15.2250
G01 X11.3844 Y15.2236
G01 X11.3941 Y15.2231
G00 Z2.0000
G00 X10.8941 Y15.2231
G01 F60.00
G01 Z-0.0200
G01 F60.00
G01 X11.1941 Y15.2231
G01 X11.2038 Y15.2236
G01 X11.2134 Y15.2250
G01 X11.2205 Y15.2267
G01 X11.2274 Y15.2289
G01 X11.2342 Y15.2316
G01 X11.2407 Y15.2348
G01 X11.2470 Y15.2384
G01 X11.2530 Y15.2426
G01 X11.2606 Y15.2487
G01 X11.2658 Y15.2538
G01 X11.2706 Y15.2593
G01 X11.2750 Y15.2651
G01 X11.2790 Y15.2712
G01 X11.2825 Y15.2776
G01 X11.2855 Y15.2842
G01 X11.2881 Y15.2910
G01 X11.2901 Y15.2980
G01 X11.2916 Y15.3051
G01 X11.2928 Y15.3148
G01 X11.2931 Y15.3221
G01 X11.2930 Y16.8509
G01 X11.2920 Y16.8606
G01 X11.2907 Y16.8678
G01 X11.2888 Y16.8748
G01 X11.2855 Y16.8840
G01 X11.2814 Y16.8927
G01 X11.2777 Y16.8990
G01 X11.2721 Y16.9070
G01 X11.2674 Y16.9126
G01 X11.2623 Y16.9178
G01 X11.2569 Y16.9226
G01 X11.2511 Y16.9270
G01 X11.2429 Y16.9322
G01 X11.2342 Y16.9366
G01 X11.2274 Y16.9393
G01 X11.2205 Y16.9415
G01 X11.2110 Y16.9436
G01 X11.2014 Y16.9448
G01 X11.1941 Y16.9451
G01 X10.8941 Y16.9451
G01 X10.8844 Y16.9446
G01 X10.8748 Y16.9432
G01 X10.8677 Y16.9415
G01 X10.8607 Y16.9393
G01 X10.8540 Y16.9366
G01 X10.8474 Y16.9334
G01 X10.8411 Y16.9297
G01 X10.8351 Y16.9256
G01 X10.8276 Y16.9194
G01 X10.8224 Y16.9143
G01 X10.8175 Y16.9089
G01 X10.8131 Y16.9031
G01 X10.8092 Y16.8970
G01 X10.8056 Y16.8906
G01 X10.8026 Y16.8840
G01 X10.8001 Y16.8771
G01 X10.7980 Y16.8701
G01 X10.7965 Y16.8630
G01 X10.7953 Y16.8534
G01 X10.7951 Y16.8461
G01 X10.7952 Y15.3172
G01 X10.7961 Y15.3075
G01 X10.7980 Y15.2980
G01 X10.8001 Y15.2910
G01 X10.8036 Y15.2820
G01 X10.8079 Y15.2733
G01 X10.8131 Y15.2651
G01 X10.8191 Y15.2574
G01 X10.8258 Y15.2504
G01 X10.8332 Y15.2440
G01 X10.8411 Y15.2384
G01 X10.8474 Y15.2348
G01 X10.8562 Y15.2306
G01 X10.8653 Y15.2273
G01 X10.8748 Y15.2250
G01 X10.8844 Y15.2236
G01 X10.8941 Y15.2231
G00 Z2.0000
G00 X10.3941 Y15.2231
G01 F60.00
G01 Z-0.0200
G01 F60.00
G01 X10.6941 Y15.2231
G01 X10.7038 Y15.2236
G01 X10.7134 Y15.2250
G01 X10.7205 Y15.2267
G01 X10.7274 Y15.2289
G01 X10.7342 Y15.2316
G01 X10.7407 Y15.2348
G01 X10.7470 Y15.2384
G01 X10.7530 Y15.2426
G01 X10.7606 Y15.2487
G01 X10.7658 Y15.2538
G01 X10.7706 Y15.2593
G01 X10.7750 Y15.2651
G01 X10.7790 Y15.2712
G01 X10.7825 Y15.2776
G01 X10.7855 Y15.2842
G01 X10.7881 Y15.2910
G01 X10.7901 Y15.2980
G01 X10.7916 Y15.3051
G01 X10.7928 Y15.3148
G01 X10.7931 Y15.3221
G01 X10.7930 Y16.8509
G01 X10.7920 Y16.8606
G01 X10.7907 Y16.8678
G01 X10.7888 Y16.8748
G01 X10.7855 Y16.8840
G01 X10.7814 Y16.8927
G01 X10.7777 Y16.8990
G01 X10.7721 Y16.9070
G01 X10.7674 Y16.9126
G01 X10.7623 Y16.9178
G01 X10.7569 Y16.9226
G01 X10.7511 Y16.9270
G01 X10.7429 Y16.9322
G01 X10.7342 Y16.9366
G01 X10.7274 Y16.9393
G01 X10.7205 Y16.9415
G01 X10.7110 Y16.9436
G01 X10.7014 Y16.9448
G01 X10.6941 Y16.9451
G01 X10.3941 Y16.9451
G01 X10.3844 Y16.9446
G01 X10.3748 Y16.9432
G01 X10.3677 Y16.9415
G01 X10.3607 Y16.9393
G01 X10.3540 Y16.9366
G01 X10.3474 Y16.9334
G01 X10.3411 Y16.9297
G01 X10.3351 Y16.9256
G01 X10.3276 Y16.9194
G01 X10.3224 Y16.9143
G01 X10.3175 Y16.9089
G01 X10.3131 Y16.9031
G01 X10.3092 Y16.8970
G01 X10.3056 Y16.8906
G01 X10.3026 Y16.8840
G01 X10.3001 Y16.8771
G01 X10.2980 Y16.8701
G01 X10.2965 Y16.8630
G01 X10.2953 Y16.8534
G01 X10.2951 Y16.8461
G01 X10.2952 Y15.3172
G01 X10.2961 Y15.3075
G01 X10.2980 Y15.2980
G01 X10.3001 Y15.2910
G01 X10.3036 Y15.2820
G01 X10.3079 Y15.2733
G01 X10.3131 Y15.2651
G01 X10.3191 Y15.2574
G01 X10.3258 Y15.2504
G01 X10.3332 Y15.2440
G01 X10.3411 Y15.2384
G01 X10.3474 Y15.2348
G01 X10.3562 Y15.2306
G01 X10.3653 Y15.2273
G01 X10.3748 Y15.2250
G01 X10.3844 Y15.2236
G01 X10.3941 Y15.2231
G00 Z2.0000
G00 X9.8941 Y15.2231
G01 F60.00
G01 Z-0.0200
G01 F60.00
G01 X10.1941 Y15.2231
G01 X10.2038 Y15.2236
G01 X10.2134 Y15.2250
G01 X10.2205 Y15.2267
G01 X10.2274 Y15.2289
G01 X10.2342 Y15.2316
G01 X10.2407 Y15.2348
G01 X10.2470 Y15.2384
G01 X10.2530 Y15.2426
G01 X10.2606 Y15.2487
G01 X10.2658 Y15.2538
G01 X10.2706 Y15.2593
G01 X10.2750 Y15.2651
G01 X10.2790 Y15.2712
G01 X10.2825 Y15.2776
G01 X10.2855 Y15.2842
G01 X10.2881 Y15.2910
G01 X10.2901 Y15.2980
G01 X10.2916 Y15.3051
G01 X10.2928 Y15.3148
G01 X10.2931 Y15.3221
G01 X10.2930 Y16.8509
G01 X10.2920 Y16.8606
G01 X10.2907 Y16.8678
G01 X10.2888 Y16.8748
G01 X10.2855 Y16.8840
G01 X10.2814 Y16.8927
G01 X10.2777 Y16.8990
G01 X10.2721 Y16.9070
G01 X10.2674 Y16.9126
G01 X10.2623 Y16.9178
G01 X10.2569 Y16.9226
G01 X10.2511 Y16.9270
G01 X10.2429 Y16.9322
G01 X10.2342 Y16.9366
G01 X10.2274 Y16.9393
G01 X10.2205 Y16.9415
G01 X10.2110 Y16.9436
G01 X10.2014 Y16.9448
G01 X10.1941 Y16.9451
G01 X9.8941 Y16.9451
G01 X9.8844 Y16.9446
G01 X9.8748 Y16.9432
G01 X9.8677 Y16.9415
G01 X9.8607 Y16.9393
G01 X9.8540 Y16.9366
G01 X9.8474 Y16.9334
G01 X9.8411 Y16.9297
G01 X9.8351 Y16.9256
G01 X9.8276 Y16.9194
G01 X9.8224 Y16.9143
G01 X9.8175 Y16.9089
G01 X9.8131 Y16.9031
G01 X9.8092 Y16.8970
G01 X9.8056 Y16.8906
G01 X9.8026 Y16.8840
G01 X9.8001 Y16.8771
G01 X9.7980 Y16.8701
G01 X9.7965 Y16.8630
G01 X9.7953 Y16.8534
G01 X9.7951 Y16.8461
G01 X9.7952 Y15.3172
G01 X9.7961 Y15.3075
G01 X9.7980 Y15.2980
G01 X9.8001 Y15.2910
G01 X9.8036 Y15.2820
G01 X9.8079 Y15.2733
G01 X9.8131 Y15.2651
G01 X9.8191 Y15.2574
G01 X9.8258 Y15.2504
G01 X9.8332 Y15.2440
G01 X9.8411 Y15.2384
G01 X9.8474 Y15.2348
G01 X9.8562 Y15.2306
G01 X9.8653 Y15.2273
G01 X9.8748 Y15.2250
G01 X9.8844 Y15.2236
G01 X9.8941 Y15.2231
G00 Z2.0000
G00 X9.3941 Y15.2231
G01 F60.00
G01 Z-0.0200
G01 F60.00
G01 X9.6941 Y15.2231
G01 X9.7038 Y15.2236
G01 X9.7134 Y15.2250
G01 X9.7205 Y15.2267
G01 X9.7274 Y15.2289
G01 X9.7342 Y15.2316
G01 X9.7407 Y15.2348
G01 X9.7470 Y15.2384
G01 X9.7530 Y15.2426
G01 X9.7606 Y15.2487
G01 X9.7658 Y15.2538
G01 X9.7706 Y15.2593
G01 X9.7750 Y15.2651
G01 X9.7790 Y15.2712
G01 X9.7825 Y15.2776
G01 X9.7855 Y15.2842
G01 X9.7881 Y15.2910
G01 X9.7901 Y15.2980
G01 X9.7916 Y15.3051
G01 X9.7928 Y15.3148
G01 X9.7931 Y15.3221
G01 X9.7930 Y16.8509
G01 X9.7920 Y16.8606
G01 X9.7907 Y16.8678
G01 X9.7888 Y16.8748
G01 X9.7855 Y16.8840
G01 X9.7814 Y16.8927
G01 X9.7777 Y16.8990
G01 X9.7721 Y16.9070
G01 X9.7674 Y16.9126
G01 X9.7623 Y16.9178
G01 X9.7569 Y16.9226
G01 X9.7511 Y16.9270
G01 X9.7429 Y16.9322
G01 X9.7342 Y16.9366
G01 X9.7274 Y16.9393
G01 X9.7205 Y16.9415
G01 X9.7110 Y16.9436
G01 X9.7014 Y16.9448
G01 X9.6941 Y16.9451
G01 X9.3941 Y16.9451
G01 X9.3844 Y16.9446
G01 X9.3748 Y16.9432
G01 X9.3677 Y16.9415
G01 X9.3607 Y16.9393
G01 X9.3540 Y16.9366
G01 X9.3474 Y16.9334
G01 X9.3411 Y16.9297
G01 X9.3351 Y16.9256
G01 X9.3276 Y16.9194
G01 X9.3224 Y16.9143
G01 X9.3175 Y16.9089
G01 X9.3131 Y16.9031
G01 X9.3092 Y16.8970
G01 X9.3056 Y16.8906
G01 X9.3026 Y16.8840
G01 X9.3001 Y16.8771
G01 X9.2980 Y16.8701
G01 X9.2965 Y16.8630
G01 X9.2953 Y16.8534
G01 X9.2951 Y16.8461
G01 X9.2952 Y15.3172
G01 X9.2961 Y15.3075
G01 X9.2980 Y15.2980
G01 X9.3001 Y15.2910
G01 X9.3036 Y15.2820
G01 X9.3079 Y15.2733
G01 X9.3131 Y15.2651
G01 X9.3191 Y15.2574
G01 X9.3258 Y15.2504
G01 X9.3332 Y15.2440
G01 X9.3411 Y15.2384
G01 X9.3474 Y15.2348
G01 X9.3562 Y15.2306
G01 X9.3653 Y15.2273
G01 X9.3748 Y15.2250
G01 X9.3844 Y15.2236
G01 X9.3941 Y15.2231
G00 Z2.0000
G00 X8.8941 Y15.2231
G01 F60.00
G01 Z-0.0200
G01 F60.00
G01 X9.1941 Y15.2231
G01 X9.2038 Y15.2236
G01 X9.2134 Y15.2250
G01 X9.2205 Y15.2267
G01 X9.2274 Y15.2289
G01 X9.2342 Y15.2316
G01 X9.2407 Y15.2348
G01 X9.2470 Y15.2384
G01 X9.2530 Y15.2426
G01 X9.2606 Y15.2487
G01 X9.2658 Y15.2538
G01 X9.2706 Y15.2593
G01 X9.2750 Y15.2651
G01 X9.2790 Y15.2712
G01 X9.2825 Y15.2776
G01 X9.2855 Y15.2842
G01 X9.2881 Y15.2910
G01 X9.2901 Y15.2980
G01 X9.2916 Y15.3051
G01 X9.2928 Y15.3148
G01 X9.2931 Y15.3221
G01 X9.2930 Y16.8509
G01 X9.2920 Y16.8606
G01 X9.2907 Y16.8678
G01 X9.2888 Y16.8748
G01 X9.2855 Y16.8840
G01 X9.2814 Y16.8927
G01 X9.2777 Y16.8990
G01 X9.2721 Y16.9070
G01 X9.2674 Y16.9126
G01 X9.2623 Y16.9178
G01 X9.2569 Y16.9226
G01 X9.2511 Y16.9270
G01 X9.2429 Y16.9322
G01 X9.2342 Y16.9366
G01 X9.2274 Y16.9393
G01 X9.2205 Y16.9415
G01 X9.2110 Y16.9436
G01 X9.2014 Y16.9448
G01 X9.1941 Y16.9451
G01 X8.8941 Y16.9451
G01 X8.8844 Y16.9446
G01 X8.8748 Y16.9432
G01 X8.8677 Y16.9415
G01 X8.8607 Y16.9393
G01 X8.8540 Y16.9366
G01 X8.8474 Y16.9334
G01 X8.8411 Y16.9297
G01 X8.8351 Y16.9256
G01 X8.8276 Y16.9194
G01 X8.8224 Y16.9143
G01 X8.8175 Y16.9089
G01 X8.8131 Y16.9031
G01 X8.8092 Y16.8970
G01 X8.8056 Y16.8906
G01 X8.8026 Y16.8840
G01 X8.8001 Y16.8771
G01 X8.7980 Y16.8701
G01 X8.7965 Y16.8630
G01 X8.7953 Y16.8534
G01 X8.7951 Y16.8461
G01 X8.7952 Y15.3172
G01 X8.7961 Y15.3075
G01 X8.7980 Y15.2980
G01 X8.8001 Y15.2910
G01 X8.8036 Y15.2820
G01 X8.8079 Y15.2733
G01 X8.8131 Y15.2651
G01 X8.8191 Y15.2574
G01 X8.8258 Y15.2504
G01 X8.8332 Y15.2440
G01 X8.8411 Y15.2384
G01 X8.8474 Y15.2348
G01 X8.8562 Y15.2306
G01 X8.8653 Y15.2273
G01 X8.8748 Y15.2250
G01 X8.8844 Y15.2236
G01 X8.8941 Y15.2231
G00 Z2.0000
G00 X8.3941 Y15.2231
G01 F60.00
G01 Z-0.0200
G01 F60.00
G01 X8.6941 Y15.2231
G01 X8.7038 Y15.2236
G01 X8.7134 Y15.2250
G01 X8.7205 Y15.2267
G01 X8.7274 Y15.2289
G01 X8.7342 Y15.2316
G01 X8.7407 Y15.2348
G01 X8.7470 Y15.2384
G01 X8.7530 Y15.2426
G01 X8.7606 Y15.2487
G01 X8.7658 Y15.2538
G01 X8.7706 Y15.2593
G01 X8.7750 Y15.2651
G01 X8.7790 Y15.2712
G01 X8.7825 Y15.2776
G01 X8.7855 Y15.2842
G01 X8.7881 Y15.2910
G01 X8.7901 Y15.2980
G01 X8.7916 Y15.3051
G01 X8.7928 Y15.3148
G01 X8.7931 Y15.3221
G01 X8.7930 Y16.8509
G01 X8.7920 Y16.8606
G01 X8.7907 Y16.8678
G01 X8.7888 Y16.8748
G01 X8.7855 Y16.8840
G01 X8.7814 Y16.8927
G01 X8.7777 Y16.8990
G01 X8.7721 Y16.9070
G01 X8.7674 Y16.9126
G01 X8.7623 Y16.9178
G01 X8.7569 Y16.9226
G01 X8.7511 Y16.9270
G01 X8.7429 Y16.9322
G01 X8.7342 Y16.9366
G01 X8.7274 Y16.9393
G01 X8.7205 Y16.9415
G01 X8.7110 Y16.9436
G01 X8.7014 Y16.9448
G01 X8.6941 Y16.9451
G01 X8.3941 Y16.9451
G01 X8.3844 Y16.9446
G01 X8.3748 Y16.9432
G01 X8.3677 Y16.9415
G01 X8.3607 Y16.9393
G01 X8.3540 Y16.9366
G01 X8.3474 Y16.9334
G01 X8.3411 Y16.9297
G01 X8.3351 Y16.9256
G01 X8.3276 Y16.9194
G01 X8.3224 Y16.9143
G01 X8.3175 Y16.9089
G01 X8.3131 Y16.9031
G01 X8.3092 Y16.8970
G01 X8.3056 Y16.8906
G01 X8.3026 Y16.8840
G01 X8.3001 Y16.8771
G01 X8.2980 Y16.8701
G01 X8.2965 Y16.8630
G01 X8.2953 Y16.8534
G01 X8.2951 Y16.8461
G01 X8.2952 Y15.3172
G01 X8.2961 Y15.3075
G01 X8.2980 Y15.2980
G01 X8.3001 Y15.2910
G01 X8.3036 Y15.2820
G01 X8.3079 Y15.2733
G01 X8.3131 Y15.2651
G01 X8.3191 Y15.2574
G01 X8.3258 Y15.2504
G01 X8.3332 Y15.2440
G01 X8.3411 Y15.2384
G01 X8.3474 Y15.2348
G01 X8.3562 Y15.2306
G01 X8.3653 Y15.2273
G01 X8.3748 Y15.2250
G01 X8.3844 Y15.2236
G01 X8.3941 Y15.2231
G00 Z2.0000
G00 X7.8941 Y15.2231
G01 F60.00
G01 Z-0.0200
G01 F60.00
G01 X8.1941 Y15.2231
G01 X8.2038 Y15.2236
G01 X8.2134 Y15.2250
G01 X8.2205 Y15.2267
G01 X8.2274 Y15.2289
G01 X8.2342 Y15.2316
G01 X8.2407 Y15.2348
G01 X8.2470 Y15.2384
G01 X8.2530 Y15.2426
G01 X8.2606 Y15.2487
G01 X8.2658 Y15.2538
G01 X8.2706 Y15.2593
G01 X8.2750 Y15.2651
G01 X8.2790 Y15.2712
G01 X8.2825 Y15.2776
G01 X8.2855 Y15.2842
G01 X8.2881 Y15.2910
G01 X8.2901 Y15.2980
G01 X8.2916 Y15.3051
G01 X8.2928 Y15.3148
G01 X8.2931 Y15.3221
G01 X8.2930 Y16.8509
G01 X8.2920 Y16.8606
G01 X8.2907 Y16.8678
G01 X8.2888 Y16.8748
G01 X8.2855 Y16.8840
G01 X8.2814 Y16.8927
G01 X8.2777 Y16.8990
G01 X8.2721 Y16.9070
G01 X8.2674 Y16.9126
G01 X8.2623 Y16.9178
G01 X8.2569 Y16.9226
G01 X8.2511 Y16.9270
G01 X8.2429 Y16.9322
G01 X8.2342 Y16.9366
G01 X8.2274 Y16.9393
G01 X8.2205 Y16.9415
G01 X8.2110 Y16.9436
G01 X8.2014 Y16.9448
G01 X8.1941 Y16.9451
G01 X7.8941 Y16.9451
G01 X7.8844 Y16.9446
G01 X7.8748 Y16.9432
G01 X7.8677 Y16.9415
G01 X7.8607 Y16.9393
G01 X7.8540 Y16.9366
G01 X7.8474 Y16.9334
G01 X7.8411 Y16.9297
G01 X7.8351 Y16.9256
G01 X7.8294 Y16.9210
G01 X7.8224 Y16.9143
G01 X7.8175 Y16.9089
G01 X7.8131 Y16.9031
G01 X7.8092 Y16.8970
G01 X7.8056 Y16.8906
G01 X7.8026 Y16.8840
G01 X7.8001 Y16.8771
G01 X7.7980 Y16.8701
G01 X7.7965 Y16.8630
G01 X7.7956 Y16.8558
G01 X7.7951 Y16.8461
G01 X7.7952 Y15.3172
G01 X7.7961 Y15.3075
G01 X7.7980 Y15.2980
G01 X7.8009 Y15.2887
G01 X7.8036 Y15.2820
G01 X7.8079 Y15.2733
G01 X7.8131 Y15.2651
G01 X7.8191 Y15.2574
G01 X7.8258 Y15.2504
G01 X7.8332 Y15.2440
G01 X7.8411 Y15.2384
G01 X7.8474 Y15.2348
G01 X7.8562 Y15.2306
G01 X7.8653 Y15.2273
G01 X7.8748 Y15.2250
G01 X7.8844 Y15.2236
G01 X7.8941 Y15.2231
G00 Z2.0000
G00 X7.2950 Y17.8154
G01 F60.00
G01 Z-0.0200
G01 F60.00
G01 X7.2951 Y15.3221
G01 X7.2953 Y15.3148
G01 X7.2961 Y15.3075
G01 X7.2975 Y15.3004
G01 X7.2993 Y15.2933
G01 X7.3026 Y15.2842
G01 X7.3056 Y15.2776
G01 X7.3092 Y15.2712
G01 X7.3131 Y15.2651
G01 X7.3175 Y15.2593
G01 X7.3224 Y15.2538
G01 X7.3276 Y15.2487
G01 X7.3332 Y15.2440
G01 X7.3391 Y15.2398
G01 X7.3474 Y15.2348
G01 X7.3540 Y15.2316
G01 X7.3607 Y15.2289
G01 X7.3677 Y15.2267
G01 X7.3748 Y15.2250
G01 X7.3844 Y15.2236
G01 X7.3941 Y15.2231
G01 X7.6941 Y15.2231
G01 X7.7014 Y15.2233
G01 X7.7086 Y15.2241
G01 X7.7158 Y15.2255
G01 X7.7251 Y15.2281
G01 X7.7320 Y15.2306
G01 X7.7407 Y15.2348
G01 X7.7470 Y15.2384
G01 X7.7550 Y15.2440
G01 X7.7606 Y15.2487
G01 X7.7674 Y15.2556
G01 X7.7721 Y15.2612
G01 X7.7777 Y15.2691
G01 X7.7825 Y15.2776
G01 X7.7855 Y15.2842
G01 X7.7888 Y15.2933
G01 X7.7907 Y15.3004
G01 X7.7923 Y15.3100
G01 X7.7930 Y15.3196
G01 X7.7931 Y17.9021
G01 X7.7923 Y17.9216
G01 X7.7914 Y17.9313
G01 X7.7884 Y17.9507
G01 X7.7824 Y17.9744
G01 X7.7742 Y17.9974
G01 X7.7659 Y18.0151
G01 X7.7613 Y18.0237
G01 X7.7498 Y18.0425
G01 X7.7366 Y18.0601
G01 X7.7235 Y18.0747
G01 X7.6922 Y18.1062
G01 X7.6778 Y18.1194
G01 X7.6703 Y18.1256
G01 X7.6524 Y18.1385
G01 X7.6335 Y18.1497
G01 X7.6114 Y18.1602
G01 X7.5884 Y18.1684
G01 X7.5670 Y18.1739
G01 X7.5453 Y18.1774
G01 X7.5356 Y18.1783
G01 X7.5136 Y18.1791
G01 X7.4892 Y18.1777
G01 X7.4675 Y18.1744
G01 X7.4438 Y18.1684
G01 X7.4208 Y18.1602
G01 X7.4030 Y18.1519
G01 X7.3944 Y18.1473
G01 X7.3797 Y18.1385
G01 X7.3737 Y18.1344
G01 X7.3581 Y18.1226
G01 X7.3400 Y18.1062
G01 X7.3235 Y18.0881
G01 X7.3104 Y18.0705
G01 X7.2976 Y18.0496
G01 X7.2931 Y18.0409
G01 X7.2931 Y18.2809
G01 X8.3749 Y19.3627
G01 X8.3911 Y19.3810
G01 X8.4028 Y19.3967
G01 X8.4068 Y19.4028
G01 X8.4167 Y19.4197
G01 X8.4252 Y19.4373
G01 X8.4281 Y19.4440
G01 X8.4339 Y19.4602
G01 X8.4361 Y19.4671
G01 X8.4403 Y19.4837
G01 X8.4422 Y19.4933
G01 X8.4450 Y19.5127
G01 X8.4461 Y19.5371
G01 X8.4461 Y20.6781
G01 X8.4453 Y20.6976
G01 X8.4444 Y20.7073
G01 X8.4414 Y20.7267
G01 X8.4361 Y20.7480
G01 X8.4339 Y20.7550
G01 X8.4262 Y20.7756
G01 X8.4167 Y20.7955
G01 X8.4068 Y20.8123
G01 X8.4014 Y20.8204
G01 X8.3880 Y20.8379
G01 X8.3732 Y20.8542
G01 X8.3272 Y20.9002
G01 X8.3128 Y20.9134
G01 X8.3053 Y20.9196
G01 X8.2895 Y20.9312
G01 X8.2685 Y20.9437
G01 X8.2464 Y20.9542
G01 X8.2234 Y20.9624
G01 X8.1997 Y20.9684
G01 X8.1755 Y20.9720
G01 X8.1511 Y20.9731
G01 X8.1267 Y20.9720
G01 X8.1025 Y20.9684
G01 X8.0788 Y20.9624
G01 X8.0558 Y20.9542
G01 X8.0380 Y20.9459
G01 X8.0294 Y20.9413
G01 X8.0127 Y20.9312
G01 X7.9969 Y20.9196
G01 X7.9912 Y20.9150
G01 X7.9785 Y20.9035
G01 X7.9733 Y20.8985
G01 X7.9601 Y20.8839
G01 X7.9468 Y20.8664
G01 X7.9414 Y20.8583
G01 X7.9314 Y20.8415
G01 X7.9210 Y20.8194
G01 X7.9127 Y20.7964
G01 X7.9068 Y20.7727
G01 X7.9032 Y20.7485
G01 X7.9020 Y20.7241
G01 X7.9032 Y20.6997
G01 X7.9073 Y20.6731
G01 X7.9127 Y20.6518
G01 X7.9219 Y20.6265
G01 X7.9326 Y20.6045
G01 X7.9427 Y20.5877
G01 X7.9480 Y20.5801
G01 X7.9480 Y19.6402
G01 X6.8663 Y18.5585
G01 X6.8515 Y18.5421
G01 X6.8398 Y18.5264
G01 X6.8344 Y18.5183
G01 X6.8244 Y18.5015
G01 X6.8159 Y18.4838
G01 X6.8122 Y18.4749
G01 X6.8057 Y18.4564
G01 X6.8003 Y18.4350
G01 X6.7962 Y18.4085
G01 X6.7950 Y18.3841
G01 X6.7951 Y15.3196
G01 X6.7956 Y15.3124
G01 X6.7970 Y15.3028
G01 X6.7987 Y15.2957
G01 X6.8017 Y15.2864
G01 X6.8056 Y15.2776
G01 X6.8092 Y15.2712
G01 X6.8131 Y15.2651
G01 X6.8191 Y15.2574
G01 X6.8258 Y15.2504
G01 X6.8332 Y15.2440
G01 X6.8391 Y15.2398
G01 X6.8474 Y15.2348
G01 X6.8562 Y15.2306
G01 X6.8630 Y15.2281
G01 X6.8724 Y15.2255
G01 X6.8795 Y15.2241
G01 X6.8868 Y15.2233
G01 X6.8941 Y15.2231
G01 X7.1941 Y15.2231
G01 X7.2038 Y15.2236
G01 X7.2134 Y15.2250
G01 X7.2205 Y15.2267
G01 X7.2274 Y15.2289
G01 X7.2342 Y15.2316
G01 X7.2407 Y15.2348
G01 X7.2470 Y15.2384
G01 X7.2530 Y15.2426
G01 X7.2606 Y15.2487
G01 X7.2658 Y15.2538
G01 X7.2706 Y15.2593
G01 X7.2764 Y15.2671
G01 X7.2802 Y15.2733
G01 X7.2836 Y15.2797
G01 X7.2864 Y15.2864
G01 X7.2888 Y15.2933
G01 X7.2907 Y15.3004
G01 X7.2920 Y15.3075
G01 X7.2928 Y15.3148
G01 X7.2931 Y15.3221
G01 X7.2931 Y17.8193
G01 X7.2950 Y17.8154
G00 Z2.0000
G00 X6.2950 Y18.9901
G01 F60.00
G01 Z-0.0200
G01 F60.00
G01 X6.2951 Y15.3221
G01 X6.2956 Y15.3124
G01 X6.2965 Y15.3051
G01 X6.2980 Y15.2980
G01 X6.3001 Y15.2910
G01 X6.3026 Y15.2842
G01 X6.3056 Y15.2776
G01 X6.3092 Y15.2712
G01 X6.3131 Y15.2651
G01 X6.3191 Y15.2574
G01 X6.3258 Y15.2504
G01 X6.3313 Y15.2455
G01 X6.3371 Y15.2411
G01 X6.3432 Y15.2372
G01 X6.3496 Y15.2336
G01 X6.3562 Y15.2306
G01 X6.3653 Y15.2273
G01 X6.3724 Y15.2255
G01 X6.3844 Y15.2236
G01 X6.3941 Y15.2231
G01 X6.6941 Y15.2231
G01 X6.7038 Y15.2236
G01 X6.7110 Y15.2245
G01 X6.7205 Y15.2267
G01 X6.7297 Y15.2297
G01 X6.7386 Y15.2336
G01 X6.7450 Y15.2372
G01 X6.7530 Y15.2426
G01 X6.7606 Y15.2487
G01 X6.7658 Y15.2538
G01 X6.7721 Y15.2612
G01 X6.7777 Y15.2691
G01 X6.7825 Y15.2776
G01 X6.7855 Y15.2842
G01 X6.7888 Y15.2933
G01 X6.7907 Y15.3004
G01 X6.7923 Y15.3100
G01 X6.7930 Y15.3196
G01 X6.7931 Y18.8869
G01 X7.8192 Y19.9130
G01 X7.8371 Y19.9330
G01 X7.8502 Y19.9507
G01 X7.8627 Y19.9717
G01 X7.8732 Y19.9938
G01 X7.8799 Y20.0122
G01 X7.8821 Y20.0191
G01 X7.8863 Y20.0357
G01 X7.8882 Y20.0453
G01 X7.8910 Y20.0647
G01 X7.8921 Y20.0891
G01 X7.8910 Y20.1135
G01 X7.8874 Y20.1377
G01 X7.8814 Y20.1614
G01 X7.8749 Y20.1799
G01 X7.8722 Y20.1866
G01 X7.8649 Y20.2021
G01 X7.8603 Y20.2107
G01 X7.8502 Y20.2275
G01 X7.8356 Y20.2471
G01 X7.8192 Y20.2652
G01 X7.8011 Y20.2816
G01 X7.7815 Y20.2962
G01 X7.7605 Y20.3087
G01 X7.7384 Y20.3192
G01 X7.7154 Y20.3274
G01 X7.6917 Y20.3334
G01 X7.6675 Y20.3370
G01 X7.6431 Y20.3381
G01 X7.6187 Y20.3370
G01 X7.5945 Y20.3334
G01 X7.5708 Y20.3274
G01 X7.5478 Y20.3192
G01 X7.5257 Y20.3087
G01 X7.5047 Y20.2962
G01 X7.4851 Y20.2816
G01 X7.4670 Y20.2652
G01 X6.3646 Y19.1627
G01 X6.3515 Y19.1481
G01 X6.3370 Y19.1285
G01 X6.3244 Y19.1075
G01 X6.3140 Y19.0854
G01 X6.3057 Y19.0624
G01 X6.2998 Y19.0387
G01 X6.2962 Y19.0145
G01 X6.2950 Y18.9901
G00 Z2.0000
G00 X3.8292 Y13.3331
G01 F60.00
G01 Z-0.0200
G01 F60.00
G01 X3.8274 Y13.3350
G01 X5.8061 Y13.3351
G01 X5.8158 Y13.3356
G01 X5.8254 Y13.3370
G01 X5.8325 Y13.3387
G01 X5.8394 Y13.3409
G01 X5.8462 Y13.3436
G01 X5.8527 Y13.3468
G01 X5.8590 Y13.3504
G01 X5.8650 Y13.3546
G01 X5.8707 Y13.3591
G01 X5.8761 Y13.3641
G01 X5.8810 Y13.3694
G01 X5.8856 Y13.3751
G01 X5.8897 Y13.3811
G01 X5.8934 Y13.3874
G01 X5.8966 Y13.3940
G01 X5.8993 Y13.4007
G01 X5.9015 Y13.4077
G01 X5.9032 Y13.4148
G01 X5.9046 Y13.4244
G01 X5.9051 Y13.4341
G01 X5.9051 Y13.7341
G01 X5.9046 Y13.7438
G01 X5.9032 Y13.7534
G01 X5.9008 Y13.7628
G01 X5.8984 Y13.7697
G01 X5.8945 Y13.7786
G01 X5.8910 Y13.7850
G01 X5.8870 Y13.7911
G01 X5.8810 Y13.7987
G01 X5.8743 Y13.8058
G01 X5.8689 Y13.8106
G01 X5.8611 Y13.8164
G01 X5.8549 Y13.8202
G01 X5.8462 Y13.8246
G01 X5.8394 Y13.8273
G01 X5.8325 Y13.8295
G01 X5.8254 Y13.8312
G01 X5.8182 Y13.8323
G01 X5.8085 Y13.8330
G01 X3.0587 Y13.8331
G01 X3.0549 Y13.8350
G01 X5.8061 Y13.8351
G01 X5.8134 Y13.8353
G01 X5.8206 Y13.8361
G01 X5.8278 Y13.8375
G01 X5.8348 Y13.8393
G01 X5.8417 Y13.8417
G01 X5.8484 Y13.8446
G01 X5.8570 Y13.8492
G01 X5.8631 Y13.8531
G01 X5.8689 Y13.8575
G01 X5.8743 Y13.8624
G01 X5.8794 Y13.8676
G01 X5.8856 Y13.8751
G01 X5.8897 Y13.8811
G01 X5.8934 Y13.8874
G01 X5.8975 Y13.8962
G01 X5.9001 Y13.9030
G01 X5.9021 Y13.9100
G01 X5.9036 Y13.9171
G01 X5.9048 Y13.9268
G01 X5.9051 Y13.9341
G01 X5.9050 Y14.2365
G01 X5.9043 Y14.2462
G01 X5.9027 Y14.2558
G01 X5.9001 Y14.2651
G01 X5.8966 Y14.2742
G01 X5.8934 Y14.2807
G01 X5.8897 Y14.2870
G01 X5.8856 Y14.2930
G01 X5.8810 Y14.2987
G01 X5.8726 Y14.3074
G01 X5.8670 Y14.3121
G01 X5.8611 Y14.3164
G01 X5.8549 Y14.3202
G01 X5.8484 Y14.3236
G01 X5.8371 Y14.3281
G01 X5.8301 Y14.3301
G01 X5.8230 Y14.3316
G01 X5.8158 Y14.3326
G01 X5.8085 Y14.3330
G01 X2.3107 Y14.3331
G01 X2.3076 Y14.3350
G01 X5.8061 Y14.3351
G01 X5.8182 Y14.3358
G01 X5.8254 Y14.3370
G01 X5.8325 Y14.3387
G01 X5.8417 Y14.3417
G01 X5.8484 Y14.3446
G01 X5.8570 Y14.3492
G01 X5.8631 Y14.3531
G01 X5.8689 Y14.3575
G01 X5.8743 Y14.3624
G01 X5.8794 Y14.3676
G01 X5.8856 Y14.3751
G01 X5.8897 Y14.3811
G01 X5.8934 Y14.3874
G01 X5.8975 Y14.3962
G01 X5.9001 Y14.4030
G01 X5.9021 Y14.4100
G01 X5.9040 Y14.4195
G01 X5.9048 Y14.4268
G01 X5.9051 Y14.4341
G01 X5.9050 Y14.7389
G01 X5.9043 Y14.7462
G01 X5.9032 Y14.7534
G01 X5.9001 Y14.7651
G01 X5.8975 Y14.7720
G01 X5.8945 Y14.7786
G01 X5.8910 Y14.7850
G01 X5.8870 Y14.7911
G01 X5.8810 Y14.7987
G01 X5.8726 Y14.8074
G01 X5.8631 Y14.8150
G01 X5.8527 Y14.8214
G01 X5.8417 Y14.8264
G01 X5.8301 Y14.8301
G01 X5.8182 Y14.8323
G01 X5.8061 Y14.8331
G01 X1.3761 Y14.8331
G01 X1.3517 Y14.8320
G01 X1.3323 Y14.8292
G01 X1.3227 Y14.8273
G01 X1.3038 Y14.8224
G01 X1.2853 Y14.8159
G01 X1.2763 Y14.8122
G01 X1.2587 Y14.8037
G01 X1.2418 Y14.7938
G01 X1.2337 Y14.7884
G01 X1.2181 Y14.7766
G01 X1.2017 Y14.7619
G01 X-0.0277 Y13.5325
G01 X-0.0425 Y13.5161
G01 X-0.0570 Y13.4965
G01 X-0.0696 Y13.4755
G01 X-0.0800 Y13.4534
G01 X-0.0883 Y13.4304
G01 X-0.0942 Y13.4067
G01 X-0.0978 Y13.3825
G01 X-0.0990 Y13.3581
G01 X-0.0982 Y13.3385
G01 X-0.0972 Y13.3288
G01 X-0.0942 Y13.3095
G01 X-0.0896 Y13.2905
G01 X-0.0868 Y13.2812
G01 X-0.0800 Y13.2628
G01 X-0.0696 Y13.2407
G01 X-0.0570 Y13.2197
G01 X-0.0455 Y13.2039
G01 X-0.0393 Y13.1964
G01 X-0.0260 Y13.1820
G01 X-0.0116 Y13.1687
G01 X-0.0041 Y13.1625
G01 X0.0117 Y13.1510
G01 X0.0327 Y13.1384
G01 X0.0503 Y13.1299
G01 X0.0593 Y13.1262
G01 X0.0778 Y13.1197
G01 X0.0967 Y13.1149
G01 X0.1063 Y13.1130
G01 X0.1257 Y13.1102
G01 X0.1452 Y13.1091
G01 X0.1549 Y13.1091
G01 X0.1745 Y13.1102
G01 X0.1939 Y13.1130
G01 X0.2034 Y13.1149
G01 X0.2224 Y13.1197
G01 X0.2476 Y13.1289
G01 X0.2675 Y13.1384
G01 X0.2885 Y13.1510
G01 X0.3081 Y13.1655
G01 X0.3262 Y13.1820
G01 X1.4792 Y14.3350
G01 X2.0565 Y14.3350
G01 X2.0437 Y14.3272
G01 X2.0260 Y14.3141
G01 X2.0204 Y14.3094
G01 X2.0043 Y14.2945
G01 X1.9895 Y14.2781
G01 X1.9778 Y14.2624
G01 X1.9737 Y14.2564
G01 X1.9636 Y14.2396
G01 X1.9520 Y14.2154
G01 X1.9452 Y14.1970
G01 X1.9424 Y14.1877
G01 X1.9378 Y14.1687
G01 X1.9348 Y14.1493
G01 X1.9340 Y14.1421
G01 X1.9330 Y14.1225
G01 X1.9342 Y14.0957
G01 X1.9370 Y14.0763
G01 X1.9389 Y14.0667
G01 X1.9437 Y14.0478
G01 X1.9502 Y14.0293
G01 X1.9529 Y14.0225
G01 X1.9613 Y14.0048
G01 X1.9750 Y13.9817
G01 X1.9895 Y13.9621
G01 X2.0043 Y13.9457
G01 X2.0437 Y13.9063
G01 X2.0601 Y13.8915
G01 X2.0797 Y13.8770
G01 X2.1007 Y13.8644
G01 X2.1183 Y13.8559
G01 X2.1273 Y13.8522
G01 X2.1435 Y13.8465
G01 X2.1505 Y13.8444
G01 X2.1695 Y13.8398
G01 X2.1937 Y13.8362
G01 X2.2181 Y13.8350
G01 X2.8333 Y13.8350
G01 X2.8245 Y13.8306
G01 X2.8077 Y13.8205
G01 X2.7861 Y13.8046
G01 X2.7680 Y13.7882
G01 X2.7500 Y13.7682
G01 X2.7357 Y13.7484
G01 X2.7256 Y13.7316
G01 X2.7222 Y13.7251
G01 X2.7140 Y13.7074
G01 X2.7072 Y13.6890
G01 X2.7050 Y13.6820
G01 X2.7003 Y13.6630
G01 X2.6962 Y13.6365
G01 X2.6950 Y13.6121
G01 X2.6962 Y13.5877
G01 X2.6990 Y13.5683
G01 X2.7009 Y13.5587
G01 X2.7057 Y13.5398
G01 X2.7122 Y13.5213
G01 X2.7149 Y13.5145
G01 X2.7222 Y13.4990
G01 X2.7268 Y13.4904
G01 X2.7370 Y13.4737
G01 X2.7515 Y13.4541
G01 X2.7663 Y13.4377
G01 X2.7977 Y13.4063
G01 X2.8141 Y13.3915
G01 X2.8337 Y13.3770
G01 X2.8547 Y13.3644
G01 X2.8768 Y13.3540
G01 X2.8998 Y13.3457
G01 X2.9235 Y13.3398
G01 X2.9477 Y13.3362
G01 X2.9721 Y13.3350
G01 X3.3529 Y13.3350
G01 X3.3481 Y13.3241
G01 X3.3415 Y13.3057
G01 X3.3348 Y13.2797
G01 X3.3312 Y13.2555
G01 X3.3301 Y13.2359
G01 X3.3301 Y13.2262
G01 X3.3312 Y13.2067
G01 X3.3340 Y13.1873
G01 X3.3353 Y13.1801
G01 X3.3400 Y13.1611
G01 X3.3490 Y13.1358
G01 X3.3572 Y13.1180
G01 X3.3618 Y13.1094
G01 X3.3720 Y13.0927
G01 X3.3835 Y13.0769
G01 X3.3881 Y13.0712
G01 X3.4013 Y13.0567
G01 X3.5517 Y12.9063
G01 X3.5681 Y12.8915
G01 X3.5897 Y12.8757
G01 X3.6108 Y12.8633
G01 X3.6285 Y12.8549
G01 X3.6353 Y12.8522
G01 X3.6538 Y12.8457
G01 X3.6775 Y12.8398
G01 X3.7017 Y12.8362
G01 X3.7261 Y12.8350
G01 X5.8085 Y12.8351
G01 X5.8182 Y12.8358
G01 X5.8254 Y12.8370
G01 X5.8325 Y12.8387
G01 X5.8417 Y12.8417
G01 X5.8506 Y12.8456
G01 X5.8570 Y12.8492
G01 X5.8631 Y12.8531
G01 X5.8707 Y12.8591
G01 X5.8761 Y12.8641
G01 X5.8810 Y12.8694
G01 X5.8856 Y12.8751
G01 X5.8910 Y12.8832
G01 X5.8956 Y12.8917
G01 X5.8984 Y12.8984
G01 X5.9008 Y12.9053
G01 X5.9032 Y12.9148
G01 X5.9046 Y12.9244
G01 X5.9051 Y12.9341
G01 X5.9051 Y13.2341
G01 X5.9046 Y13.2438
G01 X5.9032 Y13.2534
G01 X5.9015 Y13.2605
G01 X5.8993 Y13.2674
G01 X5.8966 Y13.2742
G01 X5.8934 Y13.2807
G01 X5.8897 Y13.2870
G01 X5.8856 Y13.2930
G01 X5.8810 Y13.2987
G01 X5.8761 Y13.3041
G01 X5.8707 Y13.3090
G01 X5.8650 Y13.3136
G01 X5.8590 Y13.3177
G01 X5.8527 Y13.3214
G01 X5.8462 Y13.3246
G01 X5.8394 Y13.3273
G01 X5.8325 Y13.3295
G01 X5.8254 Y13.3312
G01 X5.8158 Y13.3326
G01 X5.8061 Y13.3331
G01 X3.8292 Y13.3331
G00 Z2.0000
G00 X4.2821 Y11.8351
G01 F60.00
G01 Z-0.0200
G01 F60.00
G01 X5.8061 Y11.8351
G01 X5.8182 Y11.8358
G01 X5.8254 Y11.8370
G01 X5.8325 Y11.8387
G01 X5.8394 Y11.8409
G01 X5.8462 Y11.8436
G01 X5.8570 Y11.8492
G01 X5.8670 Y11.8560
G01 X5.8761 Y11.8641
G01 X5.8841 Y11.8732
G01 X5.8910 Y11.8832
G01 X5.8966 Y11.8940
G01 X5.9008 Y11.9053
G01 X5.9027 Y11.9124
G01 X5.9040 Y11.9195
G01 X5.9050 Y11.9316
G01 X5.9051 Y12.2341
G01 X5.9046 Y12.2438
G01 X5.9032 Y12.2534
G01 X5.9001 Y12.2651
G01 X5.8966 Y12.2742
G01 X5.8922 Y12.2829
G01 X5.8856 Y12.2930
G01 X5.8794 Y12.3006
G01 X5.8726 Y12.3074
G01 X5.8650 Y12.3136
G01 X5.8590 Y12.3177
G01 X5.8527 Y12.3214
G01 X5.8462 Y12.3246
G01 X5.8394 Y12.3273
G01 X5.8301 Y12.3301
G01 X5.8230 Y12.3316
G01 X5.8158 Y12.3326
G01 X5.8085 Y12.3330
G01 X5.1963 Y12.3331
G01 X5.1989 Y12.3351
G01 X5.8085 Y12.3351
G01 X5.8158 Y12.3356
G01 X5.8230 Y12.3365
G01 X5.8348 Y12.3393
G01 X5.8417 Y12.3417
G01 X5.8484 Y12.3446
G01 X5.8590 Y12.3504
G01 X5.8689 Y12.3575
G01 X5.8778 Y12.3658
G01 X5.8841 Y12.3732
G01 X5.8910 Y12.3832
G01 X5.8966 Y12.3940
G01 X5.9008 Y12.4053
G01 X5.9036 Y12.4171
G01 X5.9048 Y12.4268
G01 X5.9051 Y12.4341
G01 X5.9050 Y12.7389
G01 X5.9036 Y12.7510
G01 X5.9008 Y12.7628
G01 X5.8966 Y12.7742
G01 X5.8910 Y12.7850
G01 X5.8841 Y12.7950
G01 X5.8761 Y12.8041
G01 X5.8670 Y12.8121
G01 X5.8570 Y12.8190
G01 X5.8462 Y12.8246
G01 X5.8394 Y12.8273
G01 X5.8325 Y12.8295
G01 X5.8206 Y12.8320
G01 X5.8085 Y12.8330
G01 X4.2821 Y12.8331
G01 X4.2748 Y12.8328
G01 X4.2675 Y12.8320
G01 X4.2557 Y12.8295
G01 X4.2442 Y12.8255
G01 X4.2376 Y12.8225
G01 X4.2312 Y12.8190
G01 X4.2212 Y12.8121
G01 X4.2156 Y12.8074
G01 X4.2104 Y12.8023
G01 X4.2055 Y12.7969
G01 X4.2011 Y12.7911
G01 X4.1939 Y12.7791
G01 X2.0972 Y12.7791
G01 X1.9755 Y12.9009
G01 X1.9591 Y12.9156
G01 X1.9395 Y12.9302
G01 X1.9185 Y12.9427
G01 X1.9008 Y12.9512
G01 X1.8919 Y12.9549
G01 X1.8734 Y12.9614
G01 X1.8497 Y12.9674
G01 X1.8303 Y12.9704
G01 X1.8206 Y12.9713
G01 X1.8011 Y12.9721
G01 X1.7767 Y12.9710
G01 X1.7573 Y12.9682
G01 X1.7477 Y12.9663
G01 X1.7288 Y12.9614
G01 X1.7058 Y12.9532
G01 X1.6880 Y12.9449
G01 X1.6794 Y12.9403
G01 X1.6627 Y12.9302
G01 X1.6469 Y12.9186
G01 X1.6394 Y12.9124
G01 X1.6250 Y12.8992
G01 X1.6085 Y12.8811
G01 X1.5940 Y12.8615
G01 X1.5838 Y12.8447
G01 X1.5803 Y12.8383
G01 X1.5729 Y12.8228
G01 X1.5692 Y12.8139
G01 X1.5627 Y12.7954
G01 X1.5579 Y12.7764
G01 X1.5563 Y12.7693
G01 X1.5535 Y12.7499
G01 X1.5520 Y12.7231
G01 X1.5535 Y12.6962
G01 X1.5563 Y12.6769
G01 X1.5579 Y12.6697
G01 X1.5627 Y12.6508
G01 X1.5692 Y12.6323
G01 X1.5729 Y12.6233
G01 X1.5814 Y12.6057
G01 X1.5954 Y12.5827
G01 X1.6085 Y12.5651
G01 X1.6250 Y12.5470
G01 X1.8180 Y12.3540
G01 X1.8342 Y12.3391
G01 X1.8557 Y12.3230
G01 X1.8724 Y12.3128
G01 X1.8810 Y12.3082
G01 X1.8988 Y12.3000
G01 X1.9172 Y12.2932
G01 X1.9265 Y12.2904
G01 X1.9455 Y12.2858
G01 X1.9697 Y12.2822
G01 X1.9941 Y12.2810
G01 X4.1949 Y12.2810
G01 X4.1906 Y12.2720
G01 X4.1867 Y12.2605
G01 X4.1841 Y12.2486
G01 X4.1831 Y12.2365
G01 X4.1831 Y11.9341
G01 X4.1836 Y11.9244
G01 X4.1850 Y11.9148
G01 X4.1873 Y11.9053
G01 X4.1897 Y11.8984
G01 X4.1936 Y11.8896
G01 X4.1972 Y11.8832
G01 X4.2011 Y11.8771
G01 X4.2071 Y11.8694
G01 X4.2138 Y11.8624
G01 X4.2193 Y11.8575
G01 X4.2251 Y11.8531
G01 X4.2333 Y11.8479
G01 X4.2420 Y11.8436
G01 X4.2487 Y11.8409
G01 X4.2580 Y11.8380
G01 X4.2651 Y11.8365
G01 X4.2748 Y11.8353
G01 X4.2821 Y11.8351
G00 Z2.0000
G00 X4.2821 Y11.3351
G01 F60.00
G01 Z-0.0200
G01 F60.00
G01 X5.8061 Y11.3351
G01 X5.8182 Y11.3358
G01 X5.8301 Y11.3380
G01 X5.8417 Y11.3417
G01 X5.8484 Y11.3446
G01 X5.8549 Y11.3479
G01 X5.8611 Y11.3518
G01 X5.8670 Y11.3560
G01 X5.8726 Y11.3607
G01 X5.8778 Y11.3658
G01 X5.8826 Y11.3713
G01 X5.8870 Y11.3771
G01 X5.8910 Y11.3832
G01 X5.8945 Y11.3896
G01 X5.8975 Y11.3962
G01 X5.9001 Y11.4030
G01 X5.9021 Y11.4100
G01 X5.9036 Y11.4171
G01 X5.9046 Y11.4244
G01 X5.9051 Y11.4341
G01 X5.9051 Y11.7341
G01 X5.9043 Y11.7462
G01 X5.9021 Y11.7581
G01 X5.8993 Y11.7674
G01 X5.8966 Y11.7742
G01 X5.8934 Y11.7807
G01 X5.8897 Y11.7870
G01 X5.8856 Y11.7930
G01 X5.8794 Y11.8006
G01 X5.8743 Y11.8058
G01 X5.8689 Y11.8106
G01 X5.8631 Y11.8150
G01 X5.8570 Y11.8190
G01 X5.8506 Y11.8225
G01 X5.8417 Y11.8264
G01 X5.8348 Y11.8288
G01 X5.8278 Y11.8307
G01 X5.8182 Y11.8323
G01 X5.8109 Y11.8330
G01 X4.2821 Y11.8331
G01 X4.2700 Y11.8323
G01 X4.2580 Y11.8301
G01 X4.2464 Y11.8264
G01 X4.2397 Y11.8236
G01 X4.2333 Y11.8202
G01 X4.2271 Y11.8164
G01 X4.2212 Y11.8121
G01 X4.2156 Y11.8074
G01 X4.2104 Y11.8023
G01 X4.2055 Y11.7969
G01 X4.2011 Y11.7911
G01 X4.1972 Y11.7850
G01 X4.1936 Y11.7786
G01 X4.1906 Y11.7720
G01 X4.1881 Y11.7651
G01 X4.1850 Y11.7534
G01 X4.1836 Y11.7438
G01 X4.1831 Y11.7341
G01 X4.1832 Y11.4292
G01 X4.1838 Y11.4220
G01 X4.1855 Y11.4124
G01 X4.1881 Y11.4030
G01 X4.1916 Y11.3940
G01 X4.1959 Y11.3853
G01 X4.2011 Y11.3771
G01 X4.2071 Y11.3694
G01 X4.2138 Y11.3624
G01 X4.2212 Y11.3560
G01 X4.2291 Y11.3504
G01 X4.2376 Y11.3456
G01 X4.2464 Y11.3417
G01 X4.2533 Y11.3393
G01 X4.2628 Y11.3370
G01 X4.2724 Y11.3356
G01 X4.2821 Y11.3351
G00 Z2.0000
G00 X4.2821 Y10.8351
G01 F60.00
G01 Z-0.0200
G01 F60.00
G01 X5.8061 Y10.8351
G01 X5.8182 Y10.8358
G01 X5.8301 Y10.8380
G01 X5.8417 Y10.8417
G01 X5.8484 Y10.8446
G01 X5.8549 Y10.8479
G01 X5.8611 Y10.8518
G01 X5.8670 Y10.8560
G01 X5.8726 Y10.8607
G01 X5.8778 Y10.8658
G01 X5.8826 Y10.8713
G01 X5.8870 Y10.8771
G01 X5.8910 Y10.8832
G01 X5.8945 Y10.8896
G01 X5.8975 Y10.8962
G01 X5.9001 Y10.9030
G01 X5.9021 Y10.9100
G01 X5.9036 Y10.9171
G01 X5.9046 Y10.9244
G01 X5.9051 Y10.9341
G01 X5.9051 Y11.2341
G01 X5.9043 Y11.2462
G01 X5.9021 Y11.2581
G01 X5.8993 Y11.2674
G01 X5.8966 Y11.2742
G01 X5.8934 Y11.2807
G01 X5.8897 Y11.2870
G01 X5.8856 Y11.2930
G01 X5.8794 Y11.3006
G01 X5.8743 Y11.3058
G01 X5.8689 Y11.3106
G01 X5.8631 Y11.3150
G01 X5.8570 Y11.3190
G01 X5.8506 Y11.3225
G01 X5.8417 Y11.3264
G01 X5.8348 Y11.3288
G01 X5.8278 Y11.3307
G01 X5.8182 Y11.3323
G01 X5.8109 Y11.3330
G01 X4.2821 Y11.3331
G01 X4.2700 Y11.3323
G01 X4.2580 Y11.3301
G01 X4.2464 Y11.3264
G01 X4.2397 Y11.3236
G01 X4.2333 Y11.3202
G01 X4.2271 Y11.3164
G01 X4.2212 Y11.3121
G01 X4.2156 Y11.3074
G01 X4.2104 Y11.3023
G01 X4.2055 Y11.2969
G01 X4.2011 Y11.2911
G01 X4.1972 Y11.2850
G01 X4.1936 Y11.2786
G01 X4.1906 Y11.2720
G01 X4.1881 Y11.2651
G01 X4.1850 Y11.2534
G01 X4.1836 Y11.2438
G01 X4.1831 Y11.2341
G01 X4.1832 Y10.9292
G01 X4.1838 Y10.9220
G01 X4.1855 Y10.9124
G01 X4.1881 Y10.9030
G01 X4.1916 Y10.8940
G01 X4.1959 Y10.8853
G01 X4.2011 Y10.8771
G01 X4.2071 Y10.8694
G01 X4.2138 Y10.8624
G01 X4.2212 Y10.8560
G01 X4.2291 Y10.8504
G01 X4.2376 Y10.8456
G01 X4.2464 Y10.8417
G01 X4.2533 Y10.8393
G01 X4.2628 Y10.8370
G01 X4.2724 Y10.8356
G01 X4.2821 Y10.8351
G00 Z2.0000
G00 X4.2821 Y10.3351
G01 F60.00
G01 Z-0.0200
G01 F60.00
G01 X5.8061 Y10.3351
G01 X5.8182 Y10.3358
G01 X5.8301 Y10.3380
G01 X5.8417 Y10.3417
G01 X5.8484 Y10.3446
G01 X5.8549 Y10.3479
G01 X5.8611 Y10.3518
G01 X5.8670 Y10.3560
G01 X5.8726 Y10.3607
G01 X5.8778 Y10.3658
G01 X5.8826 Y10.3713
G01 X5.8870 Y10.3771
G01 X5.8910 Y10.3832
G01 X5.8945 Y10.3896
G01 X5.8975 Y10.3962
G01 X5.9001 Y10.4030
G01 X5.9021 Y10.4100
G01 X5.9036 Y10.4171
G01 X5.9046 Y10.4244
G01 X5.9051 Y10.4341
G01 X5.9051 Y10.7341
G01 X5.9043 Y10.7462
G01 X5.9021 Y10.7581
G01 X5.8993 Y10.7674
G01 X5.8966 Y10.7742
G01 X5.8934 Y10.7807
G01 X5.8897 Y10.7870
G01 X5.8856 Y10.7930
G01 X5.8794 Y10.8006
G01 X5.8743 Y10.8058
G01 X5.8689 Y10.8106
G01 X5.8631 Y10.8150
G01 X5.8570 Y10.8190
G01 X5.8506 Y10.8225
G01 X5.8417 Y10.8264
G01 X5.8348 Y10.8288
G01 X5.8278 Y10.8307
G01 X5.8182 Y10.8323
G01 X5.8109 Y10.8330
G01 X4.2821 Y10.8331
G01 X4.2700 Y10.8323
G01 X4.2580 Y10.8301
G01 X4.2464 Y10.8264
G01 X4.2397 Y10.8236
G01 X4.2333 Y10.8202
G01 X4.2271 Y10.8164
G01 X4.2212 Y10.8121
G01 X4.2156 Y10.8074
G01 X4.2104 Y10.8023
G01 X4.2055 Y10.7969
G01 X4.2011 Y10.7911
G01 X4.1972 Y10.7850
G01 X4.1936 Y10.7786
G01 X4.1906 Y10.7720
G01 X4.1881 Y10.7651
G01 X4.1850 Y10.7534
G01 X4.1836 Y10.7438
G01 X4.1831 Y10.7341
G01 X4.1832 Y10.4292
G01 X4.1838 Y10.4220
G01 X4.1855 Y10.4124
G01 X4.1881 Y10.4030
G01 X4.1916 Y10.3940
G01 X4.1959 Y10.3853
G01 X4.2011 Y10.3771
G01 X4.2071 Y10.3694
G01 X4.2138 Y10.3624
G01 X4.2212 Y10.3560
G01 X4.2291 Y10.3504
G01 X4.2376 Y10.3456
G01 X4.2464 Y10.3417
G01 X4.2533 Y10.3393
G01 X4.2628 Y10.3370
G01 X4.2724 Y10.3356
G01 X4.2821 Y10.3351
G00 Z2.0000
G00 X4.2821 Y9.8351
G01 F60.00
G01 Z-0.0200
G01 F60.00
G01 X5.8061 Y9.8351
G01 X5.8182 Y9.8358
G01 X5.8301 Y9.8380
G01 X5.8417 Y9.8417
G01 X5.8484 Y9.8446
G01 X5.8549 Y9.8479
G01 X5.8611 Y9.8518
G01 X5.8670 Y9.8560
G01 X5.8726 Y9.8607
G01 X5.8778 Y9.8658
G01 X5.8826 Y9.8713
G01 X5.8870 Y9.8771
G01 X5.8910 Y9.8832
G01 X5.8945 Y9.8896
G01 X5.8975 Y9.8962
G01 X5.9001 Y9.9030
G01 X5.9021 Y9.9100
G01 X5.9036 Y9.9171
G01 X5.9046 Y9.9244
G01 X5.9051 Y9.9341
G01 X5.9051 Y10.2341
G01 X5.9043 Y10.2462
G01 X5.9021 Y10.2581
G01 X5.8993 Y10.2674
G01 X5.8966 Y10.2742
G01 X5.8934 Y10.2807
G01 X5.8897 Y10.2870
G01 X5.8856 Y10.2930
G01 X5.8794 Y10.3006
G01 X5.8743 Y10.3058
G01 X5.8689 Y10.3106
G01 X5.8631 Y10.3150
G01 X5.8570 Y10.3190
G01 X5.8506 Y10.3225
G01 X5.8417 Y10.3264
G01 X5.8348 Y10.3288
G01 X5.8278 Y10.3307
G01 X5.8182 Y10.3323
G01 X5.8109 Y10.3330
G01 X4.2821 Y10.3331
G01 X4.2700 Y10.3323
G01 X4.2580 Y10.3301
G01 X4.2464 Y10.3264
G01 X4.2397 Y10.3236
G01 X4.2333 Y10.3202
G01 X4.2271 Y10.3164
G01 X4.2212 Y10.3121
G01 X4.2156 Y10.3074
G01 X4.2104 Y10.3023
G01 X4.2055 Y10.2969
G01 X4.2011 Y10.2911
G01 X4.1972 Y10.2850
G01 X4.1936 Y10.2786
G01 X4.1906 Y10.2720
G01 X4.1881 Y10.2651
G01 X4.1850 Y10.2534
G01 X4.1836 Y10.2438
G01 X4.1831 Y10.2341
G01 X4.1832 Y9.9292
G01 X4.1838 Y9.9220
G01 X4.1855 Y9.9124
G01 X4.1881 Y9.9030
G01 X4.1916 Y9.8940
G01 X4.1959 Y9.8853
G01 X4.2011 Y9.8771
G01 X4.2071 Y9.8694
G01 X4.2138 Y9.8624
G01 X4.2212 Y9.8560
G01 X4.2291 Y9.8504
G01 X4.2376 Y9.8456
G01 X4.2464 Y9.8417
G01 X4.2533 Y9.8393
G01 X4.2628 Y9.8370
G01 X4.2724 Y9.8356
G01 X4.2821 Y9.8351
G00 Z2.0000
G00 X4.2821 Y9.3351
G01 F60.00
G01 Z-0.0200
G01 F60.00
G01 X5.8061 Y9.3351
G01 X5.8182 Y9.3358
G01 X5.8301 Y9.3380
G01 X5.8417 Y9.3417
G01 X5.8484 Y9.3446
G01 X5.8549 Y9.3479
G01 X5.8611 Y9.3518
G01 X5.8670 Y9.3560
G01 X5.8726 Y9.3607
G01 X5.8778 Y9.3658
G01 X5.8826 Y9.3713
G01 X5.8870 Y9.3771
G01 X5.8910 Y9.3832
G01 X5.8945 Y9.3896
G01 X5.8975 Y9.3962
G01 X5.9001 Y9.4030
G01 X5.9021 Y9.4100
G01 X5.9036 Y9.4171
G01 X5.9046 Y9.4244
G01 X5.9051 Y9.4341
G01 X5.9051 Y9.7341
G01 X5.9043 Y9.7462
G01 X5.9021 Y9.7581
G01 X5.8993 Y9.7674
G01 X5.8966 Y9.7742
G01 X5.8934 Y9.7807
G01 X5.8897 Y9.7870
G01 X5.8856 Y9.7930
G01 X5.8794 Y9.8006
G01 X5.8743 Y9.8058
G01 X5.8689 Y9.8106
G01 X5.8631 Y9.8150
G01 X5.8570 Y9.8190
G01 X5.8506 Y9.8225
G01 X5.8417 Y9.8264
G01 X5.8348 Y9.8288
G01 X5.8278 Y9.8307
G01 X5.8182 Y9.8323
G01 X5.8109 Y9.8330
G01 X4.2821 Y9.8331
G01 X4.2700 Y9.8323
G01 X4.2580 Y9.8301
G01 X4.2464 Y9.8264
G01 X4.2397 Y9.8236
G01 X4.2333 Y9.8202
G01 X4.2271 Y9.8164
G01 X4.2212 Y9.8121
G01 X4.2156 Y9.8074
G01 X4.2104 Y9.8023
G01 X4.2055 Y9.7969
G01 X4.2011 Y9.7911
G01 X4.1972 Y9.7850
G01 X4.1936 Y9.7786
G01 X4.1906 Y9.7720
G01 X4.1881 Y9.7651
G01 X4.1850 Y9.7534
G01 X4.1836 Y9.7438
G01 X4.1831 Y9.7341
G01 X4.1832 Y9.4292
G01 X4.1838 Y9.4220
G01 X4.1855 Y9.4124
G01 X4.1881 Y9.4030
G01 X4.1916 Y9.3940
G01 X4.1959 Y9.3853
G01 X4.2011 Y9.3771
G01 X4.2071 Y9.3694
G01 X4.2138 Y9.3624
G01 X4.2212 Y9.3560
G01 X4.2291 Y9.3504
G01 X4.2376 Y9.3456
G01 X4.2464 Y9.3417
G01 X4.2533 Y9.3393
G01 X4.2628 Y9.3370
G01 X4.2724 Y9.3356
G01 X4.2821 Y9.3351
G00 Z2.0000
G00 X4.2821 Y8.8351
G01 F60.00
G01 Z-0.0200
G01 F60.00
G01 X5.8061 Y8.8351
G01 X5.8182 Y8.8358
G01 X5.8301 Y8.8380
G01 X5.8417 Y8.8417
G01 X5.8484 Y8.8446
G01 X5.8549 Y8.8479
G01 X5.8611 Y8.8518
G01 X5.8670 Y8.8560
G01 X5.8726 Y8.8607
G01 X5.8778 Y8.8658
G01 X5.8826 Y8.8713
G01 X5.8870 Y8.8771
G01 X5.8910 Y8.8832
G01 X5.8945 Y8.8896
G01 X5.8975 Y8.8962
G01 X5.9001 Y8.9030
G01 X5.9021 Y8.9100
G01 X5.9036 Y8.9171
G01 X5.9046 Y8.9244
G01 X5.9051 Y8.9341
G01 X5.9051 Y9.2341
G01 X5.9043 Y9.2462
G01 X5.9021 Y9.2581
G01 X5.8993 Y9.2674
G01 X5.8966 Y9.2742
G01 X5.8934 Y9.2807
G01 X5.8897 Y9.2870
G01 X5.8856 Y9.2930
G01 X5.8794 Y9.3006
G01 X5.8743 Y9.3058
G01 X5.8689 Y9.3106
G01 X5.8631 Y9.3150
G01 X5.8570 Y9.3190
G01 X5.8506 Y9.3225
G01 X5.8417 Y9.3264
G01 X5.8348 Y9.3288
G01 X5.8278 Y9.3307
G01 X5.8182 Y9.3323
G01 X5.8109 Y9.3330
G01 X4.2821 Y9.3331
G01 X4.2700 Y9.3323
G01 X4.2580 Y9.3301
G01 X4.2464 Y9.3264
G01 X4.2397 Y9.3236
G01 X4.2333 Y9.3202
G01 X4.2271 Y9.3164
G01 X4.2212 Y9.3121
G01 X4.2156 Y9.3074
G01 X4.2104 Y9.3023
G01 X4.2055 Y9.2969
G01 X4.2011 Y9.2911
G01 X4.1972 Y9.2850
G01 X4.1936 Y9.2786
G01 X4.1906 Y9.2720
G01 X4.1881 Y9.2651
G01 X4.1850 Y9.2534
G01 X4.1836 Y9.2438
G01 X4.1831 Y9.2341
G01 X4.1832 Y8.9292
G01 X4.1838 Y8.9220
G01 X4.1855 Y8.9124
G01 X4.1881 Y8.9030
G01 X4.1916 Y8.8940
G01 X4.1959 Y8.8853
G01 X4.2011 Y8.8771
G01 X4.2071 Y8.8694
G01 X4.2138 Y8.8624
G01 X4.2212 Y8.8560
G01 X4.2291 Y8.8504
G01 X4.2376 Y8.8456
G01 X4.2464 Y8.8417
G01 X4.2533 Y8.8393
G01 X4.2628 Y8.8370
G01 X4.2724 Y8.8356
G01 X4.2821 Y8.8351
G00 Z2.0000
M05
G00 Z2.0000
G00 Z15.00


