(G-CODE GENERATED BY FLATCAM v8.994 - www.flatcam.org - Version Date: 2020/11/7)

(Name: PCB2.GTL_iso_combined_cnc)
(Type: G-code from Geometry)
(Units: MM)

(Created on Monday, 13 March 2023 at 14:45)

(This preprocessor is the default preprocessor used by FlatCAM.)
(It is made to work with MACH3 compatible motion controllers.)

(TOOL DIAMETER: 0.2 mm)
(Feedrate_XY: 80.0 mm/min)
(Feedrate_Z: 60.0 mm/min)
(Feedrate rapids 1500.0 mm/min)

(Z_Cut: -0.02 mm)
(Z_Move: 2.0 mm)
(Z Start: None mm)
(Z End: 15.0 mm)
(X,Y End: None mm)
(Steps per circle: 64)
(Preprocessor Geometry: default)

(X range:   -0.1000 ...   37.5342  mm)
(Y range:   -0.1000 ...   13.9481  mm)

(Spindle Speed: 10000.0 RPM)
G21
G90
G94

G01 F80.00

M5
G00 Z15.0000
G00 X0.0000 Y0.0000
T2
M6    
(MSG, Change to Tool Dia = 0.2000)
M0
G00 Z15.0000

M03 S10000.0
G01 F80.00
G00 X3.8781 Y2.4720
G01 F60.00
G01 Z-0.0200
G01 F80.00
G01 X3.8781 Y2.0520
G01 X3.8784 Y2.0446
G01 X3.8792 Y2.0373
G01 X3.8805 Y2.0301
G01 X3.8824 Y2.0230
G01 X3.8848 Y2.0160
G01 X3.8877 Y2.0092
G01 X3.8911 Y2.0027
G01 X3.8950 Y1.9964
G01 X3.8993 Y1.9905
G01 X3.9040 Y1.9848
G01 X3.9091 Y1.9796
G01 X3.9147 Y1.9747
G01 X3.9205 Y1.9702
G01 X3.9267 Y1.9662
G01 X3.9331 Y1.9627
G01 X3.9398 Y1.9596
G01 X3.9467 Y1.9570
G01 X3.9538 Y1.9550
G01 X3.9659 Y1.9528
G01 X3.9781 Y1.9520
G01 X5.5070 Y1.9521
G01 X5.5143 Y1.9528
G01 X5.5216 Y1.9539
G01 X5.5288 Y1.9556
G01 X5.5358 Y1.9578
G01 X5.5426 Y1.9606
G01 X5.5492 Y1.9638
G01 X5.5577 Y1.9689
G01 X5.5636 Y1.9732
G01 X5.5693 Y1.9779
G01 X5.5745 Y1.9830
G01 X5.5794 Y1.9886
G01 X5.5839 Y1.9944
G01 X5.5879 Y2.0006
G01 X5.5914 Y2.0070
G01 X5.5954 Y2.0160
G01 X5.5978 Y2.0230
G01 X5.5997 Y2.0301
G01 X5.6010 Y2.0373
G01 X5.6018 Y2.0446
G01 X5.6021 Y2.0520
G01 X5.6021 Y2.4720
G01 X5.6016 Y2.4818
G01 X5.6002 Y2.4915
G01 X5.5978 Y2.5010
G01 X5.5937 Y2.5120
G01 X5.5971 Y2.5206
G01 X5.5997 Y2.5301
G01 X5.6013 Y2.5398
G01 X5.6021 Y2.5495
G01 X5.6021 Y2.9720
G01 X5.6016 Y2.9818
G01 X5.6002 Y2.9915
G01 X5.5978 Y3.0010
G01 X5.5937 Y3.0120
G01 X5.5971 Y3.0206
G01 X5.5997 Y3.0301
G01 X5.6013 Y3.0398
G01 X5.6021 Y3.0495
G01 X5.6021 Y3.4720
G01 X5.6016 Y3.4818
G01 X5.6002 Y3.4915
G01 X5.5978 Y3.5010
G01 X5.5937 Y3.5120
G01 X5.5971 Y3.5206
G01 X5.5997 Y3.5301
G01 X5.6013 Y3.5398
G01 X5.6021 Y3.5495
G01 X5.6021 Y3.9720
G01 X5.6016 Y3.9818
G01 X5.6002 Y3.9915
G01 X5.5978 Y4.0010
G01 X5.5937 Y4.0120
G01 X5.5971 Y4.0206
G01 X5.5997 Y4.0301
G01 X5.6013 Y4.0398
G01 X5.6021 Y4.0495
G01 X5.6021 Y4.4720
G01 X5.6016 Y4.4818
G01 X5.6002 Y4.4915
G01 X5.5978 Y4.5010
G01 X5.5937 Y4.5120
G01 X5.5971 Y4.5206
G01 X5.5997 Y4.5301
G01 X5.6013 Y4.5398
G01 X5.6021 Y4.5495
G01 X5.6021 Y4.9720
G01 X5.6016 Y4.9818
G01 X5.6002 Y4.9915
G01 X5.5978 Y5.0010
G01 X5.5937 Y5.0120
G01 X5.5971 Y5.0206
G01 X5.5997 Y5.0301
G01 X5.6013 Y5.0398
G01 X5.6021 Y5.0495
G01 X5.6021 Y5.4720
G01 X5.6016 Y5.4818
G01 X5.6002 Y5.4915
G01 X5.5978 Y5.5010
G01 X5.5937 Y5.5120
G01 X5.5971 Y5.5206
G01 X5.5997 Y5.5301
G01 X5.6013 Y5.5398
G01 X5.6021 Y5.5495
G01 X5.6021 Y5.9720
G01 X5.6016 Y5.9818
G01 X5.6002 Y5.9915
G01 X5.5978 Y6.0010
G01 X5.5937 Y6.0120
G01 X5.5971 Y6.0206
G01 X5.5997 Y6.0301
G01 X5.6013 Y6.0398
G01 X5.6021 Y6.0495
G01 X5.6021 Y6.4720
G01 X5.6016 Y6.4818
G01 X5.6002 Y6.4915
G01 X5.5978 Y6.5010
G01 X5.5937 Y6.5120
G01 X5.5971 Y6.5206
G01 X5.5997 Y6.5301
G01 X5.6013 Y6.5398
G01 X5.6021 Y6.5495
G01 X5.6021 Y6.9720
G01 X5.6016 Y6.9818
G01 X5.6002 Y6.9915
G01 X5.5978 Y7.0010
G01 X5.5937 Y7.0120
G01 X5.5971 Y7.0206
G01 X5.5997 Y7.0301
G01 X5.6013 Y7.0398
G01 X5.6021 Y7.0495
G01 X5.6021 Y7.4720
G01 X5.6018 Y7.4794
G01 X5.6006 Y7.4891
G01 X5.5985 Y7.4987
G01 X5.5963 Y7.5057
G01 X5.5925 Y7.5148
G01 X5.5891 Y7.5213
G01 X5.5839 Y7.5296
G01 X5.5781 Y7.5370
G01 X5.5839 Y7.5444
G01 X5.5879 Y7.5506
G01 X5.5914 Y7.5570
G01 X5.5954 Y7.5660
G01 X5.5978 Y7.5730
G01 X5.6002 Y7.5825
G01 X5.6013 Y7.5898
G01 X5.6021 Y7.5995
G01 X5.6021 Y8.0245
G01 X5.6013 Y8.0342
G01 X5.6002 Y8.0415
G01 X5.5978 Y8.0510
G01 X5.5945 Y8.0603
G01 X5.5891 Y8.0713
G01 X5.5852 Y8.0776
G01 X5.5809 Y8.0835
G01 X5.5762 Y8.0892
G01 X5.5711 Y8.0944
G01 X5.5655 Y8.0993
G01 X5.5597 Y8.1038
G01 X5.5535 Y8.1078
G01 X5.5471 Y8.1113
G01 X5.5404 Y8.1144
G01 X5.5335 Y8.1170
G01 X5.5264 Y8.1190
G01 X5.5192 Y8.1205
G01 X5.5119 Y8.1215
G01 X5.5046 Y8.1220
G01 X3.9781 Y8.1220
G01 X3.9683 Y8.1215
G01 X3.9562 Y8.1196
G01 X3.9444 Y8.1162
G01 X3.9347 Y8.1121
G01 X2.3504 Y8.1121
G01 X1.4283 Y9.0342
G01 X1.4046 Y9.0555
G01 X1.3828 Y9.0715
G01 X1.3618 Y9.0842
G01 X1.3532 Y9.0889
G01 X1.3309 Y9.0993
G01 X1.3079 Y9.1076
G01 X1.2985 Y9.1105
G01 X1.2746 Y9.1163
G01 X1.2504 Y9.1201
G01 X1.2406 Y9.1210
G01 X1.2161 Y9.1221
G01 X1.1916 Y9.1210
G01 X1.1818 Y9.1201
G01 X1.1576 Y9.1163
G01 X1.1337 Y9.1105
G01 X1.1243 Y9.1076
G01 X1.1013 Y9.0993
G01 X1.0746 Y9.0867
G01 X1.0535 Y9.0741
G01 X1.0454 Y9.0687
G01 X1.0276 Y9.0555
G01 X1.0220 Y9.0508
G01 X1.0039 Y9.0342
G01 X0.9873 Y9.0161
G01 X0.9811 Y9.0085
G01 X0.9666 Y8.9887
G01 X0.9514 Y8.9635
G01 X0.9388 Y8.9368
G01 X0.9305 Y8.9138
G01 X0.9276 Y8.9044
G01 X0.9223 Y8.8829
G01 X0.9209 Y8.8757
G01 X0.9174 Y8.8514
G01 X0.9161 Y8.8269
G01 X0.9161 Y8.8171
G01 X0.9174 Y8.7926
G01 X0.9218 Y8.7635
G01 X0.9289 Y8.7349
G01 X0.9371 Y8.7117
G01 X0.9408 Y8.7027
G01 X0.9514 Y8.6805
G01 X0.9640 Y8.6594
G01 X0.9680 Y8.6532
G01 X0.9826 Y8.6335
G01 X1.0039 Y8.6098
G01 X2.0139 Y7.5998
G01 X2.0357 Y7.5800
G01 X2.0614 Y7.5611
G01 X2.0825 Y7.5485
G01 X2.0890 Y7.5451
G01 X2.1113 Y7.5347
G01 X2.1343 Y7.5264
G01 X2.1437 Y7.5235
G01 X2.1676 Y7.5177
G01 X2.1991 Y7.5131
G01 X2.2261 Y7.5119
G01 X2.7370 Y7.5119
G01 X2.7261 Y7.5045
G01 X2.7085 Y7.4913
G01 X2.6938 Y7.4782
G01 X2.6869 Y7.4713
G01 X2.6738 Y7.4566
G01 X2.6606 Y7.4390
G01 X2.6522 Y7.4267
G01 X2.6384 Y7.4035
G01 X2.6258 Y7.3768
G01 X2.6175 Y7.3538
G01 X2.6146 Y7.3444
G01 X2.6093 Y7.3229
G01 X2.6079 Y7.3157
G01 X2.6044 Y7.2914
G01 X2.6031 Y7.2669
G01 X2.6031 Y7.2571
G01 X2.6044 Y7.2326
G01 X2.6088 Y7.2035
G01 X2.6159 Y7.1749
G01 X2.6241 Y7.1517
G01 X2.6278 Y7.1427
G01 X2.6373 Y7.1227
G01 X2.6409 Y7.1163
G01 X2.6536 Y7.0953
G01 X2.6681 Y7.0755
G01 X2.6743 Y7.0679
G01 X2.6909 Y7.0498
G01 X2.7146 Y7.0285
G01 X2.7364 Y7.0125
G01 X2.7574 Y6.9998
G01 X2.7660 Y6.9951
G01 X2.7905 Y6.9838
G01 X2.8160 Y6.9748
G01 X2.8422 Y6.9682
G01 X2.8688 Y6.9639
G01 X2.8786 Y6.9630
G01 X2.9031 Y6.9619
G01 X3.8781 Y6.9619
G01 X3.8781 Y6.9581
G01 X2.2907 Y6.9581
G01 X0.8849 Y8.3638
G01 X0.8667 Y8.3803
G01 X0.8470 Y8.3949
G01 X0.8303 Y8.4051
G01 X0.8238 Y8.4087
G01 X0.8083 Y8.4160
G01 X0.7992 Y8.4198
G01 X0.7807 Y8.4263
G01 X0.7569 Y8.4323
G01 X0.7326 Y8.4359
G01 X0.7130 Y8.4370
G01 X0.7056 Y8.4370
G01 X0.6885 Y8.4362
G01 X0.6787 Y8.4353
G01 X0.6593 Y8.4323
G01 X0.6355 Y8.4263
G01 X0.6124 Y8.4180
G01 X0.5946 Y8.4098
G01 X0.5881 Y8.4064
G01 X0.5733 Y8.3976
G01 X0.5652 Y8.3921
G01 X0.5476 Y8.3787
G01 X0.5296 Y8.3621
G01 X0.5133 Y8.3437
G01 X0.5016 Y8.3280
G01 X0.4975 Y8.3218
G01 X0.4876 Y8.3049
G01 X0.4790 Y8.2872
G01 X0.4761 Y8.2804
G01 X0.4703 Y8.2643
G01 X0.4681 Y8.2572
G01 X0.4633 Y8.2382
G01 X0.4598 Y8.2164
G01 X0.4590 Y8.2091
G01 X0.4581 Y8.1895
G01 X0.4590 Y8.1649
G01 X0.4628 Y8.1382
G01 X0.4681 Y8.1168
G01 X0.4771 Y8.0913
G01 X0.4876 Y8.0691
G01 X0.5002 Y8.0481
G01 X0.5133 Y8.0303
G01 X0.5313 Y8.0102
G01 X2.0120 Y6.5295
G01 X2.0285 Y6.5147
G01 X2.0482 Y6.5001
G01 X2.0692 Y6.4875
G01 X2.0869 Y6.4789
G01 X2.0960 Y6.4752
G01 X2.1122 Y6.4694
G01 X2.1192 Y6.4674
G01 X2.1383 Y6.4627
G01 X2.1626 Y6.4591
G01 X2.1871 Y6.4579
G01 X2.7870 Y6.4579
G01 X2.7791 Y6.4485
G01 X2.7632 Y6.4267
G01 X2.7494 Y6.4035
G01 X2.7368 Y6.3768
G01 X2.7269 Y6.3491
G01 X2.7208 Y6.3253
G01 X2.7189 Y6.3157
G01 X2.7157 Y6.2939
G01 X2.7151 Y6.2865
G01 X2.7140 Y6.2620
G01 X2.7154 Y6.2326
G01 X2.7198 Y6.2035
G01 X2.7262 Y6.1772
G01 X2.7368 Y6.1472
G01 X2.7472 Y6.1249
G01 X2.7506 Y6.1184
G01 X2.7620 Y6.0994
G01 X2.7674 Y6.0913
G01 X2.7821 Y6.0716
G01 X2.8019 Y6.0498
G01 X2.8237 Y6.0300
G01 X2.8434 Y6.0153
G01 X2.8515 Y6.0099
G01 X2.8748 Y5.9962
G01 X2.8993 Y5.9847
G01 X2.9246 Y5.9756
G01 X2.9556 Y5.9677
G01 X2.9798 Y5.9639
G01 X2.9896 Y5.9630
G01 X3.0141 Y5.9619
G01 X3.1536 Y5.9619
G01 X3.1498 Y5.9581
G01 X2.3454 Y5.9581
G01 X0.4123 Y7.8912
G01 X0.3905 Y7.9110
G01 X0.3648 Y7.9299
G01 X0.3416 Y7.9437
G01 X0.3149 Y7.9563
G01 X0.2872 Y7.9662
G01 X0.2634 Y7.9723
G01 X0.2538 Y7.9742
G01 X0.2320 Y7.9774
G01 X0.2246 Y7.9780
G01 X0.2001 Y7.9791
G01 X0.1707 Y7.9777
G01 X0.1416 Y7.9733
G01 X0.1177 Y7.9675
G01 X0.1106 Y7.9654
G01 X0.0898 Y7.9580
G01 X0.0808 Y7.9543
G01 X0.0586 Y7.9437
G01 X0.0334 Y7.9285
G01 X0.0097 Y7.9110
G01 X-0.0121 Y7.8912
G01 X-0.0319 Y7.8694
G01 X-0.0494 Y7.8457
G01 X-0.0646 Y7.8205
G01 X-0.0752 Y7.7983
G01 X-0.0789 Y7.7893
G01 X-0.0863 Y7.7685
G01 X-0.0884 Y7.7614
G01 X-0.0942 Y7.7375
G01 X-0.0986 Y7.7084
G01 X-0.1000 Y7.6790
G01 X-0.0986 Y7.6496
G01 X-0.0942 Y7.6205
G01 X-0.0884 Y7.5966
G01 X-0.0863 Y7.5895
G01 X-0.0789 Y7.5687
G01 X-0.0752 Y7.5597
G01 X-0.0646 Y7.5375
G01 X-0.0480 Y7.5102
G01 X-0.0319 Y7.4886
G01 X-0.0121 Y7.4668
G01 X2.0089 Y5.4458
G01 X2.0307 Y5.4260
G01 X2.0564 Y5.4071
G01 X2.0796 Y5.3933
G01 X2.1018 Y5.3827
G01 X2.1108 Y5.3790
G01 X2.1340 Y5.3708
G01 X2.1578 Y5.3647
G01 X2.1674 Y5.3628
G01 X2.1917 Y5.3593
G01 X2.2162 Y5.3580
G01 X3.2766 Y5.3579
G01 X3.3035 Y5.3593
G01 X3.3350 Y5.3642
G01 X3.3636 Y5.3716
G01 X3.3867 Y5.3798
G01 X3.3934 Y5.3827
G01 X3.4177 Y5.3945
G01 X3.4388 Y5.4071
G01 X3.4448 Y5.4113
G01 X3.4664 Y5.4276
G01 X3.4845 Y5.4441
G01 X3.5024 Y5.4619
G01 X3.8781 Y5.4619
G01 X3.8781 Y5.0621
G01 X1.0824 Y5.0621
G01 X1.0455 Y5.0989
G01 X1.0236 Y5.1185
G01 X1.0039 Y5.1331
G01 X0.9977 Y5.1371
G01 X0.9766 Y5.1497
G01 X0.9522 Y5.1613
G01 X0.9222 Y5.1722
G01 X0.8984 Y5.1783
G01 X0.8888 Y5.1802
G01 X0.8645 Y5.1837
G01 X0.8400 Y5.1850
G01 X0.8302 Y5.1850
G01 X0.8057 Y5.1837
G01 X0.7766 Y5.1793
G01 X0.7527 Y5.1735
G01 X0.7433 Y5.1706
G01 X0.7225 Y5.1632
G01 X0.7158 Y5.1603
G01 X0.6936 Y5.1497
G01 X0.6725 Y5.1371
G01 X0.6644 Y5.1317
G01 X0.6447 Y5.1170
G01 X0.6229 Y5.0972
G01 X0.6031 Y5.0754
G01 X0.5884 Y5.0557
G01 X0.5830 Y5.0476
G01 X0.5704 Y5.0265
G01 X0.5598 Y5.0043
G01 X0.5569 Y4.9976
G01 X0.5495 Y4.9768
G01 X0.5466 Y4.9674
G01 X0.5408 Y4.9435
G01 X0.5364 Y4.9144
G01 X0.5351 Y4.8899
G01 X0.5351 Y4.8801
G01 X0.5364 Y4.8556
G01 X0.5399 Y4.8313
G01 X0.5418 Y4.8217
G01 X0.5479 Y4.7979
G01 X0.5578 Y4.7702
G01 X0.5704 Y4.7435
G01 X0.5830 Y4.7224
G01 X0.5884 Y4.7143
G01 X0.6047 Y4.6927
G01 X0.6229 Y4.6728
G01 X0.7459 Y4.5498
G01 X0.7677 Y4.5300
G01 X0.7874 Y4.5153
G01 X0.7955 Y4.5099
G01 X0.8166 Y4.4973
G01 X0.8433 Y4.4847
G01 X0.8663 Y4.4764
G01 X0.8757 Y4.4735
G01 X0.8996 Y4.4677
G01 X0.9262 Y4.4636
G01 X0.9581 Y4.4619
G01 X3.0356 Y4.4619
G01 X3.0161 Y4.4404
G01 X3.0014 Y4.4207
G01 X2.9960 Y4.4126
G01 X2.9834 Y4.3915
G01 X2.9728 Y4.3693
G01 X2.9699 Y4.3626
G01 X2.9625 Y4.3418
G01 X2.9596 Y4.3324
G01 X2.9538 Y4.3085
G01 X2.9494 Y4.2794
G01 X2.9480 Y4.2500
G01 X2.9491 Y4.2255
G01 X2.9500 Y4.2157
G01 X2.9538 Y4.1915
G01 X2.9596 Y4.1676
G01 X2.9617 Y4.1605
G01 X2.9691 Y4.1397
G01 X2.9728 Y4.1307
G01 X2.9834 Y4.1085
G01 X2.9986 Y4.0833
G01 X3.0161 Y4.0596
G01 X3.0325 Y4.0414
G01 X3.0395 Y4.0344
G01 X3.0558 Y4.0196
G01 X3.0616 Y4.0150
G01 X3.0814 Y4.0005
G01 X3.1024 Y3.9878
G01 X3.1110 Y3.9831
G01 X3.1333 Y3.9727
G01 X3.1633 Y3.9621
G01 X3.1896 Y3.9557
G01 X3.2138 Y3.9519
G01 X3.2211 Y3.9511
G01 X3.2456 Y3.9499
G01 X3.3661 Y3.9499
G01 X3.3906 Y3.9510
G01 X3.3980 Y3.9516
G01 X3.4222 Y3.9552
G01 X3.4500 Y3.9619
G01 X3.8781 Y3.9619
G01 X3.8781 Y3.5495
G01 X3.8789 Y3.5398
G01 X3.8805 Y3.5301
G01 X3.8831 Y3.5206
G01 X3.8865 Y3.5120
G01 X3.8824 Y3.5010
G01 X3.8800 Y3.4915
G01 X3.8786 Y3.4818
G01 X3.8781 Y3.4720
G01 X3.8781 Y3.0495
G01 X3.8789 Y3.0398
G01 X3.8805 Y3.0301
G01 X3.8831 Y3.0206
G01 X3.8865 Y3.0120
G01 X3.8831 Y3.0034
G01 X3.8805 Y2.9939
G01 X3.8789 Y2.9842
G01 X3.8781 Y2.9745
G01 X3.8781 Y2.5520
G01 X3.8786 Y2.5422
G01 X3.8800 Y2.5325
G01 X3.8824 Y2.5230
G01 X3.8865 Y2.5120
G01 X3.8824 Y2.5010
G01 X3.8800 Y2.4915
G01 X3.8786 Y2.4818
G01 X3.8781 Y2.4720
G00 Z2.0000
G00 X6.5901 Y1.6106
G01 F60.00
G01 Z-0.0200
G01 F80.00
G01 X6.5784 Y1.6164
G01 X6.5668 Y1.6204
G01 X6.5548 Y1.6229
G01 X6.5426 Y1.6240
G01 X6.1401 Y1.6240
G01 X6.1303 Y1.6235
G01 X6.1230 Y1.6225
G01 X6.1158 Y1.6210
G01 X6.1087 Y1.6190
G01 X6.1018 Y1.6164
G01 X6.0951 Y1.6133
G01 X6.0866 Y1.6085
G01 X6.0805 Y1.6043
G01 X6.0748 Y1.5997
G01 X6.0694 Y1.5947
G01 X6.0644 Y1.5893
G01 X6.0598 Y1.5836
G01 X6.0556 Y1.5775
G01 X6.0519 Y1.5711
G01 X6.0487 Y1.5645
G01 X6.0459 Y1.5577
G01 X6.0437 Y1.5507
G01 X6.0420 Y1.5435
G01 X6.0409 Y1.5362
G01 X6.0401 Y1.5240
G01 X6.0402 Y-0.0049
G01 X6.0409 Y-0.0122
G01 X6.0420 Y-0.0195
G01 X6.0437 Y-0.0267
G01 X6.0459 Y-0.0337
G01 X6.0487 Y-0.0405
G01 X6.0531 Y-0.0493
G01 X6.0570 Y-0.0556
G01 X6.0613 Y-0.0615
G01 X6.0660 Y-0.0672
G01 X6.0711 Y-0.0724
G01 X6.0767 Y-0.0773
G01 X6.0825 Y-0.0818
G01 X6.0908 Y-0.0870
G01 X6.0973 Y-0.0904
G01 X6.1041 Y-0.0933
G01 X6.1111 Y-0.0957
G01 X6.1182 Y-0.0976
G01 X6.1254 Y-0.0989
G01 X6.1327 Y-0.0997
G01 X6.1401 Y-0.1000
G01 X6.5426 Y-0.1000
G01 X6.5548 Y-0.0989
G01 X6.5668 Y-0.0964
G01 X6.5784 Y-0.0924
G01 X6.5901 Y-0.0866
G01 X6.6018 Y-0.0924
G01 X6.6134 Y-0.0964
G01 X6.6254 Y-0.0989
G01 X6.6376 Y-0.1000
G01 X7.0401 Y-0.1000
G01 X7.0475 Y-0.0997
G01 X7.0548 Y-0.0989
G01 X7.0668 Y-0.0964
G01 X7.0784 Y-0.0924
G01 X7.0901 Y-0.0866
G01 X7.1018 Y-0.0924
G01 X7.1134 Y-0.0964
G01 X7.1254 Y-0.0989
G01 X7.1376 Y-0.1000
G01 X7.5401 Y-0.1000
G01 X7.5475 Y-0.0997
G01 X7.5548 Y-0.0989
G01 X7.5668 Y-0.0964
G01 X7.5784 Y-0.0924
G01 X7.5901 Y-0.0866
G01 X7.6018 Y-0.0924
G01 X7.6134 Y-0.0964
G01 X7.6254 Y-0.0989
G01 X7.6376 Y-0.1000
G01 X8.0401 Y-0.1000
G01 X8.0475 Y-0.0997
G01 X8.0548 Y-0.0989
G01 X8.0668 Y-0.0964
G01 X8.0784 Y-0.0924
G01 X8.0901 Y-0.0866
G01 X8.1018 Y-0.0924
G01 X8.1134 Y-0.0964
G01 X8.1254 Y-0.0989
G01 X8.1376 Y-0.1000
G01 X8.5401 Y-0.1000
G01 X8.5475 Y-0.0997
G01 X8.5548 Y-0.0989
G01 X8.5668 Y-0.0964
G01 X8.5784 Y-0.0924
G01 X8.5901 Y-0.0866
G01 X8.6018 Y-0.0924
G01 X8.6134 Y-0.0964
G01 X8.6254 Y-0.0989
G01 X8.6376 Y-0.1000
G01 X9.0401 Y-0.1000
G01 X9.0475 Y-0.0997
G01 X9.0548 Y-0.0989
G01 X9.0668 Y-0.0964
G01 X9.0784 Y-0.0924
G01 X9.0901 Y-0.0866
G01 X9.1018 Y-0.0924
G01 X9.1134 Y-0.0964
G01 X9.1254 Y-0.0989
G01 X9.1376 Y-0.1000
G01 X9.5401 Y-0.1000
G01 X9.5475 Y-0.0997
G01 X9.5548 Y-0.0989
G01 X9.5668 Y-0.0964
G01 X9.5784 Y-0.0924
G01 X9.5901 Y-0.0866
G01 X9.6018 Y-0.0924
G01 X9.6134 Y-0.0964
G01 X9.6254 Y-0.0989
G01 X9.6376 Y-0.1000
G01 X10.0401 Y-0.1000
G01 X10.0475 Y-0.0997
G01 X10.0548 Y-0.0989
G01 X10.0668 Y-0.0964
G01 X10.0784 Y-0.0924
G01 X10.0901 Y-0.0866
G01 X10.1018 Y-0.0924
G01 X10.1134 Y-0.0964
G01 X10.1254 Y-0.0989
G01 X10.1376 Y-0.1000
G01 X10.5401 Y-0.1000
G01 X10.5475 Y-0.0997
G01 X10.5548 Y-0.0989
G01 X10.5668 Y-0.0964
G01 X10.5784 Y-0.0924
G01 X10.5901 Y-0.0866
G01 X10.6018 Y-0.0924
G01 X10.6134 Y-0.0964
G01 X10.6254 Y-0.0989
G01 X10.6376 Y-0.1000
G01 X11.0401 Y-0.1000
G01 X11.0475 Y-0.0997
G01 X11.0548 Y-0.0989
G01 X11.0668 Y-0.0964
G01 X11.0784 Y-0.0924
G01 X11.0901 Y-0.0866
G01 X11.1018 Y-0.0924
G01 X11.1134 Y-0.0964
G01 X11.1254 Y-0.0989
G01 X11.1376 Y-0.1000
G01 X11.5401 Y-0.1000
G01 X11.5475 Y-0.0997
G01 X11.5548 Y-0.0989
G01 X11.5668 Y-0.0964
G01 X11.5784 Y-0.0924
G01 X11.5901 Y-0.0866
G01 X11.6018 Y-0.0924
G01 X11.6134 Y-0.0964
G01 X11.6254 Y-0.0989
G01 X11.6376 Y-0.1000
G01 X12.0401 Y-0.1000
G01 X12.0499 Y-0.0995
G01 X12.0572 Y-0.0985
G01 X12.0644 Y-0.0970
G01 X12.0715 Y-0.0950
G01 X12.0784 Y-0.0924
G01 X12.0872 Y-0.0882
G01 X12.0936 Y-0.0845
G01 X12.0997 Y-0.0803
G01 X12.1054 Y-0.0757
G01 X12.1108 Y-0.0707
G01 X12.1158 Y-0.0653
G01 X12.1219 Y-0.0576
G01 X12.1259 Y-0.0514
G01 X12.1305 Y-0.0428
G01 X12.1334 Y-0.0360
G01 X12.1358 Y-0.0290
G01 X12.1377 Y-0.0219
G01 X12.1390 Y-0.0147
G01 X12.1398 Y-0.0074
G01 X12.1401 Y0.0000
G01 X12.1400 Y1.5289
G01 X12.1393 Y1.5362
G01 X12.1382 Y1.5435
G01 X12.1365 Y1.5507
G01 X12.1334 Y1.5600
G01 X12.1305 Y1.5668
G01 X12.1271 Y1.5733
G01 X12.1232 Y1.5796
G01 X12.1189 Y1.5855
G01 X12.1142 Y1.5912
G01 X12.1091 Y1.5964
G01 X12.1035 Y1.6013
G01 X12.0977 Y1.6058
G01 X12.0894 Y1.6110
G01 X12.0829 Y1.6144
G01 X12.0761 Y1.6173
G01 X12.0691 Y1.6197
G01 X12.0620 Y1.6216
G01 X12.0548 Y1.6229
G01 X12.0475 Y1.6237
G01 X12.0401 Y1.6240
G01 X11.6376 Y1.6240
G01 X11.6254 Y1.6229
G01 X11.6134 Y1.6204
G01 X11.6018 Y1.6164
G01 X11.5901 Y1.6106
G01 X11.5784 Y1.6164
G01 X11.5668 Y1.6204
G01 X11.5548 Y1.6229
G01 X11.5426 Y1.6240
G01 X11.1401 Y1.6240
G01 X11.1279 Y1.6232
G01 X11.1206 Y1.6221
G01 X11.1134 Y1.6204
G01 X11.1018 Y1.6164
G01 X11.0901 Y1.6106
G01 X11.0784 Y1.6164
G01 X11.0668 Y1.6204
G01 X11.0548 Y1.6229
G01 X11.0426 Y1.6240
G01 X10.6401 Y1.6240
G01 X10.6279 Y1.6232
G01 X10.6206 Y1.6221
G01 X10.6134 Y1.6204
G01 X10.6018 Y1.6164
G01 X10.5901 Y1.6106
G01 X10.5784 Y1.6164
G01 X10.5668 Y1.6204
G01 X10.5548 Y1.6229
G01 X10.5426 Y1.6240
G01 X10.1401 Y1.6240
G01 X10.1279 Y1.6232
G01 X10.1206 Y1.6221
G01 X10.1134 Y1.6204
G01 X10.1018 Y1.6164
G01 X10.0901 Y1.6106
G01 X10.0784 Y1.6164
G01 X10.0668 Y1.6204
G01 X10.0548 Y1.6229
G01 X10.0426 Y1.6240
G01 X9.6401 Y1.6240
G01 X9.6279 Y1.6232
G01 X9.6206 Y1.6221
G01 X9.6134 Y1.6204
G01 X9.6018 Y1.6164
G01 X9.5901 Y1.6106
G01 X9.5784 Y1.6164
G01 X9.5668 Y1.6204
G01 X9.5548 Y1.6229
G01 X9.5426 Y1.6240
G01 X9.1401 Y1.6240
G01 X9.1279 Y1.6232
G01 X9.1206 Y1.6221
G01 X9.1134 Y1.6204
G01 X9.1018 Y1.6164
G01 X9.0901 Y1.6106
G01 X9.0784 Y1.6164
G01 X9.0668 Y1.6204
G01 X9.0548 Y1.6229
G01 X9.0426 Y1.6240
G01 X8.6401 Y1.6240
G01 X8.6279 Y1.6232
G01 X8.6206 Y1.6221
G01 X8.6134 Y1.6204
G01 X8.6018 Y1.6164
G01 X8.5901 Y1.6106
G01 X8.5784 Y1.6164
G01 X8.5668 Y1.6204
G01 X8.5548 Y1.6229
G01 X8.5426 Y1.6240
G01 X8.1401 Y1.6240
G01 X8.1279 Y1.6232
G01 X8.1206 Y1.6221
G01 X8.1134 Y1.6204
G01 X8.1018 Y1.6164
G01 X8.0901 Y1.6106
G01 X8.0784 Y1.6164
G01 X8.0668 Y1.6204
G01 X8.0548 Y1.6229
G01 X8.0426 Y1.6240
G01 X7.6401 Y1.6240
G01 X7.6327 Y1.6237
G01 X7.6254 Y1.6229
G01 X7.6134 Y1.6204
G01 X7.6018 Y1.6164
G01 X7.5901 Y1.6106
G01 X7.5784 Y1.6164
G01 X7.5668 Y1.6204
G01 X7.5548 Y1.6229
G01 X7.5426 Y1.6240
G01 X7.1401 Y1.6240
G01 X7.1327 Y1.6237
G01 X7.1254 Y1.6229
G01 X7.1134 Y1.6204
G01 X7.1018 Y1.6164
G01 X7.0901 Y1.6106
G01 X7.0784 Y1.6164
G01 X7.0668 Y1.6204
G01 X7.0548 Y1.6229
G01 X7.0426 Y1.6240
G01 X6.6401 Y1.6240
G01 X6.6327 Y1.6237
G01 X6.6254 Y1.6229
G01 X6.6134 Y1.6204
G01 X6.6018 Y1.6164
G01 X6.5901 Y1.6106
G00 Z2.0000
G00 X12.4781 Y2.4620
G01 F60.00
G01 Z-0.0200
G01 F80.00
G01 X12.4781 Y2.0620
G01 X12.4784 Y2.0546
G01 X12.4792 Y2.0473
G01 X12.4805 Y2.0401
G01 X12.4824 Y2.0330
G01 X12.4848 Y2.0260
G01 X12.4877 Y2.0192
G01 X12.4911 Y2.0127
G01 X12.4950 Y2.0064
G01 X12.5024 Y1.9967
G01 X12.5074 Y1.9913
G01 X12.5128 Y1.9863
G01 X12.5185 Y1.9817
G01 X12.5246 Y1.9775
G01 X12.5310 Y1.9738
G01 X12.5376 Y1.9706
G01 X12.5444 Y1.9678
G01 X12.5514 Y1.9656
G01 X12.5586 Y1.9639
G01 X12.5659 Y1.9628
G01 X12.5781 Y1.9620
G01 X14.1046 Y1.9620
G01 X14.1168 Y1.9631
G01 X14.1288 Y1.9656
G01 X14.1404 Y1.9696
G01 X14.1492 Y1.9738
G01 X14.1597 Y1.9802
G01 X14.1693 Y1.9879
G01 X14.1778 Y1.9967
G01 X14.1839 Y2.0044
G01 X14.1879 Y2.0106
G01 X14.1914 Y2.0170
G01 X14.1945 Y2.0237
G01 X14.1971 Y2.0306
G01 X14.1991 Y2.0377
G01 X14.2006 Y2.0449
G01 X14.2018 Y2.0546
G01 X14.2021 Y2.0620
G01 X14.2021 Y2.4645
G01 X14.2010 Y2.4767
G01 X14.1985 Y2.4887
G01 X14.1945 Y2.5003
G01 X14.1887 Y2.5120
G01 X14.1945 Y2.5237
G01 X14.1985 Y2.5353
G01 X14.2002 Y2.5425
G01 X14.2013 Y2.5498
G01 X14.2021 Y2.5620
G01 X14.2021 Y2.9645
G01 X14.2010 Y2.9767
G01 X14.1985 Y2.9887
G01 X14.1945 Y3.0003
G01 X14.1887 Y3.0120
G01 X14.1945 Y3.0237
G01 X14.1985 Y3.0353
G01 X14.2002 Y3.0425
G01 X14.2013 Y3.0498
G01 X14.2021 Y3.0620
G01 X14.2021 Y3.4645
G01 X14.2010 Y3.4767
G01 X14.1985 Y3.4887
G01 X14.1945 Y3.5003
G01 X14.1887 Y3.5120
G01 X14.1945 Y3.5237
G01 X14.1985 Y3.5353
G01 X14.2002 Y3.5425
G01 X14.2013 Y3.5498
G01 X14.2021 Y3.5620
G01 X14.2021 Y3.9645
G01 X14.2010 Y3.9767
G01 X14.1985 Y3.9887
G01 X14.1945 Y4.0003
G01 X14.1887 Y4.0120
G01 X14.1945 Y4.0237
G01 X14.1985 Y4.0353
G01 X14.2002 Y4.0425
G01 X14.2013 Y4.0498
G01 X14.2021 Y4.0620
G01 X14.2021 Y4.4645
G01 X14.2010 Y4.4767
G01 X14.1985 Y4.4887
G01 X14.1945 Y4.5003
G01 X14.1887 Y4.5120
G01 X14.1945 Y4.5237
G01 X14.1985 Y4.5353
G01 X14.2010 Y4.5473
G01 X14.2021 Y4.5595
G01 X14.2021 Y4.9645
G01 X14.2010 Y4.9767
G01 X14.1985 Y4.9887
G01 X14.1945 Y5.0003
G01 X14.1887 Y5.0120
G01 X14.1945 Y5.0237
G01 X14.1985 Y5.0353
G01 X14.2010 Y5.0473
G01 X14.2021 Y5.0595
G01 X14.2021 Y5.4619
G01 X15.5551 Y5.4619
G01 X15.5796 Y5.4630
G01 X15.5894 Y5.4639
G01 X15.6136 Y5.4677
G01 X15.6422 Y5.4748
G01 X15.6699 Y5.4847
G01 X15.6922 Y5.4951
G01 X15.7008 Y5.4998
G01 X15.7218 Y5.5125
G01 X15.7416 Y5.5270
G01 X15.7474 Y5.5316
G01 X15.7637 Y5.5464
G01 X16.2907 Y6.0734
G01 X16.3071 Y6.0916
G01 X16.3218 Y6.1113
G01 X16.3272 Y6.1194
G01 X16.3398 Y6.1405
G01 X16.3504 Y6.1627
G01 X16.3541 Y6.1717
G01 X16.3623 Y6.1949
G01 X16.3694 Y6.2235
G01 X16.3732 Y6.2477
G01 X16.3741 Y6.2575
G01 X16.3752 Y6.2820
G01 X16.3738 Y6.3114
G01 X16.3694 Y6.3405
G01 X16.3636 Y6.3644
G01 X16.3607 Y6.3738
G01 X16.3524 Y6.3968
G01 X16.3420 Y6.4191
G01 X16.3373 Y6.4277
G01 X16.3246 Y6.4487
G01 X16.3071 Y6.4724
G01 X16.2873 Y6.4942
G01 X16.2692 Y6.5108
G01 X16.2616 Y6.5170
G01 X16.2418 Y6.5315
G01 X16.2166 Y6.5467
G01 X16.1944 Y6.5573
G01 X16.1854 Y6.5610
G01 X16.1622 Y6.5692
G01 X16.1384 Y6.5753
G01 X16.1288 Y6.5772
G01 X16.1045 Y6.5807
G01 X16.0751 Y6.5821
G01 X16.0457 Y6.5807
G01 X16.0214 Y6.5772
G01 X16.0142 Y6.5758
G01 X15.9927 Y6.5705
G01 X15.9833 Y6.5676
G01 X15.9603 Y6.5593
G01 X15.9336 Y6.5467
G01 X15.9084 Y6.5315
G01 X15.8847 Y6.5140
G01 X15.8629 Y6.4942
G01 X15.4308 Y6.0621
G01 X14.9266 Y6.0621
G01 X15.6084 Y6.7439
G01 X15.6941 Y6.7439
G01 X15.7211 Y6.7451
G01 X15.7526 Y6.7497
G01 X15.7765 Y6.7555
G01 X15.7859 Y6.7584
G01 X15.8089 Y6.7667
G01 X15.8312 Y6.7771
G01 X15.8398 Y6.7818
G01 X15.8608 Y6.7945
G01 X15.8845 Y6.8120
G01 X15.9027 Y6.8284
G01 X15.9097 Y6.8354
G01 X15.9276 Y6.8555
G01 X15.9436 Y6.8773
G01 X15.9599 Y6.9047
G01 X15.9723 Y6.9314
G01 X15.9805 Y6.9545
G01 X15.9826 Y6.9616
G01 X15.9889 Y6.9879
G01 X15.9925 Y7.0121
G01 X15.9931 Y7.0195
G01 X15.9942 Y7.0440
G01 X15.9931 Y7.0685
G01 X15.9925 Y7.0759
G01 X15.9893 Y7.0977
G01 X15.9879 Y7.1049
G01 X15.9820 Y7.1288
G01 X15.9723 Y7.1566
G01 X15.9588 Y7.1855
G01 X15.9450 Y7.2087
G01 X15.9261 Y7.2344
G01 X15.9063 Y7.2562
G01 X15.8845 Y7.2760
G01 X15.8629 Y7.2921
G01 X15.8398 Y7.3062
G01 X15.8312 Y7.3109
G01 X15.8089 Y7.3213
G01 X15.7859 Y7.3296
G01 X15.7765 Y7.3325
G01 X15.7526 Y7.3383
G01 X15.7284 Y7.3421
G01 X15.7186 Y7.3430
G01 X15.6941 Y7.3441
G01 X15.4841 Y7.3441
G01 X15.4571 Y7.3429
G01 X15.4256 Y7.3383
G01 X15.4017 Y7.3325
G01 X15.3923 Y7.3296
G01 X15.3670 Y7.3203
G01 X15.3426 Y7.3087
G01 X15.3174 Y7.2935
G01 X15.2937 Y7.2760
G01 X15.2737 Y7.2579
G01 X14.5778 Y6.5621
G01 X14.2021 Y6.5621
G01 X14.2021 Y6.9645
G01 X14.2010 Y6.9767
G01 X14.1985 Y6.9887
G01 X14.1945 Y7.0003
G01 X14.1887 Y7.0120
G01 X14.1945 Y7.0237
G01 X14.1985 Y7.0353
G01 X14.2010 Y7.0473
G01 X14.2021 Y7.0595
G01 X14.2021 Y7.4645
G01 X14.2010 Y7.4767
G01 X14.1985 Y7.4887
G01 X14.1945 Y7.5003
G01 X14.1887 Y7.5120
G01 X14.1945 Y7.5237
G01 X14.1985 Y7.5353
G01 X14.2010 Y7.5473
G01 X14.2021 Y7.5595
G01 X14.2021 Y7.9645
G01 X14.2013 Y7.9742
G01 X14.1997 Y7.9839
G01 X14.1963 Y7.9957
G01 X14.1925 Y8.0048
G01 X14.1879 Y8.0134
G01 X14.1809 Y8.0235
G01 X14.1745 Y8.0310
G01 X14.1674 Y8.0377
G01 X14.1617 Y8.0423
G01 X14.1535 Y8.0478
G01 X14.1471 Y8.0513
G01 X14.1381 Y8.0553
G01 X14.1311 Y8.0577
G01 X14.1216 Y8.0601
G01 X14.1143 Y8.0612
G01 X14.1046 Y8.0620
G01 X12.5781 Y8.0620
G01 X12.5659 Y8.0612
G01 X12.5538 Y8.0590
G01 X12.5421 Y8.0553
G01 X12.5310 Y8.0502
G01 X12.5205 Y8.0438
G01 X12.5109 Y8.0361
G01 X12.5040 Y8.0292
G01 X12.4963 Y8.0196
G01 X12.4911 Y8.0113
G01 X12.4877 Y8.0048
G01 X12.4848 Y7.9980
G01 X12.4824 Y7.9910
G01 X12.4805 Y7.9839
G01 X12.4792 Y7.9767
G01 X12.4784 Y7.9694
G01 X12.4781 Y7.9620
G01 X12.4781 Y7.5595
G01 X12.4792 Y7.5473
G01 X12.4817 Y7.5353
G01 X12.4857 Y7.5237
G01 X12.4915 Y7.5120
G01 X12.4857 Y7.5003
G01 X12.4817 Y7.4887
G01 X12.4792 Y7.4767
G01 X12.4784 Y7.4694
G01 X12.4781 Y7.4620
G01 X12.4781 Y7.0595
G01 X12.4792 Y7.0473
G01 X12.4817 Y7.0353
G01 X12.4857 Y7.0237
G01 X12.4915 Y7.0120
G01 X12.4857 Y7.0003
G01 X12.4817 Y6.9887
G01 X12.4792 Y6.9767
G01 X12.4781 Y6.9645
G01 X12.4781 Y6.5595
G01 X12.4792 Y6.5473
G01 X12.4817 Y6.5353
G01 X12.4857 Y6.5237
G01 X12.4915 Y6.5120
G01 X12.4857 Y6.5003
G01 X12.4817 Y6.4887
G01 X12.4792 Y6.4767
G01 X12.4781 Y6.4645
G01 X12.4781 Y6.0620
G01 X12.4789 Y6.0498
G01 X12.4800 Y6.0425
G01 X12.4817 Y6.0353
G01 X12.4857 Y6.0237
G01 X12.4915 Y6.0120
G01 X12.4857 Y6.0003
G01 X12.4817 Y5.9887
G01 X12.4792 Y5.9767
G01 X12.4784 Y5.9694
G01 X12.4781 Y5.9620
G01 X12.4781 Y5.5595
G01 X12.4792 Y5.5473
G01 X12.4817 Y5.5353
G01 X12.4857 Y5.5237
G01 X12.4915 Y5.5120
G01 X12.4857 Y5.5003
G01 X12.4817 Y5.4887
G01 X12.4792 Y5.4767
G01 X12.4784 Y5.4694
G01 X12.4781 Y5.4620
G01 X12.4781 Y5.0595
G01 X12.4792 Y5.0473
G01 X12.4817 Y5.0353
G01 X12.4857 Y5.0237
G01 X12.4915 Y5.0120
G01 X12.4857 Y5.0003
G01 X12.4817 Y4.9887
G01 X12.4792 Y4.9767
G01 X12.4784 Y4.9694
G01 X12.4781 Y4.9620
G01 X12.4781 Y4.5595
G01 X12.4792 Y4.5473
G01 X12.4817 Y4.5353
G01 X12.4857 Y4.5237
G01 X12.4915 Y4.5120
G01 X12.4857 Y4.5003
G01 X12.4817 Y4.4887
G01 X12.4792 Y4.4767
G01 X12.4784 Y4.4694
G01 X12.4781 Y4.4620
G01 X12.4781 Y4.0595
G01 X12.4792 Y4.0473
G01 X12.4817 Y4.0353
G01 X12.4857 Y4.0237
G01 X12.4915 Y4.0120
G01 X12.4857 Y4.0003
G01 X12.4817 Y3.9887
G01 X12.4792 Y3.9767
G01 X12.4784 Y3.9694
G01 X12.4781 Y3.9620
G01 X12.4781 Y3.5595
G01 X12.4792 Y3.5473
G01 X12.4817 Y3.5353
G01 X12.4857 Y3.5237
G01 X12.4915 Y3.5120
G01 X12.4857 Y3.5003
G01 X12.4817 Y3.4887
G01 X12.4792 Y3.4767
G01 X12.4781 Y3.4645
G01 X12.4781 Y3.0595
G01 X12.4792 Y3.0473
G01 X12.4817 Y3.0353
G01 X12.4857 Y3.0237
G01 X12.4915 Y3.0120
G01 X12.4857 Y3.0003
G01 X12.4817 Y2.9887
G01 X12.4792 Y2.9767
G01 X12.4781 Y2.9645
G01 X12.4781 Y2.5595
G01 X12.4792 Y2.5473
G01 X12.4817 Y2.5353
G01 X12.4857 Y2.5237
G01 X12.4915 Y2.5120
G01 X12.4857 Y2.5003
G01 X12.4817 Y2.4887
G01 X12.4792 Y2.4767
G01 X12.4784 Y2.4694
G01 X12.4781 Y2.4620
G00 Z2.0000
G00 X7.5901 Y10.1106
G01 F60.00
G01 Z-0.0200
G01 F80.00
G01 X7.5784 Y10.1164
G01 X7.5668 Y10.1204
G01 X7.5548 Y10.1229
G01 X7.5426 Y10.1240
G01 X7.1402 Y10.1240
G01 X7.1402 Y12.9770
G01 X7.1388 Y13.0064
G01 X7.1344 Y13.0355
G01 X7.1273 Y13.0641
G01 X7.1174 Y13.0918
G01 X7.1070 Y13.1141
G01 X7.1023 Y13.1227
G01 X7.0896 Y13.1437
G01 X7.0751 Y13.1635
G01 X7.0705 Y13.1693
G01 X7.0540 Y13.1874
G01 X7.0163 Y13.2252
G01 X6.9945 Y13.2450
G01 X6.9708 Y13.2625
G01 X6.9456 Y13.2777
G01 X6.9234 Y13.2883
G01 X6.9144 Y13.2920
G01 X6.8912 Y13.3002
G01 X6.8674 Y13.3063
G01 X6.8602 Y13.3078
G01 X6.8384 Y13.3111
G01 X6.8286 Y13.3120
G01 X6.8041 Y13.3131
G01 X6.7747 Y13.3117
G01 X6.7456 Y13.3073
G01 X6.7217 Y13.3015
G01 X6.7123 Y13.2986
G01 X6.6893 Y13.2903
G01 X6.6670 Y13.2799
G01 X6.6605 Y13.2765
G01 X6.6402 Y13.2643
G01 X6.6402 Y13.4770
G01 X6.6390 Y13.5040
G01 X6.6344 Y13.5355
G01 X6.6286 Y13.5594
G01 X6.6265 Y13.5665
G01 X6.6191 Y13.5873
G01 X6.6154 Y13.5963
G01 X6.6048 Y13.6185
G01 X6.5910 Y13.6417
G01 X6.5751 Y13.6635
G01 X6.5689 Y13.6711
G01 X6.5523 Y13.6892
G01 X6.3813 Y13.8602
G01 X6.3632 Y13.8768
G01 X6.3556 Y13.8830
G01 X6.3358 Y13.8975
G01 X6.3148 Y13.9102
G01 X6.3062 Y13.9149
G01 X6.2839 Y13.9253
G01 X6.2562 Y13.9352
G01 X6.2324 Y13.9413
G01 X6.2228 Y13.9432
G01 X6.1985 Y13.9467
G01 X6.1691 Y13.9481
G01 X6.1446 Y13.9470
G01 X6.1348 Y13.9461
G01 X6.1106 Y13.9423
G01 X6.0867 Y13.9365
G01 X6.0773 Y13.9336
G01 X6.0543 Y13.9253
G01 X6.0320 Y13.9149
G01 X6.0234 Y13.9102
G01 X6.0003 Y13.8961
G01 X5.9787 Y13.8800
G01 X5.9605 Y13.8636
G01 X5.9535 Y13.8566
G01 X5.9371 Y13.8384
G01 X5.9224 Y13.8187
G01 X5.9170 Y13.8106
G01 X5.9044 Y13.7895
G01 X5.8938 Y13.7673
G01 X5.8901 Y13.7583
G01 X5.8819 Y13.7351
G01 X5.8748 Y13.7065
G01 X5.8710 Y13.6823
G01 X5.8701 Y13.6725
G01 X5.8690 Y13.6455
G01 X5.8702 Y13.6210
G01 X5.8710 Y13.6137
G01 X5.8748 Y13.5895
G01 X5.8812 Y13.5632
G01 X5.8918 Y13.5332
G01 X5.9022 Y13.5109
G01 X5.9069 Y13.5023
G01 X5.9210 Y13.4792
G01 X5.9356 Y13.4595
G01 X5.9403 Y13.4539
G01 X5.9569 Y13.4358
G01 X6.0400 Y13.3527
G01 X6.0401 Y8.4975
G01 X6.0406 Y8.4902
G01 X6.0420 Y8.4805
G01 X6.0444 Y8.4710
G01 X6.0477 Y8.4617
G01 X6.0519 Y8.4529
G01 X6.0570 Y8.4444
G01 X6.0628 Y8.4366
G01 X6.0677 Y8.4310
G01 X6.0748 Y8.4243
G01 X6.0825 Y8.4182
G01 X6.0908 Y8.4130
G01 X6.0973 Y8.4096
G01 X6.1064 Y8.4058
G01 X6.1158 Y8.4030
G01 X6.1254 Y8.4011
G01 X6.1352 Y8.4001
G01 X6.5426 Y8.4000
G01 X6.5548 Y8.4011
G01 X6.5668 Y8.4036
G01 X6.5784 Y8.4076
G01 X6.5901 Y8.4134
G01 X6.6018 Y8.4076
G01 X6.6134 Y8.4036
G01 X6.6254 Y8.4011
G01 X6.6376 Y8.4000
G01 X7.0426 Y8.4000
G01 X7.0548 Y8.4011
G01 X7.0668 Y8.4036
G01 X7.0784 Y8.4076
G01 X7.0901 Y8.4134
G01 X7.1018 Y8.4076
G01 X7.1134 Y8.4036
G01 X7.1254 Y8.4011
G01 X7.1376 Y8.4000
G01 X7.5401 Y8.4000
G01 X7.5523 Y8.4008
G01 X7.5596 Y8.4019
G01 X7.5668 Y8.4036
G01 X7.5784 Y8.4076
G01 X7.5901 Y8.4134
G01 X7.6018 Y8.4076
G01 X7.6134 Y8.4036
G01 X7.6254 Y8.4011
G01 X7.6376 Y8.4000
G01 X8.0401 Y8.4000
G01 X8.0523 Y8.4008
G01 X8.0596 Y8.4019
G01 X8.0668 Y8.4036
G01 X8.0784 Y8.4076
G01 X8.0901 Y8.4134
G01 X8.1018 Y8.4076
G01 X8.1134 Y8.4036
G01 X8.1254 Y8.4011
G01 X8.1376 Y8.4000
G01 X8.5401 Y8.4000
G01 X8.5523 Y8.4008
G01 X8.5596 Y8.4019
G01 X8.5668 Y8.4036
G01 X8.5784 Y8.4076
G01 X8.5901 Y8.4134
G01 X8.6018 Y8.4076
G01 X8.6134 Y8.4036
G01 X8.6254 Y8.4011
G01 X8.6376 Y8.4000
G01 X9.0401 Y8.4000
G01 X9.0523 Y8.4008
G01 X9.0596 Y8.4019
G01 X9.0668 Y8.4036
G01 X9.0784 Y8.4076
G01 X9.0901 Y8.4134
G01 X9.1018 Y8.4076
G01 X9.1134 Y8.4036
G01 X9.1254 Y8.4011
G01 X9.1376 Y8.4000
G01 X9.5401 Y8.4000
G01 X9.5523 Y8.4008
G01 X9.5596 Y8.4019
G01 X9.5668 Y8.4036
G01 X9.5784 Y8.4076
G01 X9.5901 Y8.4134
G01 X9.6018 Y8.4076
G01 X9.6134 Y8.4036
G01 X9.6254 Y8.4011
G01 X9.6376 Y8.4000
G01 X10.0401 Y8.4000
G01 X10.0523 Y8.4008
G01 X10.0596 Y8.4019
G01 X10.0668 Y8.4036
G01 X10.0784 Y8.4076
G01 X10.0901 Y8.4134
G01 X10.1018 Y8.4076
G01 X10.1134 Y8.4036
G01 X10.1254 Y8.4011
G01 X10.1376 Y8.4000
G01 X10.5401 Y8.4000
G01 X10.5523 Y8.4008
G01 X10.5596 Y8.4019
G01 X10.5668 Y8.4036
G01 X10.5784 Y8.4076
G01 X10.5901 Y8.4134
G01 X10.6018 Y8.4076
G01 X10.6134 Y8.4036
G01 X10.6254 Y8.4011
G01 X10.6376 Y8.4000
G01 X11.0401 Y8.4000
G01 X11.0523 Y8.4008
G01 X11.0596 Y8.4019
G01 X11.0668 Y8.4036
G01 X11.0784 Y8.4076
G01 X11.0901 Y8.4134
G01 X11.1018 Y8.4076
G01 X11.1134 Y8.4036
G01 X11.1254 Y8.4011
G01 X11.1376 Y8.4000
G01 X11.5401 Y8.4000
G01 X11.5523 Y8.4008
G01 X11.5596 Y8.4019
G01 X11.5668 Y8.4036
G01 X11.5784 Y8.4076
G01 X11.5901 Y8.4134
G01 X11.6018 Y8.4076
G01 X11.6134 Y8.4036
G01 X11.6254 Y8.4011
G01 X11.6376 Y8.4000
G01 X12.0401 Y8.4000
G01 X12.0523 Y8.4008
G01 X12.0596 Y8.4019
G01 X12.0668 Y8.4036
G01 X12.0784 Y8.4076
G01 X12.0851 Y8.4107
G01 X12.0915 Y8.4142
G01 X12.1016 Y8.4212
G01 X12.1108 Y8.4293
G01 X12.1158 Y8.4347
G01 X12.1204 Y8.4404
G01 X12.1271 Y8.4507
G01 X12.1325 Y8.4617
G01 X12.1365 Y8.4733
G01 X12.1390 Y8.4853
G01 X12.1401 Y8.4975
G01 X12.1402 Y11.4477
G01 X13.8112 Y13.1187
G01 X13.8940 Y13.1187
G01 X13.9615 Y13.0514
G01 X13.9797 Y13.0350
G01 X14.0034 Y13.0175
G01 X14.0286 Y13.0023
G01 X14.0553 Y12.9897
G01 X14.0830 Y12.9798
G01 X14.1068 Y12.9737
G01 X14.1164 Y12.9718
G01 X14.1382 Y12.9686
G01 X14.1456 Y12.9680
G01 X14.1701 Y12.9669
G01 X14.1946 Y12.9680
G01 X14.2020 Y12.9686
G01 X14.2262 Y12.9722
G01 X14.2525 Y12.9785
G01 X14.2619 Y12.9814
G01 X14.2849 Y12.9897
G01 X14.3116 Y13.0023
G01 X14.3368 Y13.0175
G01 X14.3624 Y13.0366
G01 X14.3823 Y13.0548
G01 X14.4021 Y13.0766
G01 X14.4196 Y13.1003
G01 X14.4323 Y13.1213
G01 X14.4359 Y13.1277
G01 X14.4454 Y13.1477
G01 X14.4491 Y13.1567
G01 X14.4573 Y13.1799
G01 X14.4644 Y13.2085
G01 X14.4688 Y13.2376
G01 X14.4701 Y13.2621
G01 X14.4702 Y13.2695
G01 X14.4691 Y13.2915
G01 X14.4682 Y13.3013
G01 X14.4644 Y13.3255
G01 X14.4573 Y13.3541
G01 X14.4474 Y13.3818
G01 X14.4370 Y13.4041
G01 X14.4323 Y13.4127
G01 X14.4182 Y13.4358
G01 X14.4021 Y13.4574
G01 X14.3857 Y13.4756
G01 X14.2305 Y13.6310
G01 X14.2106 Y13.6492
G01 X14.1850 Y13.6683
G01 X14.1640 Y13.6810
G01 X14.1554 Y13.6857
G01 X14.1354 Y13.6951
G01 X14.1286 Y13.6978
G01 X14.1054 Y13.7060
G01 X14.0816 Y13.7121
G01 X14.0720 Y13.7140
G01 X14.0477 Y13.7175
G01 X14.0183 Y13.7189
G01 X13.6869 Y13.7189
G01 X13.6550 Y13.7172
G01 X13.6284 Y13.7131
G01 X13.5998 Y13.7060
G01 X13.5721 Y13.6961
G01 X13.5498 Y13.6857
G01 X13.5412 Y13.6810
G01 X13.5181 Y13.6669
G01 X13.4965 Y13.6508
G01 X13.4765 Y13.6327
G01 X11.6279 Y11.7842
G01 X11.6081 Y11.7624
G01 X11.5934 Y11.7427
G01 X11.5880 Y11.7346
G01 X11.5754 Y11.7135
G01 X11.5628 Y11.6868
G01 X11.5545 Y11.6638
G01 X11.5516 Y11.6544
G01 X11.5458 Y11.6305
G01 X11.5417 Y11.6039
G01 X11.5400 Y11.5720
G01 X11.5400 Y11.2323
G01 X11.5154 Y11.2468
G01 X11.4932 Y11.2573
G01 X11.4864 Y11.2600
G01 X11.4632 Y11.2682
G01 X11.4394 Y11.2743
G01 X11.4322 Y11.2758
G01 X11.4104 Y11.2791
G01 X11.4031 Y11.2799
G01 X11.3786 Y11.2811
G01 X11.3491 Y11.2799
G01 X11.3176 Y11.2753
G01 X11.2913 Y11.2689
G01 X11.2613 Y11.2583
G01 X11.2346 Y11.2457
G01 X11.2094 Y11.2305
G01 X11.1876 Y11.2145
G01 X11.1657 Y11.1949
G01 X11.1262 Y11.1554
G01 X11.1081 Y11.1354
G01 X11.0920 Y11.1138
G01 X11.0779 Y11.0907
G01 X11.0732 Y11.0821
G01 X11.0628 Y11.0598
G01 X11.0545 Y11.0368
G01 X11.0516 Y11.0274
G01 X11.0458 Y11.0035
G01 X11.0420 Y10.9793
G01 X11.0411 Y10.9695
G01 X11.0400 Y10.9450
G01 X11.0400 Y10.1240
G01 X10.9862 Y10.1240
G01 X10.9862 Y11.8005
G01 X10.9848 Y11.8274
G01 X10.9804 Y11.8565
G01 X10.9733 Y11.8851
G01 X10.9634 Y11.9128
G01 X10.9508 Y11.9395
G01 X10.9356 Y11.9647
G01 X10.9181 Y11.9884
G01 X10.9000 Y12.0084
G01 X10.4453 Y12.4632
G01 X10.4235 Y12.4830
G01 X10.3998 Y12.5005
G01 X10.3746 Y12.5157
G01 X10.3524 Y12.5263
G01 X10.3434 Y12.5300
G01 X10.3202 Y12.5382
G01 X10.2964 Y12.5443
G01 X10.2868 Y12.5462
G01 X10.2625 Y12.5497
G01 X10.2331 Y12.5511
G01 X10.2037 Y12.5497
G01 X10.1794 Y12.5462
G01 X10.1698 Y12.5443
G01 X10.1460 Y12.5382
G01 X10.1228 Y12.5300
G01 X10.1138 Y12.5263
G01 X10.0916 Y12.5157
G01 X10.0664 Y12.5005
G01 X10.0427 Y12.4830
G01 X10.0245 Y12.4666
G01 X10.0192 Y12.4614
G01 X10.0043 Y12.4451
G01 X9.9981 Y12.4375
G01 X9.9836 Y12.4177
G01 X9.9684 Y12.3925
G01 X9.9558 Y12.3658
G01 X9.9459 Y12.3381
G01 X9.9388 Y12.3095
G01 X9.9350 Y12.2853
G01 X9.9341 Y12.2755
G01 X9.9330 Y12.2535
G01 X9.9331 Y12.2461
G01 X9.9344 Y12.2216
G01 X9.9388 Y12.1925
G01 X9.9459 Y12.1639
G01 X9.9549 Y12.1384
G01 X9.9684 Y12.1095
G01 X9.9836 Y12.0843
G01 X10.0011 Y12.0606
G01 X10.0175 Y12.0424
G01 X10.3860 Y11.6737
G01 X10.3860 Y10.1240
G01 X10.1352 Y10.1239
G01 X10.1230 Y10.1225
G01 X10.1111 Y10.1197
G01 X10.0996 Y10.1154
G01 X10.0901 Y10.1106
G01 X10.0784 Y10.1164
G01 X10.0668 Y10.1204
G01 X10.0548 Y10.1229
G01 X10.0426 Y10.1240
G01 X9.6376 Y10.1240
G01 X9.6254 Y10.1229
G01 X9.6134 Y10.1204
G01 X9.6018 Y10.1164
G01 X9.5901 Y10.1106
G01 X9.5784 Y10.1164
G01 X9.5668 Y10.1204
G01 X9.5548 Y10.1229
G01 X9.5426 Y10.1240
G01 X9.1402 Y10.1240
G01 X9.1402 Y12.3847
G01 X9.6833 Y12.9278
G01 X9.7015 Y12.9477
G01 X9.7178 Y12.9693
G01 X9.7232 Y12.9774
G01 X9.7358 Y12.9985
G01 X9.7484 Y13.0252
G01 X9.7583 Y13.0529
G01 X9.7644 Y13.0767
G01 X9.7663 Y13.0863
G01 X9.7695 Y13.1081
G01 X9.7701 Y13.1155
G01 X9.7712 Y13.1400
G01 X9.7701 Y13.1645
G01 X9.7692 Y13.1743
G01 X9.7654 Y13.1985
G01 X9.7596 Y13.2224
G01 X9.7567 Y13.2318
G01 X9.7484 Y13.2548
G01 X9.7380 Y13.2771
G01 X9.7333 Y13.2857
G01 X9.7206 Y13.3067
G01 X9.7061 Y13.3265
G01 X9.6999 Y13.3341
G01 X9.6833 Y13.3522
G01 X9.6652 Y13.3688
G01 X9.6576 Y13.3750
G01 X9.6378 Y13.3895
G01 X9.6168 Y13.4022
G01 X9.6082 Y13.4069
G01 X9.5859 Y13.4173
G01 X9.5629 Y13.4256
G01 X9.5535 Y13.4285
G01 X9.5296 Y13.4343
G01 X9.5054 Y13.4381
G01 X9.4956 Y13.4390
G01 X9.4711 Y13.4401
G01 X9.4466 Y13.4390
G01 X9.4368 Y13.4381
G01 X9.4126 Y13.4343
G01 X9.3887 Y13.4285
G01 X9.3793 Y13.4256
G01 X9.3563 Y13.4173
G01 X9.3340 Y13.4069
G01 X9.3254 Y13.4022
G01 X9.3023 Y13.3881
G01 X9.2807 Y13.3720
G01 X9.2607 Y13.3539
G01 X8.6262 Y12.7194
G01 X8.6081 Y12.6994
G01 X8.5934 Y12.6797
G01 X8.5880 Y12.6716
G01 X8.5754 Y12.6505
G01 X8.5648 Y12.6283
G01 X8.5611 Y12.6193
G01 X8.5529 Y12.5961
G01 X8.5468 Y12.5723
G01 X8.5449 Y12.5627
G01 X8.5414 Y12.5384
G01 X8.5400 Y12.5090
G01 X8.5400 Y10.1240
G01 X8.1376 Y10.1240
G01 X8.1254 Y10.1229
G01 X8.1134 Y10.1204
G01 X8.1018 Y10.1164
G01 X8.0901 Y10.1106
G01 X8.0784 Y10.1164
G01 X8.0668 Y10.1204
G01 X8.0548 Y10.1229
G01 X8.0426 Y10.1240
G01 X7.6376 Y10.1240
G01 X7.6254 Y10.1229
G01 X7.6134 Y10.1204
G01 X7.6018 Y10.1164
G01 X7.5901 Y10.1106
G00 Z2.0000
G00 X22.0328 Y8.4288
G01 F60.00
G01 Z-0.0200
G01 F80.00
G01 X22.0328 Y8.1488
G01 X22.0333 Y8.1390
G01 X22.0352 Y8.1269
G01 X22.0371 Y8.1198
G01 X22.0395 Y8.1128
G01 X22.0424 Y8.1060
G01 X22.0458 Y8.0995
G01 X22.0497 Y8.0932
G01 X22.0540 Y8.0873
G01 X22.0587 Y8.0816
G01 X22.0638 Y8.0764
G01 X22.0694 Y8.0715
G01 X22.0752 Y8.0670
G01 X22.0814 Y8.0630
G01 X22.0878 Y8.0595
G01 X22.0945 Y8.0564
G01 X22.1014 Y8.0538
G01 X22.1085 Y8.0518
G01 X22.1157 Y8.0503
G01 X22.1230 Y8.0493
G01 X22.1328 Y8.0488
G01 X23.6617 Y8.0489
G01 X23.6690 Y8.0496
G01 X23.6763 Y8.0507
G01 X23.6858 Y8.0531
G01 X23.6928 Y8.0555
G01 X23.7018 Y8.0595
G01 X23.7082 Y8.0630
G01 X23.7144 Y8.0670
G01 X23.7221 Y8.0731
G01 X23.7275 Y8.0781
G01 X23.7341 Y8.0854
G01 X23.7399 Y8.0932
G01 X23.7438 Y8.0995
G01 X23.7482 Y8.1083
G01 X23.7510 Y8.1151
G01 X23.7538 Y8.1245
G01 X23.7553 Y8.1317
G01 X23.7565 Y8.1414
G01 X23.7568 Y8.1488
G01 X23.7568 Y8.4288
G01 X23.7563 Y8.4386
G01 X23.7549 Y8.4483
G01 X23.7532 Y8.4555
G01 X23.7510 Y8.4625
G01 X23.7472 Y8.4716
G01 X23.7438 Y8.4781
G01 X23.7399 Y8.4844
G01 X23.7356 Y8.4903
G01 X23.7309 Y8.4960
G01 X23.7258 Y8.5012
G01 X23.7202 Y8.5061
G01 X23.7144 Y8.5106
G01 X23.7082 Y8.5146
G01 X23.7018 Y8.5181
G01 X23.6951 Y8.5212
G01 X23.6882 Y8.5238
G01 X23.6811 Y8.5258
G01 X23.6739 Y8.5273
G01 X23.6666 Y8.5283
G01 X23.6568 Y8.5288
G01 X22.1279 Y8.5287
G01 X22.1181 Y8.5277
G01 X22.1085 Y8.5258
G01 X22.0991 Y8.5230
G01 X22.0900 Y8.5192
G01 X22.0814 Y8.5146
G01 X22.0752 Y8.5106
G01 X22.0675 Y8.5045
G01 X22.0604 Y8.4978
G01 X22.0540 Y8.4903
G01 X22.0497 Y8.4844
G01 X22.0446 Y8.4759
G01 X22.0404 Y8.4671
G01 X22.0371 Y8.4578
G01 X22.0347 Y8.4483
G01 X22.0333 Y8.4386
G01 X22.0328 Y8.4288
G00 Z2.0000
G00 X22.1272 Y7.5206
G01 F60.00
G01 Z-0.0200
G01 F80.00
G01 X23.6512 Y7.5206
G01 X23.6634 Y7.5214
G01 X23.6755 Y7.5236
G01 X23.6826 Y7.5256
G01 X23.6895 Y7.5282
G01 X23.6962 Y7.5313
G01 X23.7026 Y7.5348
G01 X23.7088 Y7.5388
G01 X23.7146 Y7.5433
G01 X23.7202 Y7.5482
G01 X23.7253 Y7.5534
G01 X23.7300 Y7.5591
G01 X23.7343 Y7.5650
G01 X23.7382 Y7.5713
G01 X23.7416 Y7.5778
G01 X23.7462 Y7.5892
G01 X23.7482 Y7.5963
G01 X23.7497 Y7.6035
G01 X23.7509 Y7.6132
G01 X23.7512 Y7.6206
G01 X23.7512 Y7.9006
G01 X23.7504 Y7.9128
G01 X23.7482 Y7.9249
G01 X23.7462 Y7.9320
G01 X23.7426 Y7.9411
G01 X23.7394 Y7.9477
G01 X23.7357 Y7.9541
G01 X23.7315 Y7.9602
G01 X23.7269 Y7.9659
G01 X23.7202 Y7.9730
G01 X23.7146 Y7.9779
G01 X23.7088 Y7.9824
G01 X23.7026 Y7.9864
G01 X23.6962 Y7.9899
G01 X23.6872 Y7.9939
G01 X23.6802 Y7.9963
G01 X23.6707 Y7.9987
G01 X23.6634 Y7.9998
G01 X23.6561 Y8.0005
G01 X22.1272 Y8.0006
G01 X22.1150 Y7.9998
G01 X22.1029 Y7.9976
G01 X22.0958 Y7.9956
G01 X22.0889 Y7.9930
G01 X22.0822 Y7.9899
G01 X22.0758 Y7.9864
G01 X22.0696 Y7.9824
G01 X22.0638 Y7.9779
G01 X22.0548 Y7.9696
G01 X22.0499 Y7.9640
G01 X22.0454 Y7.9582
G01 X22.0414 Y7.9520
G01 X22.0379 Y7.9456
G01 X22.0348 Y7.9389
G01 X22.0322 Y7.9320
G01 X22.0291 Y7.9201
G01 X22.0277 Y7.9104
G01 X22.0272 Y7.9006
G01 X22.0273 Y7.6157
G01 X22.0283 Y7.6059
G01 X22.0302 Y7.5963
G01 X22.0322 Y7.5892
G01 X22.0358 Y7.5801
G01 X22.0402 Y7.5713
G01 X22.0454 Y7.5630
G01 X22.0515 Y7.5553
G01 X22.0582 Y7.5482
G01 X22.0657 Y7.5418
G01 X22.0737 Y7.5361
G01 X22.0822 Y7.5313
G01 X22.0912 Y7.5273
G01 X22.1005 Y7.5242
G01 X22.1101 Y7.5221
G01 X22.1174 Y7.5211
G01 X22.1272 Y7.5206
G00 Z2.0000
G00 X22.1391 Y5.5300
G01 F60.00
G01 Z-0.0200
G01 F80.00
G01 X23.6656 Y5.5300
G01 X23.6778 Y5.5311
G01 X23.6874 Y5.5330
G01 X23.6991 Y5.5367
G01 X23.7081 Y5.5407
G01 X23.7166 Y5.5455
G01 X23.7265 Y5.5527
G01 X23.7355 Y5.5610
G01 X23.7419 Y5.5685
G01 X23.7462 Y5.5744
G01 X23.7501 Y5.5807
G01 X23.7535 Y5.5872
G01 X23.7564 Y5.5940
G01 X23.7588 Y5.6010
G01 X23.7612 Y5.6105
G01 X23.7623 Y5.6178
G01 X23.7630 Y5.6251
G01 X23.7630 Y5.9149
G01 X23.7616 Y5.9271
G01 X23.7588 Y5.9390
G01 X23.7545 Y5.9505
G01 X23.7489 Y5.9614
G01 X23.7419 Y5.9715
G01 X23.7338 Y5.9807
G01 X23.7246 Y5.9888
G01 X23.7166 Y5.9945
G01 X23.7059 Y6.0004
G01 X23.6991 Y6.0033
G01 X23.6921 Y6.0057
G01 X23.6802 Y6.0085
G01 X23.6729 Y6.0095
G01 X23.6656 Y6.0100
G01 X23.0306 Y6.0100
G01 X23.0478 Y6.0205
G01 X23.0609 Y6.0300
G01 X23.6431 Y6.0300
G01 X23.6553 Y6.0308
G01 X23.6674 Y6.0330
G01 X23.6791 Y6.0367
G01 X23.6859 Y6.0396
G01 X23.6924 Y6.0430
G01 X23.7027 Y6.0497
G01 X23.7121 Y6.0576
G01 X23.7204 Y6.0666
G01 X23.7276 Y6.0765
G01 X23.7313 Y6.0829
G01 X23.7345 Y6.0895
G01 X23.7381 Y6.0986
G01 X23.7407 Y6.1081
G01 X23.7423 Y6.1178
G01 X23.7431 Y6.1275
G01 X23.7431 Y6.4100
G01 X23.7426 Y6.4198
G01 X23.7407 Y6.4319
G01 X23.7373 Y6.4437
G01 X23.7324 Y6.4550
G01 X23.7276 Y6.4635
G01 X23.7204 Y6.4734
G01 X23.7138 Y6.4807
G01 X23.7065 Y6.4873
G01 X23.6966 Y6.4945
G01 X23.6859 Y6.5004
G01 X23.6791 Y6.5033
G01 X23.6721 Y6.5057
G01 X23.6602 Y6.5085
G01 X23.6529 Y6.5095
G01 X23.6456 Y6.5100
G01 X23.0609 Y6.5100
G01 X23.0478 Y6.5195
G01 X23.0389 Y6.5250
G01 X23.0478 Y6.5305
G01 X23.0609 Y6.5400
G01 X23.6431 Y6.5400
G01 X23.6529 Y6.5405
G01 X23.6626 Y6.5419
G01 X23.6745 Y6.5450
G01 X23.6859 Y6.5496
G01 X23.6945 Y6.5542
G01 X23.7027 Y6.5597
G01 X23.7121 Y6.5676
G01 X23.7188 Y6.5747
G01 X23.7262 Y6.5844
G01 X23.7301 Y6.5907
G01 X23.7335 Y6.5972
G01 X23.7381 Y6.6086
G01 X23.7401 Y6.6157
G01 X23.7416 Y6.6229
G01 X23.7430 Y6.6351
G01 X23.7431 Y6.9200
G01 X23.7428 Y6.9274
G01 X23.7412 Y6.9395
G01 X23.7388 Y6.9490
G01 X23.7345 Y6.9605
G01 X23.7289 Y6.9714
G01 X23.7234 Y6.9796
G01 X23.7155 Y6.9890
G01 X23.7065 Y6.9973
G01 X23.6987 Y7.0031
G01 X23.6924 Y7.0070
G01 X23.6859 Y7.0104
G01 X23.6745 Y7.0150
G01 X23.6674 Y7.0170
G01 X23.6602 Y7.0185
G01 X23.6529 Y7.0195
G01 X23.6456 Y7.0200
G01 X23.0609 Y7.0200
G01 X23.0478 Y7.0295
G01 X23.0306 Y7.0400
G01 X23.6456 Y7.0400
G01 X23.6529 Y7.0405
G01 X23.6602 Y7.0415
G01 X23.6721 Y7.0443
G01 X23.6791 Y7.0467
G01 X23.6859 Y7.0496
G01 X23.6924 Y7.0530
G01 X23.6987 Y7.0569
G01 X23.7084 Y7.0643
G01 X23.7172 Y7.0728
G01 X23.7234 Y7.0804
G01 X23.7301 Y7.0907
G01 X23.7355 Y7.1017
G01 X23.7395 Y7.1133
G01 X23.7420 Y7.1253
G01 X23.7431 Y7.1375
G01 X23.7431 Y7.4200
G01 X23.7426 Y7.4298
G01 X23.7412 Y7.4395
G01 X23.7388 Y7.4490
G01 X23.7345 Y7.4605
G01 X23.7301 Y7.4693
G01 X23.7249 Y7.4776
G01 X23.7188 Y7.4853
G01 X23.7121 Y7.4924
G01 X23.7046 Y7.4988
G01 X23.6987 Y7.5031
G01 X23.6902 Y7.5082
G01 X23.6814 Y7.5124
G01 X23.6745 Y7.5150
G01 X23.6674 Y7.5170
G01 X23.6602 Y7.5185
G01 X23.6505 Y7.5197
G01 X23.6431 Y7.5200
G01 X22.1191 Y7.5200
G01 X22.1117 Y7.5197
G01 X22.1044 Y7.5189
G01 X22.0924 Y7.5164
G01 X22.0854 Y7.5142
G01 X22.0786 Y7.5114
G01 X22.0720 Y7.5082
G01 X22.0656 Y7.5045
G01 X22.0595 Y7.5003
G01 X22.0538 Y7.4957
G01 X22.0484 Y7.4907
G01 X22.0434 Y7.4853
G01 X22.0388 Y7.4796
G01 X22.0346 Y7.4735
G01 X22.0309 Y7.4671
G01 X22.0277 Y7.4605
G01 X22.0249 Y7.4537
G01 X22.0227 Y7.4467
G01 X22.0210 Y7.4395
G01 X22.0199 Y7.4322
G01 X22.0191 Y7.4200
G01 X22.0192 Y7.1351
G01 X22.0199 Y7.1278
G01 X22.0210 Y7.1205
G01 X22.0227 Y7.1133
G01 X22.0249 Y7.1063
G01 X22.0277 Y7.0995
G01 X22.0309 Y7.0929
G01 X22.0346 Y7.0865
G01 X22.0390 Y7.0801
G01 X21.6120 Y7.0801
G01 X21.5922 Y7.0848
G01 X21.5631 Y7.0889
G01 X21.5361 Y7.0901
G01 X21.5042 Y7.0884
G01 X21.4776 Y7.0843
G01 X21.4490 Y7.0772
G01 X21.4213 Y7.0673
G01 X21.3946 Y7.0547
G01 X21.3694 Y7.0395
G01 X21.3457 Y7.0220
G01 X21.3239 Y7.0022
G01 X21.3041 Y6.9804
G01 X21.2866 Y6.9567
G01 X21.2714 Y6.9315
G01 X21.2588 Y6.9048
G01 X21.2489 Y6.8771
G01 X21.2418 Y6.8485
G01 X21.2374 Y6.8194
G01 X21.2360 Y6.7900
G01 X21.2372 Y6.7630
G01 X21.2418 Y6.7315
G01 X21.2489 Y6.7029
G01 X21.2588 Y6.6752
G01 X21.2703 Y6.6507
G01 X21.2866 Y6.6233
G01 X21.3011 Y6.6035
G01 X21.3057 Y6.5977
G01 X21.3205 Y6.5814
G01 X21.3316 Y6.5701
G01 X19.9690 Y6.5701
G01 X19.9436 Y6.5763
G01 X19.9145 Y6.5807
G01 X19.8851 Y6.5821
G01 X19.8532 Y6.5804
G01 X19.8266 Y6.5763
G01 X19.8027 Y6.5705
G01 X19.7933 Y6.5676
G01 X19.7703 Y6.5593
G01 X19.7480 Y6.5489
G01 X19.7394 Y6.5442
G01 X19.7184 Y6.5315
G01 X19.6947 Y6.5140
G01 X19.6729 Y6.4942
G01 X19.6563 Y6.4761
G01 X19.6501 Y6.4685
G01 X19.6356 Y6.4487
G01 X19.6229 Y6.4277
G01 X19.6182 Y6.4191
G01 X19.6078 Y6.3968
G01 X19.5987 Y6.3715
G01 X19.5908 Y6.3405
G01 X19.5864 Y6.3114
G01 X19.5850 Y6.2820
G01 X19.5861 Y6.2575
G01 X19.5870 Y6.2477
G01 X19.5908 Y6.2235
G01 X19.5966 Y6.1996
G01 X19.5987 Y6.1925
G01 X19.6061 Y6.1717
G01 X19.6088 Y6.1649
G01 X19.6193 Y6.1427
G01 X19.6330 Y6.1194
G01 X19.6384 Y6.1113
G01 X19.6531 Y6.0916
G01 X19.6729 Y6.0698
G01 X19.6867 Y6.0561
G01 X19.7048 Y6.0396
G01 X19.7283 Y6.0219
G01 X19.7556 Y6.0053
G01 X19.7823 Y5.9927
G01 X19.8100 Y5.9828
G01 X19.8410 Y5.9752
G01 X19.8677 Y5.9713
G01 X19.8971 Y5.9699
G01 X22.0590 Y5.9699
G01 X22.0546 Y5.9635
G01 X22.0509 Y5.9571
G01 X22.0477 Y5.9505
G01 X22.0449 Y5.9437
G01 X22.0427 Y5.9367
G01 X22.0410 Y5.9295
G01 X22.0399 Y5.9222
G01 X22.0392 Y5.9149
G01 X22.0391 Y5.6300
G01 X22.0396 Y5.6202
G01 X22.0406 Y5.6129
G01 X22.0421 Y5.6057
G01 X22.0449 Y5.5963
G01 X22.0487 Y5.5872
G01 X22.0533 Y5.5786
G01 X22.0573 Y5.5724
G01 X22.0634 Y5.5647
G01 X22.0684 Y5.5593
G01 X22.0757 Y5.5527
G01 X22.0835 Y5.5469
G01 X22.0898 Y5.5430
G01 X22.0963 Y5.5396
G01 X22.1054 Y5.5358
G01 X22.1148 Y5.5330
G01 X22.1220 Y5.5315
G01 X22.1293 Y5.5305
G01 X22.1391 Y5.5300
G00 Z2.0000
G00 X22.1391 Y5.0300
G01 F60.00
G01 Z-0.0200
G01 F80.00
G01 X23.6631 Y5.0300
G01 X23.6753 Y5.0308
G01 X23.6874 Y5.0330
G01 X23.6945 Y5.0350
G01 X23.7014 Y5.0376
G01 X23.7081 Y5.0407
G01 X23.7145 Y5.0442
G01 X23.7246 Y5.0512
G01 X23.7303 Y5.0559
G01 X23.7355 Y5.0610
G01 X23.7404 Y5.0666
G01 X23.7449 Y5.0724
G01 X23.7489 Y5.0786
G01 X23.7524 Y5.0850
G01 X23.7555 Y5.0917
G01 X23.7581 Y5.0986
G01 X23.7601 Y5.1057
G01 X23.7616 Y5.1129
G01 X23.7628 Y5.1226
G01 X23.7631 Y5.1300
G01 X23.7631 Y5.4100
G01 X23.7623 Y5.4222
G01 X23.7601 Y5.4343
G01 X23.7573 Y5.4437
G01 X23.7545 Y5.4505
G01 X23.7513 Y5.4571
G01 X23.7476 Y5.4635
G01 X23.7434 Y5.4696
G01 X23.7388 Y5.4753
G01 X23.7321 Y5.4824
G01 X23.7265 Y5.4873
G01 X23.7207 Y5.4918
G01 X23.7145 Y5.4958
G01 X23.7059 Y5.5004
G01 X23.6991 Y5.5033
G01 X23.6898 Y5.5064
G01 X23.6826 Y5.5081
G01 X23.6753 Y5.5092
G01 X23.6680 Y5.5099
G01 X22.1391 Y5.5100
G01 X22.1269 Y5.5092
G01 X22.1148 Y5.5070
G01 X22.1077 Y5.5050
G01 X22.1008 Y5.5024
G01 X22.0941 Y5.4993
G01 X22.0877 Y5.4958
G01 X22.0815 Y5.4918
G01 X22.0757 Y5.4873
G01 X22.0667 Y5.4790
G01 X22.0618 Y5.4734
G01 X22.0573 Y5.4676
G01 X22.0533 Y5.4614
G01 X22.0498 Y5.4550
G01 X22.0467 Y5.4483
G01 X22.0441 Y5.4414
G01 X22.0410 Y5.4295
G01 X22.0396 Y5.4198
G01 X22.0391 Y5.4100
G01 X22.0392 Y5.1251
G01 X22.0402 Y5.1153
G01 X22.0421 Y5.1057
G01 X22.0441 Y5.0986
G01 X22.0477 Y5.0895
G01 X22.0521 Y5.0807
G01 X22.0573 Y5.0724
G01 X22.0634 Y5.0647
G01 X22.0701 Y5.0576
G01 X22.0776 Y5.0512
G01 X22.0856 Y5.0455
G01 X22.0941 Y5.0407
G01 X22.1031 Y5.0367
G01 X22.1124 Y5.0336
G01 X22.1220 Y5.0315
G01 X22.1293 Y5.0305
G01 X22.1391 Y5.0300
G00 Z2.0000
G00 X22.1391 Y4.5300
G01 F60.00
G01 Z-0.0200
G01 F80.00
G01 X23.6631 Y4.5300
G01 X23.6753 Y4.5308
G01 X23.6874 Y4.5330
G01 X23.6945 Y4.5350
G01 X23.7014 Y4.5376
G01 X23.7081 Y4.5407
G01 X23.7145 Y4.5442
G01 X23.7246 Y4.5512
G01 X23.7303 Y4.5559
G01 X23.7355 Y4.5610
G01 X23.7404 Y4.5666
G01 X23.7449 Y4.5724
G01 X23.7489 Y4.5786
G01 X23.7524 Y4.5850
G01 X23.7555 Y4.5917
G01 X23.7581 Y4.5986
G01 X23.7601 Y4.6057
G01 X23.7616 Y4.6129
G01 X23.7628 Y4.6226
G01 X23.7631 Y4.6300
G01 X23.7631 Y4.9100
G01 X23.7623 Y4.9222
G01 X23.7601 Y4.9343
G01 X23.7573 Y4.9437
G01 X23.7545 Y4.9505
G01 X23.7513 Y4.9571
G01 X23.7476 Y4.9635
G01 X23.7434 Y4.9696
G01 X23.7388 Y4.9753
G01 X23.7321 Y4.9824
G01 X23.7265 Y4.9873
G01 X23.7207 Y4.9918
G01 X23.7145 Y4.9958
G01 X23.7059 Y5.0004
G01 X23.6991 Y5.0033
G01 X23.6898 Y5.0064
G01 X23.6826 Y5.0081
G01 X23.6753 Y5.0092
G01 X23.6680 Y5.0099
G01 X22.1391 Y5.0100
G01 X22.1269 Y5.0092
G01 X22.1148 Y5.0070
G01 X22.1077 Y5.0050
G01 X22.1008 Y5.0024
G01 X22.0941 Y4.9993
G01 X22.0877 Y4.9958
G01 X22.0815 Y4.9918
G01 X22.0757 Y4.9873
G01 X22.0667 Y4.9790
G01 X22.0618 Y4.9734
G01 X22.0573 Y4.9676
G01 X22.0533 Y4.9614
G01 X22.0498 Y4.9550
G01 X22.0467 Y4.9483
G01 X22.0441 Y4.9414
G01 X22.0410 Y4.9295
G01 X22.0396 Y4.9198
G01 X22.0391 Y4.9100
G01 X22.0392 Y4.6251
G01 X22.0402 Y4.6153
G01 X22.0421 Y4.6057
G01 X22.0441 Y4.5986
G01 X22.0477 Y4.5895
G01 X22.0521 Y4.5807
G01 X22.0573 Y4.5724
G01 X22.0634 Y4.5647
G01 X22.0701 Y4.5576
G01 X22.0776 Y4.5512
G01 X22.0856 Y4.5455
G01 X22.0941 Y4.5407
G01 X22.1031 Y4.5367
G01 X22.1124 Y4.5336
G01 X22.1220 Y4.5315
G01 X22.1293 Y4.5305
G01 X22.1391 Y4.5300
G00 Z2.0000
G00 X22.1404 Y4.0256
G01 F60.00
G01 Z-0.0200
G01 F80.00
G01 X23.6644 Y4.0256
G01 X23.6766 Y4.0264
G01 X23.6887 Y4.0286
G01 X23.6958 Y4.0306
G01 X23.7027 Y4.0332
G01 X23.7094 Y4.0363
G01 X23.7158 Y4.0398
G01 X23.7220 Y4.0438
G01 X23.7278 Y4.0483
G01 X23.7334 Y4.0532
G01 X23.7385 Y4.0584
G01 X23.7432 Y4.0641
G01 X23.7475 Y4.0700
G01 X23.7514 Y4.0763
G01 X23.7548 Y4.0828
G01 X23.7594 Y4.0942
G01 X23.7614 Y4.1013
G01 X23.7629 Y4.1085
G01 X23.7641 Y4.1182
G01 X23.7644 Y4.1256
G01 X23.7644 Y4.4056
G01 X23.7636 Y4.4178
G01 X23.7614 Y4.4299
G01 X23.7594 Y4.4370
G01 X23.7558 Y4.4461
G01 X23.7526 Y4.4527
G01 X23.7489 Y4.4591
G01 X23.7447 Y4.4652
G01 X23.7401 Y4.4709
G01 X23.7334 Y4.4780
G01 X23.7278 Y4.4829
G01 X23.7220 Y4.4874
G01 X23.7158 Y4.4914
G01 X23.7094 Y4.4949
G01 X23.7004 Y4.4989
G01 X23.6934 Y4.5013
G01 X23.6839 Y4.5037
G01 X23.6766 Y4.5048
G01 X23.6693 Y4.5055
G01 X22.1404 Y4.5056
G01 X22.1282 Y4.5048
G01 X22.1161 Y4.5026
G01 X22.1090 Y4.5006
G01 X22.1021 Y4.4980
G01 X22.0954 Y4.4949
G01 X22.0890 Y4.4914
G01 X22.0828 Y4.4874
G01 X22.0770 Y4.4829
G01 X22.0680 Y4.4746
G01 X22.0631 Y4.4690
G01 X22.0586 Y4.4632
G01 X22.0522 Y4.4527
G01 X22.0490 Y4.4461
G01 X22.0462 Y4.4393
G01 X22.0440 Y4.4323
G01 X22.0423 Y4.4251
G01 X22.0409 Y4.4154
G01 X22.0404 Y4.4056
G01 X22.0405 Y4.1207
G01 X22.0415 Y4.1109
G01 X22.0434 Y4.1013
G01 X22.0462 Y4.0919
G01 X22.0500 Y4.0828
G01 X22.0546 Y4.0742
G01 X22.0586 Y4.0680
G01 X22.0647 Y4.0603
G01 X22.0714 Y4.0532
G01 X22.0789 Y4.0468
G01 X22.0869 Y4.0411
G01 X22.0954 Y4.0363
G01 X22.1044 Y4.0323
G01 X22.1137 Y4.0292
G01 X22.1233 Y4.0271
G01 X22.1330 Y4.0259
G01 X22.1404 Y4.0256
G00 Z2.0000
G00 X22.0380 Y3.9050
G01 F60.00
G01 Z-0.0200
G01 F80.00
G01 X22.0380 Y3.6250
G01 X22.0388 Y3.6128
G01 X22.0404 Y3.6031
G01 X22.0423 Y3.5960
G01 X22.0447 Y3.5890
G01 X22.0476 Y3.5822
G01 X22.0510 Y3.5757
G01 X22.0549 Y3.5694
G01 X22.0592 Y3.5635
G01 X22.0639 Y3.5578
G01 X22.0690 Y3.5526
G01 X22.0746 Y3.5477
G01 X22.0804 Y3.5432
G01 X22.0866 Y3.5392
G01 X22.0930 Y3.5357
G01 X22.0997 Y3.5326
G01 X22.1066 Y3.5300
G01 X22.1137 Y3.5280
G01 X22.1209 Y3.5265
G01 X22.1306 Y3.5253
G01 X22.1380 Y3.5250
G01 X23.6669 Y3.5251
G01 X23.6767 Y3.5261
G01 X23.6839 Y3.5274
G01 X23.6910 Y3.5293
G01 X23.7003 Y3.5326
G01 X23.7091 Y3.5368
G01 X23.7155 Y3.5405
G01 X23.7216 Y3.5447
G01 X23.7273 Y3.5493
G01 X23.7327 Y3.5543
G01 X23.7393 Y3.5616
G01 X23.7438 Y3.5674
G01 X23.7490 Y3.5757
G01 X23.7534 Y3.5845
G01 X23.7562 Y3.5913
G01 X23.7590 Y3.6007
G01 X23.7605 Y3.6079
G01 X23.7617 Y3.6176
G01 X23.7620 Y3.6250
G01 X23.7620 Y3.9050
G01 X23.7615 Y3.9148
G01 X23.7601 Y3.9245
G01 X23.7584 Y3.9317
G01 X23.7562 Y3.9387
G01 X23.7534 Y3.9455
G01 X23.7502 Y3.9521
G01 X23.7465 Y3.9585
G01 X23.7423 Y3.9646
G01 X23.7377 Y3.9703
G01 X23.7327 Y3.9757
G01 X23.7273 Y3.9807
G01 X23.7216 Y3.9853
G01 X23.7155 Y3.9895
G01 X23.7091 Y3.9932
G01 X23.7003 Y3.9974
G01 X23.6934 Y4.0000
G01 X23.6863 Y4.0020
G01 X23.6791 Y4.0035
G01 X23.6694 Y4.0047
G01 X23.6620 Y4.0050
G01 X22.1331 Y4.0049
G01 X22.1233 Y4.0039
G01 X22.1161 Y4.0026
G01 X22.1066 Y4.0000
G01 X22.0975 Y3.9964
G01 X22.0887 Y3.9920
G01 X22.0804 Y3.9868
G01 X22.0727 Y3.9807
G01 X22.0656 Y3.9740
G01 X22.0592 Y3.9665
G01 X22.0535 Y3.9585
G01 X22.0487 Y3.9500
G01 X22.0447 Y3.9410
G01 X22.0416 Y3.9317
G01 X22.0399 Y3.9245
G01 X22.0385 Y3.9148
G01 X22.0380 Y3.9050
G00 Z2.0000
G00 X22.1407 Y3.0376
G01 F60.00
G01 Z-0.0200
G01 F80.00
G01 X23.6647 Y3.0376
G01 X23.6769 Y3.0384
G01 X23.6890 Y3.0406
G01 X23.6961 Y3.0426
G01 X23.7030 Y3.0452
G01 X23.7097 Y3.0483
G01 X23.7161 Y3.0518
G01 X23.7223 Y3.0558
G01 X23.7281 Y3.0603
G01 X23.7337 Y3.0652
G01 X23.7388 Y3.0704
G01 X23.7435 Y3.0761
G01 X23.7478 Y3.0820
G01 X23.7517 Y3.0883
G01 X23.7551 Y3.0948
G01 X23.7597 Y3.1062
G01 X23.7617 Y3.1133
G01 X23.7632 Y3.1205
G01 X23.7644 Y3.1302
G01 X23.7647 Y3.1376
G01 X23.7647 Y3.4176
G01 X23.7639 Y3.4298
G01 X23.7617 Y3.4419
G01 X23.7597 Y3.4490
G01 X23.7561 Y3.4581
G01 X23.7529 Y3.4647
G01 X23.7492 Y3.4711
G01 X23.7450 Y3.4772
G01 X23.7404 Y3.4829
G01 X23.7337 Y3.4900
G01 X23.7281 Y3.4949
G01 X23.7223 Y3.4994
G01 X23.7161 Y3.5034
G01 X23.7097 Y3.5069
G01 X23.7007 Y3.5109
G01 X23.6914 Y3.5140
G01 X23.6842 Y3.5157
G01 X23.6769 Y3.5168
G01 X23.6696 Y3.5175
G01 X22.1407 Y3.5176
G01 X22.1285 Y3.5168
G01 X22.1164 Y3.5146
G01 X22.1093 Y3.5126
G01 X22.1024 Y3.5100
G01 X22.0957 Y3.5069
G01 X22.0893 Y3.5034
G01 X22.0831 Y3.4994
G01 X22.0773 Y3.4949
G01 X22.0683 Y3.4866
G01 X22.0634 Y3.4810
G01 X22.0589 Y3.4752
G01 X22.0549 Y3.4690
G01 X22.0514 Y3.4626
G01 X22.0483 Y3.4559
G01 X22.0457 Y3.4490
G01 X22.0426 Y3.4371
G01 X22.0412 Y3.4274
G01 X22.0407 Y3.4176
G01 X22.0408 Y3.1327
G01 X22.0418 Y3.1229
G01 X22.0437 Y3.1133
G01 X22.0457 Y3.1062
G01 X22.0493 Y3.0971
G01 X22.0537 Y3.0883
G01 X22.0589 Y3.0800
G01 X22.0650 Y3.0723
G01 X22.0717 Y3.0652
G01 X22.0792 Y3.0588
G01 X22.0872 Y3.0531
G01 X22.0957 Y3.0483
G01 X22.1047 Y3.0443
G01 X22.1117 Y3.0419
G01 X22.1212 Y3.0395
G01 X22.1309 Y3.0381
G01 X22.1407 Y3.0376
G00 Z2.0000
G00 X22.1061 Y2.5220
G01 F60.00
G01 Z-0.0200
G01 F80.00
G01 X23.6301 Y2.5220
G01 X23.6423 Y2.5228
G01 X23.6544 Y2.5250
G01 X23.6615 Y2.5270
G01 X23.6684 Y2.5296
G01 X23.6751 Y2.5327
G01 X23.6815 Y2.5362
G01 X23.6916 Y2.5432
G01 X23.6973 Y2.5479
G01 X23.7025 Y2.5530
G01 X23.7074 Y2.5586
G01 X23.7119 Y2.5644
G01 X23.7159 Y2.5706
G01 X23.7194 Y2.5770
G01 X23.7225 Y2.5837
G01 X23.7251 Y2.5906
G01 X23.7271 Y2.5977
G01 X23.7286 Y2.6049
G01 X23.7298 Y2.6146
G01 X23.7301 Y2.6220
G01 X23.7301 Y2.9020
G01 X23.7293 Y2.9142
G01 X23.7271 Y2.9263
G01 X23.7243 Y2.9357
G01 X23.7215 Y2.9425
G01 X23.7183 Y2.9491
G01 X23.7146 Y2.9555
G01 X23.7104 Y2.9616
G01 X23.7058 Y2.9673
G01 X23.6991 Y2.9744
G01 X23.6935 Y2.9793
G01 X23.6877 Y2.9838
G01 X23.6815 Y2.9878
G01 X23.6729 Y2.9924
G01 X23.6661 Y2.9953
G01 X23.6568 Y2.9984
G01 X23.6496 Y3.0001
G01 X23.6423 Y3.0012
G01 X23.6350 Y3.0019
G01 X22.1061 Y3.0020
G01 X22.0939 Y3.0012
G01 X22.0818 Y2.9990
G01 X22.0747 Y2.9970
G01 X22.0678 Y2.9944
G01 X22.0611 Y2.9913
G01 X22.0547 Y2.9878
G01 X22.0485 Y2.9838
G01 X22.0427 Y2.9793
G01 X22.0337 Y2.9710
G01 X22.0288 Y2.9654
G01 X22.0243 Y2.9596
G01 X22.0203 Y2.9534
G01 X22.0168 Y2.9470
G01 X22.0137 Y2.9403
G01 X22.0111 Y2.9334
G01 X22.0080 Y2.9215
G01 X22.0066 Y2.9118
G01 X22.0061 Y2.9020
G01 X22.0062 Y2.6171
G01 X22.0072 Y2.6073
G01 X22.0091 Y2.5977
G01 X22.0111 Y2.5906
G01 X22.0147 Y2.5815
G01 X22.0191 Y2.5727
G01 X22.0243 Y2.5644
G01 X22.0304 Y2.5567
G01 X22.0371 Y2.5496
G01 X22.0446 Y2.5432
G01 X22.0526 Y2.5375
G01 X22.0611 Y2.5327
G01 X22.0701 Y2.5287
G01 X22.0771 Y2.5263
G01 X22.0866 Y2.5239
G01 X22.0963 Y2.5225
G01 X22.1061 Y2.5220
G00 Z2.0000
G00 X24.3611 Y0.4080
G01 F60.00
G01 Z-0.0200
G01 F80.00
G01 X24.6411 Y0.4080
G01 X24.6533 Y0.4088
G01 X24.6630 Y0.4104
G01 X24.6701 Y0.4123
G01 X24.6771 Y0.4147
G01 X24.6839 Y0.4176
G01 X24.6904 Y0.4210
G01 X24.6967 Y0.4249
G01 X24.7026 Y0.4292
G01 X24.7083 Y0.4339
G01 X24.7135 Y0.4390
G01 X24.7184 Y0.4446
G01 X24.7229 Y0.4504
G01 X24.7269 Y0.4566
G01 X24.7304 Y0.4630
G01 X24.7335 Y0.4697
G01 X24.7361 Y0.4766
G01 X24.7381 Y0.4837
G01 X24.7396 Y0.4909
G01 X24.7406 Y0.4982
G01 X24.7411 Y0.5080
G01 X24.7410 Y2.0369
G01 X24.7400 Y2.0467
G01 X24.7387 Y2.0539
G01 X24.7368 Y2.0610
G01 X24.7335 Y2.0703
G01 X24.7304 Y2.0770
G01 X24.7269 Y2.0834
G01 X24.7214 Y2.0916
G01 X24.7168 Y2.0973
G01 X24.7118 Y2.1027
G01 X24.7045 Y2.1093
G01 X24.6987 Y2.1138
G01 X24.6904 Y2.1190
G01 X24.6839 Y2.1224
G01 X24.6748 Y2.1262
G01 X24.6654 Y2.1290
G01 X24.6582 Y2.1305
G01 X24.6485 Y2.1317
G01 X24.6411 Y2.1320
G01 X24.3611 Y2.1320
G01 X24.3513 Y2.1315
G01 X24.3416 Y2.1301
G01 X24.3321 Y2.1277
G01 X24.3251 Y2.1253
G01 X24.3183 Y2.1224
G01 X24.3118 Y2.1190
G01 X24.3055 Y2.1151
G01 X24.2996 Y2.1108
G01 X24.2939 Y2.1061
G01 X24.2887 Y2.1010
G01 X24.2838 Y2.0954
G01 X24.2793 Y2.0896
G01 X24.2753 Y2.0834
G01 X24.2718 Y2.0770
G01 X24.2687 Y2.0703
G01 X24.2661 Y2.0634
G01 X24.2641 Y2.0563
G01 X24.2626 Y2.0491
G01 X24.2616 Y2.0418
G01 X24.2611 Y2.0320
G01 X24.2612 Y0.5031
G01 X24.2619 Y0.4958
G01 X24.2635 Y0.4861
G01 X24.2661 Y0.4766
G01 X24.2697 Y0.4675
G01 X24.2741 Y0.4587
G01 X24.2793 Y0.4504
G01 X24.2854 Y0.4427
G01 X24.2921 Y0.4356
G01 X24.2996 Y0.4292
G01 X24.3076 Y0.4235
G01 X24.3161 Y0.4187
G01 X24.3228 Y0.4156
G01 X24.3321 Y0.4123
G01 X24.3416 Y0.4099
G01 X24.3513 Y0.4085
G01 X24.3611 Y0.4080
G00 Z2.0000
G00 X24.8611 Y0.4080
G01 F60.00
G01 Z-0.0200
G01 F80.00
G01 X25.1411 Y0.4080
G01 X25.1533 Y0.4088
G01 X25.1630 Y0.4104
G01 X25.1701 Y0.4123
G01 X25.1771 Y0.4147
G01 X25.1839 Y0.4176
G01 X25.1904 Y0.4210
G01 X25.1967 Y0.4249
G01 X25.2026 Y0.4292
G01 X25.2083 Y0.4339
G01 X25.2135 Y0.4390
G01 X25.2184 Y0.4446
G01 X25.2229 Y0.4504
G01 X25.2269 Y0.4566
G01 X25.2304 Y0.4630
G01 X25.2335 Y0.4697
G01 X25.2361 Y0.4766
G01 X25.2381 Y0.4837
G01 X25.2396 Y0.4909
G01 X25.2406 Y0.4982
G01 X25.2411 Y0.5080
G01 X25.2410 Y2.0369
G01 X25.2400 Y2.0467
G01 X25.2387 Y2.0539
G01 X25.2368 Y2.0610
G01 X25.2335 Y2.0703
G01 X25.2304 Y2.0770
G01 X25.2269 Y2.0834
G01 X25.2214 Y2.0916
G01 X25.2168 Y2.0973
G01 X25.2118 Y2.1027
G01 X25.2045 Y2.1093
G01 X25.1987 Y2.1138
G01 X25.1904 Y2.1190
G01 X25.1839 Y2.1224
G01 X25.1748 Y2.1262
G01 X25.1654 Y2.1290
G01 X25.1582 Y2.1305
G01 X25.1485 Y2.1317
G01 X25.1411 Y2.1320
G01 X24.8611 Y2.1320
G01 X24.8513 Y2.1315
G01 X24.8416 Y2.1301
G01 X24.8321 Y2.1277
G01 X24.8251 Y2.1253
G01 X24.8183 Y2.1224
G01 X24.8118 Y2.1190
G01 X24.8055 Y2.1151
G01 X24.7996 Y2.1108
G01 X24.7939 Y2.1061
G01 X24.7887 Y2.1010
G01 X24.7838 Y2.0954
G01 X24.7793 Y2.0896
G01 X24.7753 Y2.0834
G01 X24.7718 Y2.0770
G01 X24.7687 Y2.0703
G01 X24.7661 Y2.0634
G01 X24.7641 Y2.0563
G01 X24.7626 Y2.0491
G01 X24.7616 Y2.0418
G01 X24.7611 Y2.0320
G01 X24.7612 Y0.5031
G01 X24.7619 Y0.4958
G01 X24.7635 Y0.4861
G01 X24.7661 Y0.4766
G01 X24.7697 Y0.4675
G01 X24.7741 Y0.4587
G01 X24.7793 Y0.4504
G01 X24.7854 Y0.4427
G01 X24.7921 Y0.4356
G01 X24.7996 Y0.4292
G01 X24.8076 Y0.4235
G01 X24.8161 Y0.4187
G01 X24.8228 Y0.4156
G01 X24.8321 Y0.4123
G01 X24.8416 Y0.4099
G01 X24.8513 Y0.4085
G01 X24.8611 Y0.4080
G00 Z2.0000
G00 X25.3611 Y0.4080
G01 F60.00
G01 Z-0.0200
G01 F80.00
G01 X25.6411 Y0.4080
G01 X25.6533 Y0.4088
G01 X25.6630 Y0.4104
G01 X25.6701 Y0.4123
G01 X25.6771 Y0.4147
G01 X25.6839 Y0.4176
G01 X25.6904 Y0.4210
G01 X25.6967 Y0.4249
G01 X25.7026 Y0.4292
G01 X25.7083 Y0.4339
G01 X25.7135 Y0.4390
G01 X25.7184 Y0.4446
G01 X25.7229 Y0.4504
G01 X25.7269 Y0.4566
G01 X25.7304 Y0.4630
G01 X25.7335 Y0.4697
G01 X25.7361 Y0.4766
G01 X25.7381 Y0.4837
G01 X25.7396 Y0.4909
G01 X25.7406 Y0.4982
G01 X25.7411 Y0.5080
G01 X25.7410 Y2.0369
G01 X25.7400 Y2.0467
G01 X25.7387 Y2.0539
G01 X25.7368 Y2.0610
G01 X25.7335 Y2.0703
G01 X25.7304 Y2.0770
G01 X25.7269 Y2.0834
G01 X25.7214 Y2.0916
G01 X25.7168 Y2.0973
G01 X25.7118 Y2.1027
G01 X25.7045 Y2.1093
G01 X25.6987 Y2.1138
G01 X25.6904 Y2.1190
G01 X25.6839 Y2.1224
G01 X25.6748 Y2.1262
G01 X25.6654 Y2.1290
G01 X25.6582 Y2.1305
G01 X25.6485 Y2.1317
G01 X25.6411 Y2.1320
G01 X25.3611 Y2.1320
G01 X25.3513 Y2.1315
G01 X25.3416 Y2.1301
G01 X25.3321 Y2.1277
G01 X25.3251 Y2.1253
G01 X25.3183 Y2.1224
G01 X25.3118 Y2.1190
G01 X25.3055 Y2.1151
G01 X25.2996 Y2.1108
G01 X25.2939 Y2.1061
G01 X25.2887 Y2.1010
G01 X25.2838 Y2.0954
G01 X25.2793 Y2.0896
G01 X25.2753 Y2.0834
G01 X25.2718 Y2.0770
G01 X25.2687 Y2.0703
G01 X25.2661 Y2.0634
G01 X25.2641 Y2.0563
G01 X25.2626 Y2.0491
G01 X25.2616 Y2.0418
G01 X25.2611 Y2.0320
G01 X25.2612 Y0.5031
G01 X25.2619 Y0.4958
G01 X25.2635 Y0.4861
G01 X25.2661 Y0.4766
G01 X25.2697 Y0.4675
G01 X25.2741 Y0.4587
G01 X25.2793 Y0.4504
G01 X25.2854 Y0.4427
G01 X25.2921 Y0.4356
G01 X25.2996 Y0.4292
G01 X25.3076 Y0.4235
G01 X25.3161 Y0.4187
G01 X25.3228 Y0.4156
G01 X25.3321 Y0.4123
G01 X25.3416 Y0.4099
G01 X25.3513 Y0.4085
G01 X25.3611 Y0.4080
G00 Z2.0000
G00 X25.8611 Y0.4080
G01 F60.00
G01 Z-0.0200
G01 F80.00
G01 X26.1411 Y0.4080
G01 X26.1533 Y0.4088
G01 X26.1630 Y0.4104
G01 X26.1701 Y0.4123
G01 X26.1771 Y0.4147
G01 X26.1839 Y0.4176
G01 X26.1904 Y0.4210
G01 X26.1967 Y0.4249
G01 X26.2026 Y0.4292
G01 X26.2083 Y0.4339
G01 X26.2135 Y0.4390
G01 X26.2184 Y0.4446
G01 X26.2229 Y0.4504
G01 X26.2269 Y0.4566
G01 X26.2304 Y0.4630
G01 X26.2335 Y0.4697
G01 X26.2361 Y0.4766
G01 X26.2381 Y0.4837
G01 X26.2396 Y0.4909
G01 X26.2406 Y0.4982
G01 X26.2411 Y0.5080
G01 X26.2410 Y2.0369
G01 X26.2400 Y2.0467
G01 X26.2387 Y2.0539
G01 X26.2368 Y2.0610
G01 X26.2335 Y2.0703
G01 X26.2304 Y2.0770
G01 X26.2269 Y2.0834
G01 X26.2214 Y2.0916
G01 X26.2168 Y2.0973
G01 X26.2118 Y2.1027
G01 X26.2045 Y2.1093
G01 X26.1987 Y2.1138
G01 X26.1904 Y2.1190
G01 X26.1839 Y2.1224
G01 X26.1748 Y2.1262
G01 X26.1654 Y2.1290
G01 X26.1582 Y2.1305
G01 X26.1485 Y2.1317
G01 X26.1411 Y2.1320
G01 X25.8611 Y2.1320
G01 X25.8513 Y2.1315
G01 X25.8416 Y2.1301
G01 X25.8321 Y2.1277
G01 X25.8251 Y2.1253
G01 X25.8183 Y2.1224
G01 X25.8118 Y2.1190
G01 X25.8055 Y2.1151
G01 X25.7996 Y2.1108
G01 X25.7939 Y2.1061
G01 X25.7887 Y2.1010
G01 X25.7838 Y2.0954
G01 X25.7793 Y2.0896
G01 X25.7753 Y2.0834
G01 X25.7718 Y2.0770
G01 X25.7687 Y2.0703
G01 X25.7661 Y2.0634
G01 X25.7641 Y2.0563
G01 X25.7626 Y2.0491
G01 X25.7616 Y2.0418
G01 X25.7611 Y2.0320
G01 X25.7612 Y0.5031
G01 X25.7619 Y0.4958
G01 X25.7635 Y0.4861
G01 X25.7661 Y0.4766
G01 X25.7697 Y0.4675
G01 X25.7741 Y0.4587
G01 X25.7793 Y0.4504
G01 X25.7854 Y0.4427
G01 X25.7921 Y0.4356
G01 X25.7996 Y0.4292
G01 X25.8076 Y0.4235
G01 X25.8161 Y0.4187
G01 X25.8228 Y0.4156
G01 X25.8321 Y0.4123
G01 X25.8416 Y0.4099
G01 X25.8513 Y0.4085
G01 X25.8611 Y0.4080
G00 Z2.0000
G00 X26.3611 Y0.4080
G01 F60.00
G01 Z-0.0200
G01 F80.00
G01 X26.6411 Y0.4080
G01 X26.6533 Y0.4088
G01 X26.6630 Y0.4104
G01 X26.6701 Y0.4123
G01 X26.6771 Y0.4147
G01 X26.6839 Y0.4176
G01 X26.6904 Y0.4210
G01 X26.6967 Y0.4249
G01 X26.7026 Y0.4292
G01 X26.7083 Y0.4339
G01 X26.7135 Y0.4390
G01 X26.7184 Y0.4446
G01 X26.7229 Y0.4504
G01 X26.7269 Y0.4566
G01 X26.7304 Y0.4630
G01 X26.7335 Y0.4697
G01 X26.7361 Y0.4766
G01 X26.7381 Y0.4837
G01 X26.7396 Y0.4909
G01 X26.7406 Y0.4982
G01 X26.7411 Y0.5080
G01 X26.7410 Y2.0369
G01 X26.7400 Y2.0467
G01 X26.7387 Y2.0539
G01 X26.7368 Y2.0610
G01 X26.7335 Y2.0703
G01 X26.7304 Y2.0770
G01 X26.7269 Y2.0834
G01 X26.7214 Y2.0916
G01 X26.7168 Y2.0973
G01 X26.7118 Y2.1027
G01 X26.7045 Y2.1093
G01 X26.6987 Y2.1138
G01 X26.6904 Y2.1190
G01 X26.6839 Y2.1224
G01 X26.6748 Y2.1262
G01 X26.6654 Y2.1290
G01 X26.6582 Y2.1305
G01 X26.6485 Y2.1317
G01 X26.6411 Y2.1320
G01 X26.3611 Y2.1320
G01 X26.3513 Y2.1315
G01 X26.3416 Y2.1301
G01 X26.3321 Y2.1277
G01 X26.3251 Y2.1253
G01 X26.3183 Y2.1224
G01 X26.3118 Y2.1190
G01 X26.3055 Y2.1151
G01 X26.2996 Y2.1108
G01 X26.2939 Y2.1061
G01 X26.2887 Y2.1010
G01 X26.2838 Y2.0954
G01 X26.2793 Y2.0896
G01 X26.2753 Y2.0834
G01 X26.2718 Y2.0770
G01 X26.2687 Y2.0703
G01 X26.2661 Y2.0634
G01 X26.2641 Y2.0563
G01 X26.2626 Y2.0491
G01 X26.2616 Y2.0418
G01 X26.2611 Y2.0320
G01 X26.2612 Y0.5031
G01 X26.2619 Y0.4958
G01 X26.2635 Y0.4861
G01 X26.2661 Y0.4766
G01 X26.2697 Y0.4675
G01 X26.2741 Y0.4587
G01 X26.2793 Y0.4504
G01 X26.2854 Y0.4427
G01 X26.2921 Y0.4356
G01 X26.2996 Y0.4292
G01 X26.3076 Y0.4235
G01 X26.3161 Y0.4187
G01 X26.3228 Y0.4156
G01 X26.3321 Y0.4123
G01 X26.3416 Y0.4099
G01 X26.3513 Y0.4085
G01 X26.3611 Y0.4080
G00 Z2.0000
G00 X26.8611 Y0.4080
G01 F60.00
G01 Z-0.0200
G01 F80.00
G01 X27.1411 Y0.4080
G01 X27.1533 Y0.4088
G01 X27.1630 Y0.4104
G01 X27.1701 Y0.4123
G01 X27.1771 Y0.4147
G01 X27.1839 Y0.4176
G01 X27.1904 Y0.4210
G01 X27.1967 Y0.4249
G01 X27.2026 Y0.4292
G01 X27.2083 Y0.4339
G01 X27.2135 Y0.4390
G01 X27.2184 Y0.4446
G01 X27.2229 Y0.4504
G01 X27.2269 Y0.4566
G01 X27.2304 Y0.4630
G01 X27.2335 Y0.4697
G01 X27.2361 Y0.4766
G01 X27.2381 Y0.4837
G01 X27.2396 Y0.4909
G01 X27.2406 Y0.4982
G01 X27.2411 Y0.5080
G01 X27.2410 Y2.0369
G01 X27.2400 Y2.0467
G01 X27.2387 Y2.0539
G01 X27.2368 Y2.0610
G01 X27.2335 Y2.0703
G01 X27.2304 Y2.0770
G01 X27.2269 Y2.0834
G01 X27.2214 Y2.0916
G01 X27.2168 Y2.0973
G01 X27.2118 Y2.1027
G01 X27.2045 Y2.1093
G01 X27.1987 Y2.1138
G01 X27.1904 Y2.1190
G01 X27.1839 Y2.1224
G01 X27.1748 Y2.1262
G01 X27.1654 Y2.1290
G01 X27.1582 Y2.1305
G01 X27.1485 Y2.1317
G01 X27.1411 Y2.1320
G01 X26.8611 Y2.1320
G01 X26.8513 Y2.1315
G01 X26.8416 Y2.1301
G01 X26.8321 Y2.1277
G01 X26.8251 Y2.1253
G01 X26.8183 Y2.1224
G01 X26.8118 Y2.1190
G01 X26.8055 Y2.1151
G01 X26.7996 Y2.1108
G01 X26.7939 Y2.1061
G01 X26.7887 Y2.1010
G01 X26.7838 Y2.0954
G01 X26.7793 Y2.0896
G01 X26.7753 Y2.0834
G01 X26.7718 Y2.0770
G01 X26.7687 Y2.0703
G01 X26.7661 Y2.0634
G01 X26.7641 Y2.0563
G01 X26.7626 Y2.0491
G01 X26.7616 Y2.0418
G01 X26.7611 Y2.0320
G01 X26.7612 Y0.5031
G01 X26.7619 Y0.4958
G01 X26.7635 Y0.4861
G01 X26.7661 Y0.4766
G01 X26.7697 Y0.4675
G01 X26.7741 Y0.4587
G01 X26.7793 Y0.4504
G01 X26.7854 Y0.4427
G01 X26.7921 Y0.4356
G01 X26.7996 Y0.4292
G01 X26.8076 Y0.4235
G01 X26.8161 Y0.4187
G01 X26.8228 Y0.4156
G01 X26.8321 Y0.4123
G01 X26.8416 Y0.4099
G01 X26.8513 Y0.4085
G01 X26.8611 Y0.4080
G00 Z2.0000
G00 X27.3611 Y0.4080
G01 F60.00
G01 Z-0.0200
G01 F80.00
G01 X27.6411 Y0.4080
G01 X27.6533 Y0.4088
G01 X27.6630 Y0.4104
G01 X27.6701 Y0.4123
G01 X27.6771 Y0.4147
G01 X27.6839 Y0.4176
G01 X27.6904 Y0.4210
G01 X27.6967 Y0.4249
G01 X27.7026 Y0.4292
G01 X27.7083 Y0.4339
G01 X27.7135 Y0.4390
G01 X27.7184 Y0.4446
G01 X27.7229 Y0.4504
G01 X27.7269 Y0.4566
G01 X27.7304 Y0.4630
G01 X27.7335 Y0.4697
G01 X27.7361 Y0.4766
G01 X27.7381 Y0.4837
G01 X27.7396 Y0.4909
G01 X27.7406 Y0.4982
G01 X27.7411 Y0.5080
G01 X27.7410 Y2.0369
G01 X27.7400 Y2.0467
G01 X27.7387 Y2.0539
G01 X27.7368 Y2.0610
G01 X27.7335 Y2.0703
G01 X27.7304 Y2.0770
G01 X27.7269 Y2.0834
G01 X27.7214 Y2.0916
G01 X27.7168 Y2.0973
G01 X27.7118 Y2.1027
G01 X27.7045 Y2.1093
G01 X27.6987 Y2.1138
G01 X27.6904 Y2.1190
G01 X27.6839 Y2.1224
G01 X27.6748 Y2.1262
G01 X27.6654 Y2.1290
G01 X27.6582 Y2.1305
G01 X27.6485 Y2.1317
G01 X27.6411 Y2.1320
G01 X27.3611 Y2.1320
G01 X27.3513 Y2.1315
G01 X27.3416 Y2.1301
G01 X27.3321 Y2.1277
G01 X27.3251 Y2.1253
G01 X27.3183 Y2.1224
G01 X27.3118 Y2.1190
G01 X27.3055 Y2.1151
G01 X27.2996 Y2.1108
G01 X27.2939 Y2.1061
G01 X27.2887 Y2.1010
G01 X27.2838 Y2.0954
G01 X27.2793 Y2.0896
G01 X27.2753 Y2.0834
G01 X27.2718 Y2.0770
G01 X27.2687 Y2.0703
G01 X27.2661 Y2.0634
G01 X27.2641 Y2.0563
G01 X27.2626 Y2.0491
G01 X27.2616 Y2.0418
G01 X27.2611 Y2.0320
G01 X27.2612 Y0.5031
G01 X27.2619 Y0.4958
G01 X27.2635 Y0.4861
G01 X27.2661 Y0.4766
G01 X27.2697 Y0.4675
G01 X27.2741 Y0.4587
G01 X27.2793 Y0.4504
G01 X27.2854 Y0.4427
G01 X27.2921 Y0.4356
G01 X27.2996 Y0.4292
G01 X27.3076 Y0.4235
G01 X27.3161 Y0.4187
G01 X27.3228 Y0.4156
G01 X27.3321 Y0.4123
G01 X27.3416 Y0.4099
G01 X27.3513 Y0.4085
G01 X27.3611 Y0.4080
G00 Z2.0000
G00 X27.8611 Y0.4080
G01 F60.00
G01 Z-0.0200
G01 F80.00
G01 X28.1411 Y0.4080
G01 X28.1533 Y0.4088
G01 X28.1630 Y0.4104
G01 X28.1701 Y0.4123
G01 X28.1771 Y0.4147
G01 X28.1839 Y0.4176
G01 X28.1904 Y0.4210
G01 X28.1967 Y0.4249
G01 X28.2026 Y0.4292
G01 X28.2083 Y0.4339
G01 X28.2135 Y0.4390
G01 X28.2184 Y0.4446
G01 X28.2229 Y0.4504
G01 X28.2269 Y0.4566
G01 X28.2304 Y0.4630
G01 X28.2335 Y0.4697
G01 X28.2361 Y0.4766
G01 X28.2381 Y0.4837
G01 X28.2396 Y0.4909
G01 X28.2406 Y0.4982
G01 X28.2411 Y0.5080
G01 X28.2410 Y2.0369
G01 X28.2400 Y2.0467
G01 X28.2387 Y2.0539
G01 X28.2368 Y2.0610
G01 X28.2335 Y2.0703
G01 X28.2304 Y2.0770
G01 X28.2269 Y2.0834
G01 X28.2214 Y2.0916
G01 X28.2168 Y2.0973
G01 X28.2118 Y2.1027
G01 X28.2045 Y2.1093
G01 X28.1987 Y2.1138
G01 X28.1904 Y2.1190
G01 X28.1839 Y2.1224
G01 X28.1748 Y2.1262
G01 X28.1654 Y2.1290
G01 X28.1582 Y2.1305
G01 X28.1485 Y2.1317
G01 X28.1411 Y2.1320
G01 X27.8611 Y2.1320
G01 X27.8513 Y2.1315
G01 X27.8416 Y2.1301
G01 X27.8321 Y2.1277
G01 X27.8251 Y2.1253
G01 X27.8183 Y2.1224
G01 X27.8118 Y2.1190
G01 X27.8055 Y2.1151
G01 X27.7996 Y2.1108
G01 X27.7939 Y2.1061
G01 X27.7887 Y2.1010
G01 X27.7838 Y2.0954
G01 X27.7793 Y2.0896
G01 X27.7753 Y2.0834
G01 X27.7718 Y2.0770
G01 X27.7687 Y2.0703
G01 X27.7661 Y2.0634
G01 X27.7641 Y2.0563
G01 X27.7626 Y2.0491
G01 X27.7616 Y2.0418
G01 X27.7611 Y2.0320
G01 X27.7612 Y0.5031
G01 X27.7619 Y0.4958
G01 X27.7635 Y0.4861
G01 X27.7661 Y0.4766
G01 X27.7697 Y0.4675
G01 X27.7741 Y0.4587
G01 X27.7793 Y0.4504
G01 X27.7854 Y0.4427
G01 X27.7921 Y0.4356
G01 X27.7996 Y0.4292
G01 X27.8076 Y0.4235
G01 X27.8161 Y0.4187
G01 X27.8228 Y0.4156
G01 X27.8321 Y0.4123
G01 X27.8416 Y0.4099
G01 X27.8513 Y0.4085
G01 X27.8611 Y0.4080
G00 Z2.0000
G00 X28.3611 Y0.4080
G01 F60.00
G01 Z-0.0200
G01 F80.00
G01 X28.6411 Y0.4080
G01 X28.6533 Y0.4088
G01 X28.6630 Y0.4104
G01 X28.6701 Y0.4123
G01 X28.6771 Y0.4147
G01 X28.6839 Y0.4176
G01 X28.6904 Y0.4210
G01 X28.6967 Y0.4249
G01 X28.7026 Y0.4292
G01 X28.7083 Y0.4339
G01 X28.7135 Y0.4390
G01 X28.7184 Y0.4446
G01 X28.7229 Y0.4504
G01 X28.7269 Y0.4566
G01 X28.7304 Y0.4630
G01 X28.7335 Y0.4697
G01 X28.7361 Y0.4766
G01 X28.7381 Y0.4837
G01 X28.7396 Y0.4909
G01 X28.7406 Y0.4982
G01 X28.7411 Y0.5080
G01 X28.7410 Y2.0369
G01 X28.7400 Y2.0467
G01 X28.7387 Y2.0539
G01 X28.7368 Y2.0610
G01 X28.7335 Y2.0703
G01 X28.7304 Y2.0770
G01 X28.7269 Y2.0834
G01 X28.7214 Y2.0916
G01 X28.7168 Y2.0973
G01 X28.7118 Y2.1027
G01 X28.7045 Y2.1093
G01 X28.6987 Y2.1138
G01 X28.6904 Y2.1190
G01 X28.6839 Y2.1224
G01 X28.6748 Y2.1262
G01 X28.6654 Y2.1290
G01 X28.6582 Y2.1305
G01 X28.6485 Y2.1317
G01 X28.6411 Y2.1320
G01 X28.3611 Y2.1320
G01 X28.3513 Y2.1315
G01 X28.3416 Y2.1301
G01 X28.3321 Y2.1277
G01 X28.3251 Y2.1253
G01 X28.3183 Y2.1224
G01 X28.3118 Y2.1190
G01 X28.3055 Y2.1151
G01 X28.2996 Y2.1108
G01 X28.2939 Y2.1061
G01 X28.2887 Y2.1010
G01 X28.2838 Y2.0954
G01 X28.2793 Y2.0896
G01 X28.2753 Y2.0834
G01 X28.2718 Y2.0770
G01 X28.2687 Y2.0703
G01 X28.2661 Y2.0634
G01 X28.2641 Y2.0563
G01 X28.2626 Y2.0491
G01 X28.2616 Y2.0418
G01 X28.2611 Y2.0320
G01 X28.2612 Y0.5031
G01 X28.2619 Y0.4958
G01 X28.2635 Y0.4861
G01 X28.2661 Y0.4766
G01 X28.2697 Y0.4675
G01 X28.2741 Y0.4587
G01 X28.2793 Y0.4504
G01 X28.2854 Y0.4427
G01 X28.2921 Y0.4356
G01 X28.2996 Y0.4292
G01 X28.3076 Y0.4235
G01 X28.3161 Y0.4187
G01 X28.3228 Y0.4156
G01 X28.3321 Y0.4123
G01 X28.3416 Y0.4099
G01 X28.3513 Y0.4085
G01 X28.3611 Y0.4080
G00 Z2.0000
G00 X28.8611 Y0.4080
G01 F60.00
G01 Z-0.0200
G01 F80.00
G01 X29.1411 Y0.4080
G01 X29.1533 Y0.4088
G01 X29.1630 Y0.4104
G01 X29.1701 Y0.4123
G01 X29.1771 Y0.4147
G01 X29.1839 Y0.4176
G01 X29.1904 Y0.4210
G01 X29.1967 Y0.4249
G01 X29.2026 Y0.4292
G01 X29.2083 Y0.4339
G01 X29.2135 Y0.4390
G01 X29.2184 Y0.4446
G01 X29.2229 Y0.4504
G01 X29.2269 Y0.4566
G01 X29.2304 Y0.4630
G01 X29.2335 Y0.4697
G01 X29.2361 Y0.4766
G01 X29.2381 Y0.4837
G01 X29.2396 Y0.4909
G01 X29.2406 Y0.4982
G01 X29.2411 Y0.5080
G01 X29.2410 Y2.0369
G01 X29.2400 Y2.0467
G01 X29.2387 Y2.0539
G01 X29.2368 Y2.0610
G01 X29.2335 Y2.0703
G01 X29.2304 Y2.0770
G01 X29.2269 Y2.0834
G01 X29.2214 Y2.0916
G01 X29.2168 Y2.0973
G01 X29.2118 Y2.1027
G01 X29.2045 Y2.1093
G01 X29.1987 Y2.1138
G01 X29.1904 Y2.1190
G01 X29.1839 Y2.1224
G01 X29.1748 Y2.1262
G01 X29.1654 Y2.1290
G01 X29.1582 Y2.1305
G01 X29.1485 Y2.1317
G01 X29.1411 Y2.1320
G01 X28.8611 Y2.1320
G01 X28.8513 Y2.1315
G01 X28.8416 Y2.1301
G01 X28.8321 Y2.1277
G01 X28.8251 Y2.1253
G01 X28.8183 Y2.1224
G01 X28.8118 Y2.1190
G01 X28.8055 Y2.1151
G01 X28.7996 Y2.1108
G01 X28.7939 Y2.1061
G01 X28.7887 Y2.1010
G01 X28.7838 Y2.0954
G01 X28.7793 Y2.0896
G01 X28.7753 Y2.0834
G01 X28.7718 Y2.0770
G01 X28.7687 Y2.0703
G01 X28.7661 Y2.0634
G01 X28.7641 Y2.0563
G01 X28.7626 Y2.0491
G01 X28.7616 Y2.0418
G01 X28.7611 Y2.0320
G01 X28.7612 Y0.5031
G01 X28.7619 Y0.4958
G01 X28.7635 Y0.4861
G01 X28.7661 Y0.4766
G01 X28.7697 Y0.4675
G01 X28.7741 Y0.4587
G01 X28.7793 Y0.4504
G01 X28.7854 Y0.4427
G01 X28.7921 Y0.4356
G01 X28.7996 Y0.4292
G01 X28.8076 Y0.4235
G01 X28.8161 Y0.4187
G01 X28.8228 Y0.4156
G01 X28.8321 Y0.4123
G01 X28.8416 Y0.4099
G01 X28.8513 Y0.4085
G01 X28.8611 Y0.4080
G00 Z2.0000
G00 X29.3611 Y0.4080
G01 F60.00
G01 Z-0.0200
G01 F80.00
G01 X29.6411 Y0.4080
G01 X29.6533 Y0.4088
G01 X29.6630 Y0.4104
G01 X29.6701 Y0.4123
G01 X29.6771 Y0.4147
G01 X29.6839 Y0.4176
G01 X29.6904 Y0.4210
G01 X29.6967 Y0.4249
G01 X29.7026 Y0.4292
G01 X29.7083 Y0.4339
G01 X29.7135 Y0.4390
G01 X29.7184 Y0.4446
G01 X29.7229 Y0.4504
G01 X29.7269 Y0.4566
G01 X29.7304 Y0.4630
G01 X29.7335 Y0.4697
G01 X29.7361 Y0.4766
G01 X29.7381 Y0.4837
G01 X29.7396 Y0.4909
G01 X29.7406 Y0.4982
G01 X29.7411 Y0.5080
G01 X29.7410 Y2.0369
G01 X29.7400 Y2.0467
G01 X29.7387 Y2.0539
G01 X29.7368 Y2.0610
G01 X29.7335 Y2.0703
G01 X29.7304 Y2.0770
G01 X29.7269 Y2.0834
G01 X29.7214 Y2.0916
G01 X29.7168 Y2.0973
G01 X29.7118 Y2.1027
G01 X29.7045 Y2.1093
G01 X29.6987 Y2.1138
G01 X29.6904 Y2.1190
G01 X29.6839 Y2.1224
G01 X29.6748 Y2.1262
G01 X29.6654 Y2.1290
G01 X29.6582 Y2.1305
G01 X29.6485 Y2.1317
G01 X29.6411 Y2.1320
G01 X29.3611 Y2.1320
G01 X29.3513 Y2.1315
G01 X29.3416 Y2.1301
G01 X29.3321 Y2.1277
G01 X29.3251 Y2.1253
G01 X29.3183 Y2.1224
G01 X29.3118 Y2.1190
G01 X29.3055 Y2.1151
G01 X29.2996 Y2.1108
G01 X29.2939 Y2.1061
G01 X29.2887 Y2.1010
G01 X29.2838 Y2.0954
G01 X29.2793 Y2.0896
G01 X29.2753 Y2.0834
G01 X29.2718 Y2.0770
G01 X29.2687 Y2.0703
G01 X29.2661 Y2.0634
G01 X29.2641 Y2.0563
G01 X29.2626 Y2.0491
G01 X29.2616 Y2.0418
G01 X29.2611 Y2.0320
G01 X29.2612 Y0.5031
G01 X29.2619 Y0.4958
G01 X29.2635 Y0.4861
G01 X29.2661 Y0.4766
G01 X29.2697 Y0.4675
G01 X29.2741 Y0.4587
G01 X29.2793 Y0.4504
G01 X29.2854 Y0.4427
G01 X29.2921 Y0.4356
G01 X29.2996 Y0.4292
G01 X29.3076 Y0.4235
G01 X29.3161 Y0.4187
G01 X29.3228 Y0.4156
G01 X29.3321 Y0.4123
G01 X29.3416 Y0.4099
G01 X29.3513 Y0.4085
G01 X29.3611 Y0.4080
G00 Z2.0000
G00 X29.8611 Y0.4080
G01 F60.00
G01 Z-0.0200
G01 F80.00
G01 X30.1411 Y0.4080
G01 X30.1533 Y0.4088
G01 X30.1630 Y0.4104
G01 X30.1701 Y0.4123
G01 X30.1771 Y0.4147
G01 X30.1839 Y0.4176
G01 X30.1904 Y0.4210
G01 X30.1967 Y0.4249
G01 X30.2026 Y0.4292
G01 X30.2083 Y0.4339
G01 X30.2135 Y0.4390
G01 X30.2184 Y0.4446
G01 X30.2229 Y0.4504
G01 X30.2269 Y0.4566
G01 X30.2304 Y0.4630
G01 X30.2335 Y0.4697
G01 X30.2361 Y0.4766
G01 X30.2381 Y0.4837
G01 X30.2396 Y0.4909
G01 X30.2406 Y0.4982
G01 X30.2411 Y0.5080
G01 X30.2410 Y2.0369
G01 X30.2400 Y2.0467
G01 X30.2387 Y2.0539
G01 X30.2368 Y2.0610
G01 X30.2335 Y2.0703
G01 X30.2304 Y2.0770
G01 X30.2269 Y2.0834
G01 X30.2214 Y2.0916
G01 X30.2168 Y2.0973
G01 X30.2118 Y2.1027
G01 X30.2045 Y2.1093
G01 X30.1987 Y2.1138
G01 X30.1904 Y2.1190
G01 X30.1839 Y2.1224
G01 X30.1748 Y2.1262
G01 X30.1654 Y2.1290
G01 X30.1582 Y2.1305
G01 X30.1485 Y2.1317
G01 X30.1411 Y2.1320
G01 X29.8611 Y2.1320
G01 X29.8513 Y2.1315
G01 X29.8416 Y2.1301
G01 X29.8321 Y2.1277
G01 X29.8251 Y2.1253
G01 X29.8183 Y2.1224
G01 X29.8118 Y2.1190
G01 X29.8055 Y2.1151
G01 X29.7996 Y2.1108
G01 X29.7939 Y2.1061
G01 X29.7887 Y2.1010
G01 X29.7838 Y2.0954
G01 X29.7793 Y2.0896
G01 X29.7753 Y2.0834
G01 X29.7718 Y2.0770
G01 X29.7687 Y2.0703
G01 X29.7661 Y2.0634
G01 X29.7641 Y2.0563
G01 X29.7626 Y2.0491
G01 X29.7616 Y2.0418
G01 X29.7611 Y2.0320
G01 X29.7612 Y0.5031
G01 X29.7619 Y0.4958
G01 X29.7635 Y0.4861
G01 X29.7661 Y0.4766
G01 X29.7697 Y0.4675
G01 X29.7741 Y0.4587
G01 X29.7793 Y0.4504
G01 X29.7854 Y0.4427
G01 X29.7921 Y0.4356
G01 X29.7996 Y0.4292
G01 X29.8076 Y0.4235
G01 X29.8161 Y0.4187
G01 X29.8228 Y0.4156
G01 X29.8321 Y0.4123
G01 X29.8416 Y0.4099
G01 X29.8513 Y0.4085
G01 X29.8611 Y0.4080
G00 Z2.0000
G00 X30.7483 Y2.5339
G01 F60.00
G01 Z-0.0200
G01 F80.00
G01 X31.4401 Y2.5339
G01 X31.4615 Y2.5286
G01 X31.4809 Y2.5256
G01 X31.4907 Y2.5247
G01 X31.5103 Y2.5238
G01 X36.0620 Y2.5238
G01 X36.0865 Y2.5250
G01 X36.1132 Y2.5291
G01 X36.1346 Y2.5346
G01 X36.1531 Y2.5411
G01 X36.1622 Y2.5448
G01 X36.1799 Y2.5534
G01 X36.1968 Y2.5633
G01 X36.2049 Y2.5688
G01 X36.2206 Y2.5806
G01 X36.2371 Y2.5954
G01 X37.4626 Y3.8209
G01 X37.4758 Y3.8355
G01 X37.4804 Y3.8412
G01 X37.4920 Y3.8571
G01 X37.5022 Y3.8738
G01 X37.5069 Y3.8825
G01 X37.5151 Y3.9003
G01 X37.5234 Y3.9234
G01 X37.5283 Y3.9424
G01 X37.5302 Y3.9520
G01 X37.5330 Y3.9715
G01 X37.5341 Y3.9911
G01 X37.5341 Y4.0009
G01 X37.5330 Y4.0205
G01 X37.5289 Y4.0472
G01 X37.5241 Y4.0662
G01 X37.5219 Y4.0733
G01 X37.5151 Y4.0917
G01 X37.5069 Y4.1095
G01 X37.5022 Y4.1182
G01 X37.4920 Y4.1349
G01 X37.4774 Y4.1546
G01 X37.4643 Y4.1693
G01 X37.4574 Y4.1762
G01 X37.4427 Y4.1893
G01 X37.4270 Y4.2011
G01 X37.4189 Y4.2066
G01 X37.4020 Y4.2165
G01 X37.3798 Y4.2270
G01 X37.3567 Y4.2353
G01 X37.3377 Y4.2402
G01 X37.3281 Y4.2421
G01 X37.3086 Y4.2449
G01 X37.2890 Y4.2460
G01 X37.2792 Y4.2460
G01 X37.2596 Y4.2449
G01 X37.2353 Y4.2413
G01 X37.2162 Y4.2366
G01 X37.2068 Y4.2338
G01 X37.1884 Y4.2270
G01 X37.1706 Y4.2188
G01 X37.1619 Y4.2141
G01 X37.1452 Y4.2039
G01 X37.1255 Y4.1893
G01 X37.1073 Y4.1728
G01 X35.9584 Y3.0240
G01 X31.5103 Y3.0240
G01 X31.4907 Y3.0231
G01 X31.4809 Y3.0222
G01 X31.4615 Y3.0192
G01 X31.4401 Y3.0139
G01 X30.7483 Y3.0139
G01 X30.7385 Y3.0134
G01 X30.7312 Y3.0124
G01 X30.7240 Y3.0109
G01 X30.7146 Y3.0081
G01 X30.7078 Y3.0053
G01 X30.6990 Y3.0009
G01 X30.6927 Y2.9970
G01 X30.6868 Y2.9927
G01 X30.6811 Y2.9880
G01 X30.6759 Y2.9829
G01 X30.6695 Y2.9754
G01 X30.6652 Y2.9695
G01 X30.6613 Y2.9632
G01 X30.6579 Y2.9567
G01 X30.6550 Y2.9499
G01 X30.6526 Y2.9429
G01 X30.6507 Y2.9358
G01 X30.6491 Y2.9261
G01 X30.6483 Y2.9139
G01 X30.6483 Y2.6314
G01 X30.6491 Y2.6217
G01 X30.6507 Y2.6120
G01 X30.6533 Y2.6025
G01 X30.6569 Y2.5934
G01 X30.6613 Y2.5846
G01 X30.6665 Y2.5763
G01 X30.6726 Y2.5686
G01 X30.6793 Y2.5615
G01 X30.6868 Y2.5551
G01 X30.6948 Y2.5494
G01 X30.7033 Y2.5446
G01 X30.7123 Y2.5406
G01 X30.7216 Y2.5375
G01 X30.7312 Y2.5354
G01 X30.7385 Y2.5344
G01 X30.7483 Y2.5339
G00 Z2.0000
G00 X30.7567 Y3.0329
G01 F60.00
G01 Z-0.0200
G01 F80.00
G01 X32.2807 Y3.0329
G01 X32.2929 Y3.0337
G01 X32.3050 Y3.0359
G01 X32.3121 Y3.0379
G01 X32.3190 Y3.0405
G01 X32.3257 Y3.0436
G01 X32.3321 Y3.0471
G01 X32.3383 Y3.0511
G01 X32.3441 Y3.0556
G01 X32.3531 Y3.0639
G01 X32.3580 Y3.0695
G01 X32.3625 Y3.0753
G01 X32.3665 Y3.0815
G01 X32.3700 Y3.0879
G01 X32.3731 Y3.0946
G01 X32.3757 Y3.1015
G01 X32.3777 Y3.1086
G01 X32.3792 Y3.1158
G01 X32.3802 Y3.1231
G01 X32.3807 Y3.1329
G01 X32.3807 Y3.4129
G01 X32.3799 Y3.4251
G01 X32.3777 Y3.4372
G01 X32.3749 Y3.4466
G01 X32.3721 Y3.4534
G01 X32.3689 Y3.4600
G01 X32.3652 Y3.4664
G01 X32.3610 Y3.4725
G01 X32.3564 Y3.4782
G01 X32.3497 Y3.4853
G01 X32.3441 Y3.4902
G01 X32.3363 Y3.4960
G01 X32.3300 Y3.4999
G01 X32.3235 Y3.5033
G01 X32.3167 Y3.5062
G01 X32.3097 Y3.5086
G01 X32.3026 Y3.5105
G01 X32.2929 Y3.5121
G01 X32.2856 Y3.5128
G01 X30.7567 Y3.5129
G01 X30.7445 Y3.5121
G01 X30.7324 Y3.5099
G01 X30.7253 Y3.5079
G01 X30.7184 Y3.5053
G01 X30.7117 Y3.5022
G01 X30.7053 Y3.4987
G01 X30.6991 Y3.4947
G01 X30.6933 Y3.4902
G01 X30.6843 Y3.4819
G01 X30.6794 Y3.4763
G01 X30.6749 Y3.4705
G01 X30.6709 Y3.4643
G01 X30.6674 Y3.4579
G01 X30.6643 Y3.4512
G01 X30.6617 Y3.4443
G01 X30.6586 Y3.4324
G01 X30.6572 Y3.4227
G01 X30.6567 Y3.4129
G01 X30.6568 Y3.1280
G01 X30.6578 Y3.1182
G01 X30.6597 Y3.1086
G01 X30.6617 Y3.1015
G01 X30.6653 Y3.0924
G01 X30.6697 Y3.0836
G01 X30.6749 Y3.0753
G01 X30.6810 Y3.0676
G01 X30.6877 Y3.0605
G01 X30.6952 Y3.0541
G01 X30.7032 Y3.0484
G01 X30.7117 Y3.0436
G01 X30.7207 Y3.0396
G01 X30.7277 Y3.0372
G01 X30.7372 Y3.0348
G01 X30.7469 Y3.0334
G01 X30.7567 Y3.0329
G00 Z2.0000
G00 X30.6483 Y3.9204
G01 F60.00
G01 Z-0.0200
G01 F80.00
G01 X30.6483 Y3.6404
G01 X30.6491 Y3.6282
G01 X30.6507 Y3.6185
G01 X30.6526 Y3.6114
G01 X30.6550 Y3.6044
G01 X30.6579 Y3.5976
G01 X30.6613 Y3.5911
G01 X30.6652 Y3.5848
G01 X30.6695 Y3.5789
G01 X30.6742 Y3.5732
G01 X30.6793 Y3.5680
G01 X30.6849 Y3.5631
G01 X30.6907 Y3.5586
G01 X30.6969 Y3.5546
G01 X30.7033 Y3.5511
G01 X30.7100 Y3.5480
G01 X30.7169 Y3.5454
G01 X30.7240 Y3.5434
G01 X30.7312 Y3.5419
G01 X30.7409 Y3.5407
G01 X30.7483 Y3.5404
G01 X32.2772 Y3.5405
G01 X32.2845 Y3.5412
G01 X32.2942 Y3.5428
G01 X32.3037 Y3.5454
G01 X32.3106 Y3.5480
G01 X32.3194 Y3.5522
G01 X32.3258 Y3.5559
G01 X32.3319 Y3.5601
G01 X32.3395 Y3.5663
G01 X32.3447 Y3.5714
G01 X32.3496 Y3.5770
G01 X32.3554 Y3.5848
G01 X32.3593 Y3.5911
G01 X32.3627 Y3.5976
G01 X32.3665 Y3.6067
G01 X32.3687 Y3.6137
G01 X32.3708 Y3.6233
G01 X32.3718 Y3.6306
G01 X32.3723 Y3.6404
G01 X32.3723 Y3.9204
G01 X32.3718 Y3.9302
G01 X32.3704 Y3.9399
G01 X32.3687 Y3.9471
G01 X32.3665 Y3.9541
G01 X32.3637 Y3.9609
G01 X32.3605 Y3.9675
G01 X32.3554 Y3.9760
G01 X32.3511 Y3.9819
G01 X32.3464 Y3.9876
G01 X32.3413 Y3.9928
G01 X32.3357 Y3.9977
G01 X32.3299 Y4.0022
G01 X32.3237 Y4.0062
G01 X32.3173 Y4.0097
G01 X32.3106 Y4.0128
G01 X32.3037 Y4.0154
G01 X32.2966 Y4.0174
G01 X32.2894 Y4.0189
G01 X32.2797 Y4.0201
G01 X32.2723 Y4.0204
G01 X30.7434 Y4.0203
G01 X30.7336 Y4.0193
G01 X30.7264 Y4.0180
G01 X30.7169 Y4.0154
G01 X30.7078 Y4.0118
G01 X30.6990 Y4.0074
G01 X30.6907 Y4.0022
G01 X30.6830 Y3.9961
G01 X30.6759 Y3.9894
G01 X30.6695 Y3.9819
G01 X30.6638 Y3.9739
G01 X30.6590 Y3.9654
G01 X30.6550 Y3.9564
G01 X30.6519 Y3.9471
G01 X30.6502 Y3.9399
G01 X30.6488 Y3.9302
G01 X30.6483 Y3.9204
G00 Z2.0000
G00 X30.7391 Y4.0300
G01 F60.00
G01 Z-0.0200
G01 F80.00
G01 X32.2631 Y4.0300
G01 X32.2753 Y4.0308
G01 X32.2874 Y4.0330
G01 X32.2945 Y4.0350
G01 X32.3014 Y4.0376
G01 X32.3124 Y4.0430
G01 X32.3187 Y4.0469
G01 X32.3246 Y4.0512
G01 X32.3303 Y4.0559
G01 X32.3355 Y4.0610
G01 X32.3404 Y4.0666
G01 X32.3449 Y4.0724
G01 X32.3489 Y4.0786
G01 X32.3524 Y4.0850
G01 X32.3555 Y4.0917
G01 X32.3581 Y4.0986
G01 X32.3601 Y4.1057
G01 X32.3616 Y4.1129
G01 X32.3626 Y4.1202
G01 X32.3631 Y4.1300
G01 X32.3631 Y4.4100
G01 X32.3623 Y4.4222
G01 X32.3601 Y4.4343
G01 X32.3573 Y4.4437
G01 X32.3545 Y4.4505
G01 X32.3513 Y4.4571
G01 X32.3476 Y4.4635
G01 X32.3434 Y4.4696
G01 X32.3388 Y4.4753
G01 X32.3321 Y4.4824
G01 X32.3265 Y4.4873
G01 X32.3187 Y4.4931
G01 X32.3124 Y4.4970
G01 X32.3059 Y4.5004
G01 X32.2991 Y4.5033
G01 X32.2921 Y4.5057
G01 X32.2850 Y4.5076
G01 X32.2753 Y4.5092
G01 X32.2680 Y4.5099
G01 X30.7391 Y4.5100
G01 X30.7269 Y4.5092
G01 X30.7148 Y4.5070
G01 X30.7077 Y4.5050
G01 X30.7008 Y4.5024
G01 X30.6941 Y4.4993
G01 X30.6877 Y4.4958
G01 X30.6815 Y4.4918
G01 X30.6757 Y4.4873
G01 X30.6667 Y4.4790
G01 X30.6618 Y4.4734
G01 X30.6573 Y4.4676
G01 X30.6533 Y4.4614
G01 X30.6498 Y4.4550
G01 X30.6467 Y4.4483
G01 X30.6441 Y4.4414
G01 X30.6410 Y4.4295
G01 X30.6396 Y4.4198
G01 X30.6391 Y4.4100
G01 X30.6392 Y4.1251
G01 X30.6402 Y4.1153
G01 X30.6421 Y4.1057
G01 X30.6441 Y4.0986
G01 X30.6477 Y4.0895
G01 X30.6521 Y4.0807
G01 X30.6573 Y4.0724
G01 X30.6634 Y4.0647
G01 X30.6701 Y4.0576
G01 X30.6776 Y4.0512
G01 X30.6856 Y4.0455
G01 X30.6941 Y4.0407
G01 X30.7031 Y4.0367
G01 X30.7124 Y4.0336
G01 X30.7220 Y4.0315
G01 X30.7293 Y4.0305
G01 X30.7391 Y4.0300
G00 Z2.0000
G00 X30.7391 Y4.5300
G01 F60.00
G01 Z-0.0200
G01 F80.00
G01 X31.4309 Y4.5300
G01 X31.4523 Y4.5247
G01 X31.4717 Y4.5217
G01 X31.4815 Y4.5208
G01 X31.5011 Y4.5199
G01 X35.2635 Y4.5199
G01 X35.3293 Y4.4542
G01 X35.3456 Y4.4393
G01 X35.3672 Y4.4231
G01 X35.3861 Y4.4116
G01 X35.4059 Y4.4019
G01 X35.4127 Y4.3990
G01 X35.4335 Y4.3917
G01 X35.4525 Y4.3868
G01 X35.4621 Y4.3849
G01 X35.4816 Y4.3821
G01 X35.5086 Y4.3810
G01 X35.5306 Y4.3821
G01 X35.5549 Y4.3857
G01 X35.5787 Y4.3917
G01 X35.6018 Y4.4000
G01 X35.6240 Y4.4105
G01 X35.6450 Y4.4231
G01 X35.6647 Y4.4377
G01 X35.6829 Y4.4542
G01 X35.6994 Y4.4724
G01 X35.7140 Y4.4921
G01 X35.7266 Y4.5131
G01 X35.7371 Y4.5353
G01 X35.7454 Y4.5584
G01 X35.7514 Y4.5822
G01 X35.7550 Y4.6065
G01 X35.7561 Y4.6335
G01 X35.7550 Y4.6555
G01 X35.7514 Y4.6798
G01 X35.7454 Y4.7036
G01 X35.7371 Y4.7267
G01 X35.7266 Y4.7489
G01 X35.7140 Y4.7699
G01 X35.6994 Y4.7896
G01 X35.6846 Y4.8061
G01 X35.5422 Y4.9485
G01 X35.5257 Y4.9633
G01 X35.5081 Y4.9765
G01 X35.4850 Y4.9905
G01 X35.4673 Y4.9990
G01 X35.4582 Y5.0028
G01 X35.4397 Y5.0093
G01 X35.4183 Y5.0148
G01 X35.4111 Y5.0161
G01 X35.3892 Y5.0191
G01 X35.3671 Y5.0201
G01 X31.5011 Y5.0201
G01 X31.4815 Y5.0192
G01 X31.4717 Y5.0183
G01 X31.4523 Y5.0153
G01 X31.4309 Y5.0100
G01 X30.7366 Y5.0100
G01 X30.7293 Y5.0095
G01 X30.7220 Y5.0085
G01 X30.7148 Y5.0070
G01 X30.7054 Y5.0042
G01 X30.6986 Y5.0014
G01 X30.6898 Y4.9970
G01 X30.6835 Y4.9931
G01 X30.6776 Y4.9888
G01 X30.6719 Y4.9841
G01 X30.6650 Y4.9772
G01 X30.6603 Y4.9715
G01 X30.6546 Y4.9635
G01 X30.6498 Y4.9550
G01 X30.6467 Y4.9483
G01 X30.6441 Y4.9414
G01 X30.6421 Y4.9343
G01 X30.6399 Y4.9222
G01 X30.6391 Y4.9100
G01 X30.6391 Y4.6300
G01 X30.6396 Y4.6202
G01 X30.6410 Y4.6105
G01 X30.6434 Y4.6010
G01 X30.6467 Y4.5917
G01 X30.6509 Y4.5829
G01 X30.6560 Y4.5744
G01 X30.6618 Y4.5666
G01 X30.6684 Y4.5593
G01 X30.6757 Y4.5527
G01 X30.6835 Y4.5469
G01 X30.6920 Y4.5418
G01 X30.7008 Y4.5376
G01 X30.7101 Y4.5343
G01 X30.7196 Y4.5319
G01 X30.7293 Y4.5305
G01 X30.7391 Y4.5300
G00 Z2.0000
G00 X30.7361 Y5.0411
G01 F60.00
G01 Z-0.0200
G01 F80.00
G01 X32.2601 Y5.0411
G01 X32.2675 Y5.0414
G01 X32.2748 Y5.0422
G01 X32.2820 Y5.0435
G01 X32.2891 Y5.0454
G01 X32.2961 Y5.0478
G01 X32.3029 Y5.0507
G01 X32.3136 Y5.0566
G01 X32.3235 Y5.0638
G01 X32.3291 Y5.0687
G01 X32.3342 Y5.0739
G01 X32.3389 Y5.0796
G01 X32.3432 Y5.0855
G01 X32.3494 Y5.0961
G01 X32.3543 Y5.1074
G01 X32.3565 Y5.1144
G01 X32.3582 Y5.1216
G01 X32.3596 Y5.1313
G01 X32.3601 Y5.1411
G01 X32.3601 Y5.4236
G01 X32.3593 Y5.4333
G01 X32.3582 Y5.4406
G01 X32.3565 Y5.4478
G01 X32.3534 Y5.4571
G01 X32.3494 Y5.4661
G01 X32.3459 Y5.4725
G01 X32.3419 Y5.4787
G01 X32.3358 Y5.4864
G01 X32.3291 Y5.4935
G01 X32.3235 Y5.4984
G01 X32.3157 Y5.5042
G01 X32.3094 Y5.5081
G01 X32.3029 Y5.5115
G01 X32.2938 Y5.5153
G01 X32.2844 Y5.5181
G01 X32.2753 Y5.5199
G01 X36.0415 Y5.5199
G01 X36.8533 Y4.7082
G01 X36.8715 Y4.6917
G01 X36.8872 Y4.6799
G01 X36.8953 Y4.6744
G01 X36.9144 Y4.6633
G01 X36.9321 Y4.6549
G01 X36.9390 Y4.6522
G01 X36.9575 Y4.6457
G01 X36.9789 Y4.6402
G01 X37.0056 Y4.6361
G01 X37.0252 Y4.6350
G01 X37.0350 Y4.6350
G01 X37.0546 Y4.6361
G01 X37.0741 Y4.6389
G01 X37.0837 Y4.6408
G01 X37.1027 Y4.6457
G01 X37.1212 Y4.6522
G01 X37.1303 Y4.6559
G01 X37.1480 Y4.6645
G01 X37.1649 Y4.6744
G01 X37.1730 Y4.6799
G01 X37.1887 Y4.6917
G01 X37.2086 Y4.7099
G01 X37.2234 Y4.7264
G01 X37.2352 Y4.7421
G01 X37.2394 Y4.7481
G01 X37.2495 Y4.7650
G01 X37.2611 Y4.7893
G01 X37.2679 Y4.8077
G01 X37.2707 Y4.8171
G01 X37.2754 Y4.8362
G01 X37.2784 Y4.8556
G01 X37.2792 Y4.8629
G01 X37.2801 Y4.8825
G01 X37.2790 Y4.9095
G01 X37.2754 Y4.9338
G01 X37.2694 Y4.9576
G01 X37.2611 Y4.9807
G01 X37.2506 Y5.0029
G01 X37.2380 Y5.0239
G01 X37.2234 Y5.0436
G01 X37.2069 Y5.0618
G01 X36.3219 Y5.9468
G01 X36.3075 Y5.9601
G01 X36.3018 Y5.9648
G01 X36.2880 Y5.9751
G01 X36.2799 Y5.9806
G01 X36.2608 Y5.9917
G01 X36.2385 Y6.0020
G01 X36.2177 Y6.0093
G01 X36.1939 Y6.0153
G01 X36.1696 Y6.0189
G01 X36.1476 Y6.0200
G01 X31.5011 Y6.0201
G01 X31.4815 Y6.0192
G01 X31.4717 Y6.0183
G01 X31.4523 Y6.0153
G01 X31.4309 Y6.0100
G01 X30.7391 Y6.0100
G01 X30.7293 Y6.0095
G01 X30.7220 Y6.0085
G01 X30.7148 Y6.0070
G01 X30.7054 Y6.0042
G01 X30.6986 Y6.0014
G01 X30.6920 Y5.9982
G01 X30.6835 Y5.9931
G01 X30.6776 Y5.9888
G01 X30.6719 Y5.9841
G01 X30.6650 Y5.9772
G01 X30.6603 Y5.9715
G01 X30.6546 Y5.9635
G01 X30.6509 Y5.9571
G01 X30.6477 Y5.9505
G01 X30.6441 Y5.9414
G01 X30.6421 Y5.9343
G01 X30.6406 Y5.9271
G01 X30.6394 Y5.9174
G01 X30.6391 Y5.9100
G01 X30.6391 Y5.6300
G01 X30.6399 Y5.6178
G01 X30.6415 Y5.6081
G01 X30.6449 Y5.5963
G01 X30.6487 Y5.5872
G01 X30.6546 Y5.5765
G01 X30.6603 Y5.5685
G01 X30.6684 Y5.5593
G01 X30.6757 Y5.5527
G01 X30.6856 Y5.5455
G01 X30.6963 Y5.5396
G01 X30.7031 Y5.5367
G01 X30.7101 Y5.5343
G01 X30.7220 Y5.5315
G01 X30.7293 Y5.5305
G01 X30.7366 Y5.5300
G01 X31.4309 Y5.5300
G01 X31.4523 Y5.5247
G01 X31.4769 Y5.5211
G01 X30.7336 Y5.5211
G01 X30.7214 Y5.5200
G01 X30.7142 Y5.5187
G01 X30.7071 Y5.5168
G01 X30.6956 Y5.5125
G01 X30.6890 Y5.5093
G01 X30.6826 Y5.5056
G01 X30.6746 Y5.4999
G01 X30.6654 Y5.4918
G01 X30.6588 Y5.4845
G01 X30.6516 Y5.4746
G01 X30.6457 Y5.4639
G01 X30.6419 Y5.4548
G01 X30.6391 Y5.4454
G01 X30.6369 Y5.4333
G01 X30.6361 Y5.4211
G01 X30.6361 Y5.1411
G01 X30.6369 Y5.1289
G01 X30.6385 Y5.1192
G01 X30.6411 Y5.1097
G01 X30.6447 Y5.1006
G01 X30.6479 Y5.0940
G01 X30.6530 Y5.0855
G01 X30.6573 Y5.0796
G01 X30.6637 Y5.0721
G01 X30.6708 Y5.0654
G01 X30.6785 Y5.0593
G01 X30.6847 Y5.0553
G01 X30.6933 Y5.0507
G01 X30.7001 Y5.0478
G01 X30.7094 Y5.0447
G01 X30.7190 Y5.0426
G01 X30.7263 Y5.0416
G01 X30.7361 Y5.0411
G00 Z2.0000
G00 X30.7391 Y6.0300
G01 F60.00
G01 Z-0.0200
G01 F80.00
G01 X32.2631 Y6.0300
G01 X32.2753 Y6.0308
G01 X32.2874 Y6.0330
G01 X32.2945 Y6.0350
G01 X32.3014 Y6.0376
G01 X32.3124 Y6.0430
G01 X32.3187 Y6.0469
G01 X32.3246 Y6.0512
G01 X32.3303 Y6.0559
G01 X32.3355 Y6.0610
G01 X32.3404 Y6.0666
G01 X32.3449 Y6.0724
G01 X32.3489 Y6.0786
G01 X32.3524 Y6.0850
G01 X32.3555 Y6.0917
G01 X32.3581 Y6.0986
G01 X32.3601 Y6.1057
G01 X32.3616 Y6.1129
G01 X32.3626 Y6.1202
G01 X32.3631 Y6.1300
G01 X32.3631 Y6.4100
G01 X32.3623 Y6.4222
G01 X32.3601 Y6.4343
G01 X32.3573 Y6.4437
G01 X32.3545 Y6.4505
G01 X32.3513 Y6.4571
G01 X32.3476 Y6.4635
G01 X32.3434 Y6.4696
G01 X32.3388 Y6.4753
G01 X32.3321 Y6.4824
G01 X32.3265 Y6.4873
G01 X32.3187 Y6.4931
G01 X32.3124 Y6.4970
G01 X32.3059 Y6.5004
G01 X32.2991 Y6.5033
G01 X32.2921 Y6.5057
G01 X32.2850 Y6.5076
G01 X32.2753 Y6.5092
G01 X32.2680 Y6.5099
G01 X30.7391 Y6.5100
G01 X30.7269 Y6.5092
G01 X30.7148 Y6.5070
G01 X30.7077 Y6.5050
G01 X30.7008 Y6.5024
G01 X30.6941 Y6.4993
G01 X30.6877 Y6.4958
G01 X30.6815 Y6.4918
G01 X30.6757 Y6.4873
G01 X30.6667 Y6.4790
G01 X30.6618 Y6.4734
G01 X30.6573 Y6.4676
G01 X30.6533 Y6.4614
G01 X30.6498 Y6.4550
G01 X30.6467 Y6.4483
G01 X30.6441 Y6.4414
G01 X30.6410 Y6.4295
G01 X30.6396 Y6.4198
G01 X30.6391 Y6.4100
G01 X30.6392 Y6.1251
G01 X30.6402 Y6.1153
G01 X30.6421 Y6.1057
G01 X30.6441 Y6.0986
G01 X30.6477 Y6.0895
G01 X30.6521 Y6.0807
G01 X30.6573 Y6.0724
G01 X30.6634 Y6.0647
G01 X30.6701 Y6.0576
G01 X30.6776 Y6.0512
G01 X30.6856 Y6.0455
G01 X30.6941 Y6.0407
G01 X30.7031 Y6.0367
G01 X30.7124 Y6.0336
G01 X30.7220 Y6.0315
G01 X30.7293 Y6.0305
G01 X30.7391 Y6.0300
G00 Z2.0000
G00 X30.7391 Y6.5300
G01 F60.00
G01 Z-0.0200
G01 F80.00
G01 X32.2631 Y6.5300
G01 X32.2753 Y6.5308
G01 X32.2874 Y6.5330
G01 X32.2945 Y6.5350
G01 X32.3014 Y6.5376
G01 X32.3124 Y6.5430
G01 X32.3187 Y6.5469
G01 X32.3246 Y6.5512
G01 X32.3303 Y6.5559
G01 X32.3355 Y6.5610
G01 X32.3404 Y6.5666
G01 X32.3449 Y6.5724
G01 X32.3489 Y6.5786
G01 X32.3524 Y6.5850
G01 X32.3555 Y6.5917
G01 X32.3581 Y6.5986
G01 X32.3601 Y6.6057
G01 X32.3616 Y6.6129
G01 X32.3626 Y6.6202
G01 X32.3631 Y6.6300
G01 X32.3631 Y6.9100
G01 X32.3623 Y6.9222
G01 X32.3601 Y6.9343
G01 X32.3573 Y6.9437
G01 X32.3545 Y6.9505
G01 X32.3513 Y6.9571
G01 X32.3476 Y6.9635
G01 X32.3434 Y6.9696
G01 X32.3388 Y6.9753
G01 X32.3321 Y6.9824
G01 X32.3265 Y6.9873
G01 X32.3187 Y6.9931
G01 X32.3124 Y6.9970
G01 X32.3059 Y7.0004
G01 X32.2991 Y7.0033
G01 X32.2921 Y7.0057
G01 X32.2850 Y7.0076
G01 X32.2753 Y7.0092
G01 X32.2680 Y7.0099
G01 X30.7391 Y7.0100
G01 X30.7269 Y7.0092
G01 X30.7148 Y7.0070
G01 X30.7077 Y7.0050
G01 X30.7008 Y7.0024
G01 X30.6941 Y6.9993
G01 X30.6877 Y6.9958
G01 X30.6815 Y6.9918
G01 X30.6757 Y6.9873
G01 X30.6667 Y6.9790
G01 X30.6618 Y6.9734
G01 X30.6573 Y6.9676
G01 X30.6533 Y6.9614
G01 X30.6498 Y6.9550
G01 X30.6467 Y6.9483
G01 X30.6441 Y6.9414
G01 X30.6410 Y6.9295
G01 X30.6396 Y6.9198
G01 X30.6391 Y6.9100
G01 X30.6392 Y6.6251
G01 X30.6402 Y6.6153
G01 X30.6421 Y6.6057
G01 X30.6441 Y6.5986
G01 X30.6477 Y6.5895
G01 X30.6521 Y6.5807
G01 X30.6573 Y6.5724
G01 X30.6634 Y6.5647
G01 X30.6701 Y6.5576
G01 X30.6776 Y6.5512
G01 X30.6856 Y6.5455
G01 X30.6941 Y6.5407
G01 X30.7031 Y6.5367
G01 X30.7124 Y6.5336
G01 X30.7220 Y6.5315
G01 X30.7293 Y6.5305
G01 X30.7391 Y6.5300
G00 Z2.0000
G00 X30.7420 Y7.0452
G01 F60.00
G01 Z-0.0200
G01 F80.00
G01 X31.4338 Y7.0452
G01 X31.4552 Y7.0399
G01 X31.4746 Y7.0369
G01 X31.4844 Y7.0360
G01 X31.5040 Y7.0351
G01 X34.9073 Y7.0351
G01 X35.2023 Y6.7402
G01 X35.2224 Y6.7222
G01 X35.2402 Y6.7091
G01 X35.2591 Y6.6976
G01 X35.2789 Y6.6879
G01 X35.2880 Y6.6842
G01 X35.3065 Y6.6777
G01 X35.3303 Y6.6717
G01 X35.3546 Y6.6681
G01 X35.3766 Y6.6670
G01 X35.4036 Y6.6681
G01 X35.4279 Y6.6717
G01 X35.4517 Y6.6777
G01 X35.4748 Y6.6860
G01 X35.4970 Y6.6965
G01 X35.5180 Y6.7091
G01 X35.5377 Y6.7237
G01 X35.5559 Y6.7402
G01 X35.5724 Y6.7584
G01 X35.5870 Y6.7781
G01 X35.5996 Y6.7991
G01 X35.6101 Y6.8213
G01 X35.6184 Y6.8444
G01 X35.6244 Y6.8682
G01 X35.6280 Y6.8925
G01 X35.6291 Y6.9145
G01 X35.6280 Y6.9415
G01 X35.6244 Y6.9658
G01 X35.6184 Y6.9896
G01 X35.6101 Y7.0127
G01 X35.5996 Y7.0349
G01 X35.5870 Y7.0559
G01 X35.5724 Y7.0756
G01 X35.5559 Y7.0938
G01 X35.1877 Y7.4620
G01 X35.1695 Y7.4785
G01 X35.1498 Y7.4931
G01 X35.1331 Y7.5033
G01 X35.1266 Y7.5069
G01 X35.1111 Y7.5142
G01 X35.1020 Y7.5180
G01 X35.0835 Y7.5245
G01 X35.0597 Y7.5305
G01 X35.0354 Y7.5341
G01 X35.0134 Y7.5352
G01 X31.5040 Y7.5353
G01 X31.4844 Y7.5344
G01 X31.4746 Y7.5335
G01 X31.4552 Y7.5305
G01 X31.4338 Y7.5252
G01 X30.7420 Y7.5252
G01 X30.7298 Y7.5244
G01 X30.7225 Y7.5233
G01 X30.7153 Y7.5216
G01 X30.7083 Y7.5194
G01 X30.7015 Y7.5166
G01 X30.6949 Y7.5134
G01 X30.6885 Y7.5097
G01 X30.6805 Y7.5040
G01 X30.6748 Y7.4993
G01 X30.6696 Y7.4942
G01 X30.6647 Y7.4886
G01 X30.6602 Y7.4828
G01 X30.6562 Y7.4766
G01 X30.6527 Y7.4702
G01 X30.6487 Y7.4612
G01 X30.6463 Y7.4542
G01 X30.6444 Y7.4471
G01 X30.6425 Y7.4350
G01 X30.6420 Y7.4252
G01 X30.6420 Y7.1427
G01 X30.6428 Y7.1330
G01 X30.6444 Y7.1233
G01 X30.6470 Y7.1138
G01 X30.6506 Y7.1047
G01 X30.6550 Y7.0959
G01 X30.6602 Y7.0876
G01 X30.6663 Y7.0799
G01 X30.6730 Y7.0728
G01 X30.6805 Y7.0664
G01 X30.6885 Y7.0607
G01 X30.6970 Y7.0559
G01 X30.7060 Y7.0519
G01 X30.7153 Y7.0488
G01 X30.7249 Y7.0467
G01 X30.7322 Y7.0457
G01 X30.7420 Y7.0452
G00 Z2.0000
G00 X30.6546 Y7.9409
G01 F60.00
G01 Z-0.0200
G01 F80.00
G01 X30.6546 Y7.6609
G01 X30.6554 Y7.6487
G01 X30.6576 Y7.6366
G01 X30.6596 Y7.6295
G01 X30.6622 Y7.6226
G01 X30.6653 Y7.6159
G01 X30.6688 Y7.6095
G01 X30.6728 Y7.6033
G01 X30.6773 Y7.5975
G01 X30.6839 Y7.5902
G01 X30.6893 Y7.5852
G01 X30.6950 Y7.5806
G01 X30.7011 Y7.5764
G01 X30.7075 Y7.5727
G01 X30.7141 Y7.5695
G01 X30.7232 Y7.5659
G01 X30.7303 Y7.5639
G01 X30.7375 Y7.5624
G01 X30.7448 Y7.5614
G01 X30.7546 Y7.5609
G01 X31.4464 Y7.5609
G01 X31.4678 Y7.5556
G01 X31.4872 Y7.5526
G01 X31.4970 Y7.5517
G01 X31.5166 Y7.5508
G01 X35.1751 Y7.5508
G01 X35.6607 Y7.0653
G01 X35.6677 Y7.0510
G01 X35.6778 Y7.0341
G01 X35.6938 Y7.0124
G01 X35.7069 Y6.9977
G01 X35.7138 Y6.9908
G01 X35.7285 Y6.9777
G01 X35.7442 Y6.9659
G01 X35.7523 Y6.9604
G01 X35.7692 Y6.9505
G01 X35.7869 Y6.9419
G01 X35.7960 Y6.9382
G01 X35.8145 Y6.9317
G01 X35.8359 Y6.9262
G01 X35.8431 Y6.9249
G01 X35.8650 Y6.9219
G01 X35.8871 Y6.9209
