(G-CODE GENERATED BY FLATCAM v8.994 - www.flatcam.org - Version Date: 2020/11/7)

(Name: PCB2.GTL_iso_combined_cnc)
(Type: G-code from Geometry)
(Units: MM)

(Created on Monday, 13 March 2023 at 10:54)

(This preprocessor is the default preprocessor used by FlatCAM.)
(It is made to work with MACH3 compatible motion controllers.)

(TOOL DIAMETER: 0.198 mm)
(Feedrate_XY: 60.0 mm/min)
(Feedrate_Z: 60.0 mm/min)
(Feedrate rapids 1500.0 mm/min)

(Z_Cut: -0.01 mm)
(Z_Move: 2.0 mm)
(Z Start: None mm)
(Z End: 15.0 mm)
(X,Y End: None mm)
(Steps per circle: 64)
(Preprocessor Geometry: default)

(X range:    0.0000 ...   13.4621  mm)
(Y range:    0.0000 ...   16.1270  mm)

(Spindle Speed: 10000.0 RPM)
G21
G90
G94

G01 F60.00

M5
G00 Z15.0000
G00 X0.0000 Y0.0000
T2
M6    
(MSG, Change to Tool Dia = 0.1980)
M0
G00 Z15.0000

M03 S10000.0
G01 F60.00
G00 X0.0001 Y4.5683
G01 F60.00
G01 Z-0.0100
G01 F60.00
G01 X0.0012 Y4.5488
G01 X0.0048 Y4.5246
G01 X0.0107 Y4.5009
G01 X0.0190 Y4.4779
G01 X0.0294 Y4.4558
G01 X0.0420 Y4.4348
G01 X0.0565 Y4.4152
G01 X0.0713 Y4.3988
G01 X1.4338 Y3.0363
G01 X1.4502 Y3.0215
G01 X1.4658 Y3.0098
G01 X1.4739 Y3.0044
G01 X1.4908 Y2.9944
G01 X1.5084 Y2.9859
G01 X1.5174 Y2.9822
G01 X1.5359 Y2.9757
G01 X1.5548 Y2.9709
G01 X1.5644 Y2.9690
G01 X1.5838 Y2.9662
G01 X1.6082 Y2.9650
G01 X6.2955 Y2.9651
G01 X6.3028 Y2.9656
G01 X6.3124 Y2.9670
G01 X6.3195 Y2.9687
G01 X6.3264 Y2.9709
G01 X6.3354 Y2.9746
G01 X6.3419 Y2.9779
G01 X6.3481 Y2.9818
G01 X6.3540 Y2.9860
G01 X6.3613 Y2.9924
G01 X6.3664 Y2.9976
G01 X6.3726 Y3.0051
G01 X6.3767 Y3.0111
G01 X6.3804 Y3.0174
G01 X6.3845 Y3.0262
G01 X6.3871 Y3.0330
G01 X6.3891 Y3.0400
G01 X6.3913 Y3.0520
G01 X6.3921 Y3.0641
G01 X6.3921 Y3.3641
G01 X6.3916 Y3.3738
G01 X6.3902 Y3.3834
G01 X6.3885 Y3.3905
G01 X6.3854 Y3.3997
G01 X6.3826 Y3.4064
G01 X6.3792 Y3.4129
G01 X6.3754 Y3.4191
G01 X6.3696 Y3.4269
G01 X6.3648 Y3.4323
G01 X6.3596 Y3.4374
G01 X6.3540 Y3.4421
G01 X6.3460 Y3.4477
G01 X6.3397 Y3.4514
G01 X6.3332 Y3.4546
G01 X6.3264 Y3.4573
G01 X6.3195 Y3.4595
G01 X6.3100 Y3.4616
G01 X6.3028 Y3.4626
G01 X6.2931 Y3.4631
G01 X5.7931 Y3.4631
G01 X1.7113 Y3.4631
G01 X0.4981 Y4.6763
G01 X0.4981 Y5.8371
G01 X0.4973 Y5.8566
G01 X0.4964 Y5.8663
G01 X0.4934 Y5.8857
G01 X0.4881 Y5.9070
G01 X0.4809 Y5.9279
G01 X0.4772 Y5.9368
G01 X0.4687 Y5.9545
G01 X0.4562 Y5.9755
G01 X0.4416 Y5.9951
G01 X0.4285 Y6.0097
G01 X0.4235 Y6.0149
G01 X0.4108 Y6.0264
G01 X0.4033 Y6.0326
G01 X0.3875 Y6.0442
G01 X0.3665 Y6.0567
G01 X0.3488 Y6.0652
G01 X0.3399 Y6.0689
G01 X0.3214 Y6.0754
G01 X0.2977 Y6.0814
G01 X0.2735 Y6.0850
G01 X0.2491 Y6.0861
G01 X0.2247 Y6.0850
G01 X0.2005 Y6.0814
G01 X0.1768 Y6.0754
G01 X0.1538 Y6.0672
G01 X0.1317 Y6.0567
G01 X0.1107 Y6.0442
G01 X0.0911 Y6.0296
G01 X0.0730 Y6.0132
G01 X0.0565 Y5.9951
G01 X0.0420 Y5.9755
G01 X0.0294 Y5.9545
G01 X0.0190 Y5.9324
G01 X0.0107 Y5.9094
G01 X0.0048 Y5.8857
G01 X0.0012 Y5.8615
G01 X0.0000 Y5.8371
G01 X0.0001 Y4.5683
G00 Z2.0000
G00 X0.5541 Y4.7978
G01 F60.00
G01 Z-0.0100
G01 F60.00
G01 X0.5552 Y4.7783
G01 X0.5588 Y4.7541
G01 X0.5647 Y4.7304
G01 X0.5730 Y4.7074
G01 X0.5834 Y4.6853
G01 X0.5960 Y4.6643
G01 X0.6105 Y4.6447
G01 X0.6253 Y4.6283
G01 X1.7173 Y3.5363
G01 X1.7337 Y3.5215
G01 X1.7493 Y3.5098
G01 X1.7574 Y3.5044
G01 X1.7743 Y3.4944
G01 X1.7919 Y3.4859
G01 X1.8009 Y3.4822
G01 X1.8194 Y3.4757
G01 X1.8407 Y3.4703
G01 X1.8673 Y3.4662
G01 X1.8917 Y3.4650
G01 X6.2955 Y3.4651
G01 X6.3028 Y3.4656
G01 X6.3124 Y3.4670
G01 X6.3218 Y3.4693
G01 X6.3287 Y3.4717
G01 X6.3354 Y3.4746
G01 X6.3419 Y3.4779
G01 X6.3481 Y3.4818
G01 X6.3559 Y3.4875
G01 X6.3613 Y3.4924
G01 X6.3680 Y3.4994
G01 X6.3726 Y3.5051
G01 X6.3780 Y3.5132
G01 X6.3815 Y3.5196
G01 X6.3845 Y3.5262
G01 X6.3871 Y3.5330
G01 X6.3897 Y3.5424
G01 X6.3913 Y3.5520
G01 X6.3921 Y3.5641
G01 X6.3921 Y3.8641
G01 X6.3916 Y3.8738
G01 X6.3902 Y3.8834
G01 X6.3885 Y3.8905
G01 X6.3854 Y3.8997
G01 X6.3826 Y3.9064
G01 X6.3792 Y3.9129
G01 X6.3754 Y3.9191
G01 X6.3696 Y3.9269
G01 X6.3648 Y3.9323
G01 X6.3596 Y3.9374
G01 X6.3540 Y3.9421
G01 X6.3460 Y3.9477
G01 X6.3397 Y3.9514
G01 X6.3332 Y3.9546
G01 X6.3264 Y3.9573
G01 X6.3195 Y3.9595
G01 X6.3100 Y3.9616
G01 X6.3028 Y3.9626
G01 X6.2931 Y3.9631
G01 X5.7931 Y3.9631
G01 X1.9948 Y3.9631
G01 X1.0521 Y4.9058
G01 X1.0521 Y5.8371
G01 X1.0510 Y5.8615
G01 X1.0478 Y5.8833
G01 X1.0427 Y5.9047
G01 X1.0399 Y5.9140
G01 X1.0332 Y5.9324
G01 X1.0227 Y5.9545
G01 X1.0128 Y5.9713
G01 X1.0074 Y5.9794
G01 X0.9956 Y5.9951
G01 X0.9792 Y6.0132
G01 X0.9611 Y6.0296
G01 X0.9454 Y6.0414
G01 X0.9373 Y6.0468
G01 X0.9205 Y6.0567
G01 X0.9028 Y6.0652
G01 X0.8939 Y6.0689
G01 X0.8754 Y6.0754
G01 X0.8540 Y6.0809
G01 X0.8275 Y6.0850
G01 X0.8031 Y6.0861
G01 X0.7787 Y6.0850
G01 X0.7545 Y6.0814
G01 X0.7308 Y6.0754
G01 X0.7078 Y6.0672
G01 X0.6857 Y6.0567
G01 X0.6647 Y6.0442
G01 X0.6451 Y6.0296
G01 X0.6270 Y6.0132
G01 X0.6105 Y5.9951
G01 X0.5960 Y5.9755
G01 X0.5834 Y5.9545
G01 X0.5730 Y5.9324
G01 X0.5647 Y5.9094
G01 X0.5593 Y5.8880
G01 X0.5552 Y5.8615
G01 X0.5540 Y5.8371
G01 X0.5541 Y4.7978
G00 Z2.0000
G00 X1.1081 Y5.0272
G01 F60.00
G01 Z-0.0100
G01 F60.00
G01 X1.1092 Y5.0077
G01 X1.1128 Y4.9835
G01 X1.1187 Y4.9598
G01 X1.1270 Y4.9368
G01 X1.1374 Y4.9147
G01 X1.1500 Y4.8937
G01 X1.1645 Y4.8741
G01 X1.1793 Y4.8577
G01 X2.0007 Y4.0363
G01 X2.0171 Y4.0215
G01 X2.0327 Y4.0098
G01 X2.0408 Y4.0044
G01 X2.0577 Y3.9944
G01 X2.0798 Y3.9840
G01 X2.0982 Y3.9772
G01 X2.1075 Y3.9744
G01 X2.1289 Y3.9693
G01 X2.1507 Y3.9662
G01 X2.1751 Y3.9650
G01 X6.2955 Y3.9651
G01 X6.3052 Y3.9658
G01 X6.3124 Y3.9670
G01 X6.3218 Y3.9693
G01 X6.3287 Y3.9717
G01 X6.3354 Y3.9746
G01 X6.3440 Y3.9792
G01 X6.3520 Y3.9846
G01 X6.3577 Y3.9891
G01 X6.3631 Y3.9941
G01 X6.3696 Y4.0013
G01 X6.3740 Y4.0071
G01 X6.3792 Y4.0153
G01 X6.3836 Y4.0240
G01 X6.3863 Y4.0307
G01 X6.3885 Y4.0377
G01 X6.3906 Y4.0471
G01 X6.3918 Y4.0568
G01 X6.3921 Y4.0641
G01 X6.3921 Y4.3641
G01 X6.3916 Y4.3738
G01 X6.3902 Y4.3834
G01 X6.3885 Y4.3905
G01 X6.3854 Y4.3997
G01 X6.3826 Y4.4064
G01 X6.3792 Y4.4129
G01 X6.3740 Y4.4211
G01 X6.3696 Y4.4269
G01 X6.3648 Y4.4323
G01 X6.3596 Y4.4374
G01 X6.3520 Y4.4436
G01 X6.3460 Y4.4477
G01 X6.3397 Y4.4514
G01 X6.3332 Y4.4546
G01 X6.3264 Y4.4573
G01 X6.3195 Y4.4595
G01 X6.3100 Y4.4616
G01 X6.3028 Y4.4626
G01 X6.2931 Y4.4631
G01 X5.7931 Y4.4631
G01 X2.2782 Y4.4631
G01 X1.6061 Y5.1352
G01 X1.6061 Y5.7101
G01 X1.6050 Y5.7345
G01 X1.6022 Y5.7539
G01 X1.6003 Y5.7634
G01 X1.5954 Y5.7824
G01 X1.5881 Y5.8031
G01 X1.5852 Y5.8098
G01 X1.5756 Y5.8296
G01 X1.5642 Y5.8485
G01 X1.5526 Y5.8643
G01 X1.5464 Y5.8718
G01 X1.5315 Y5.8879
G01 X1.5151 Y5.9026
G01 X1.4994 Y5.9144
G01 X1.4913 Y5.9198
G01 X1.4745 Y5.9297
G01 X1.4524 Y5.9402
G01 X1.4340 Y5.9469
G01 X1.4247 Y5.9497
G01 X1.4033 Y5.9548
G01 X1.3815 Y5.9580
G01 X1.3571 Y5.9591
G01 X1.3327 Y5.9580
G01 X1.3085 Y5.9544
G01 X1.2848 Y5.9484
G01 X1.2618 Y5.9402
G01 X1.2397 Y5.9297
G01 X1.2228 Y5.9198
G01 X1.2147 Y5.9144
G01 X1.2010 Y5.9041
G01 X1.1954 Y5.8994
G01 X1.1793 Y5.8845
G01 X1.1630 Y5.8662
G01 X1.1500 Y5.8485
G01 X1.1374 Y5.8275
G01 X1.1270 Y5.8054
G01 X1.1195 Y5.7847
G01 X1.1139 Y5.7634
G01 X1.1120 Y5.7539
G01 X1.1092 Y5.7345
G01 X1.1080 Y5.7125
G01 X1.1081 Y5.0272
G00 Z2.0000
G00 X1.7431 Y5.1757
G01 F60.00
G01 Z-0.0100
G01 F60.00
G01 X1.7442 Y5.1562
G01 X1.7478 Y5.1320
G01 X1.7537 Y5.1083
G01 X1.7620 Y5.0853
G01 X1.7724 Y5.0632
G01 X1.7850 Y5.0422
G01 X1.7995 Y5.0226
G01 X1.8143 Y5.0062
G01 X2.2825 Y4.5380
G01 X2.2987 Y4.5231
G01 X2.3162 Y4.5098
G01 X2.3243 Y4.5044
G01 X2.3412 Y4.4944
G01 X2.3633 Y4.4840
G01 X2.3817 Y4.4772
G01 X2.3910 Y4.4744
G01 X2.4100 Y4.4698
G01 X2.4317 Y4.4665
G01 X2.4586 Y4.4650
G01 X6.2955 Y4.4651
G01 X6.3028 Y4.4656
G01 X6.3124 Y4.4670
G01 X6.3218 Y4.4693
G01 X6.3310 Y4.4726
G01 X6.3397 Y4.4768
G01 X6.3460 Y4.4804
G01 X6.3520 Y4.4846
G01 X6.3596 Y4.4907
G01 X6.3648 Y4.4958
G01 X6.3711 Y4.5032
G01 X6.3767 Y4.5111
G01 X6.3815 Y4.5196
G01 X6.3845 Y4.5262
G01 X6.3878 Y4.5353
G01 X6.3897 Y4.5424
G01 X6.3913 Y4.5520
G01 X6.3921 Y4.5641
G01 X6.3921 Y4.8641
G01 X6.3913 Y4.8762
G01 X6.3897 Y4.8858
G01 X6.3878 Y4.8928
G01 X6.3854 Y4.8997
G01 X6.3826 Y4.9064
G01 X6.3792 Y4.9129
G01 X6.3740 Y4.9211
G01 X6.3696 Y4.9269
G01 X6.3648 Y4.9323
G01 X6.3596 Y4.9374
G01 X6.3520 Y4.9436
G01 X6.3460 Y4.9477
G01 X6.3397 Y4.9514
G01 X6.3332 Y4.9546
G01 X6.3264 Y4.9573
G01 X6.3195 Y4.9595
G01 X6.3100 Y4.9616
G01 X6.3028 Y4.9626
G01 X6.2931 Y4.9631
G01 X5.7931 Y4.9631
G01 X2.5617 Y4.9631
G01 X2.2411 Y5.2837
G01 X2.2411 Y5.3315
G01 X2.2400 Y5.3535
G01 X2.2364 Y5.3777
G01 X2.2311 Y5.3990
G01 X2.2222 Y5.4244
G01 X2.2117 Y5.4465
G01 X2.1992 Y5.4675
G01 X2.1876 Y5.4833
G01 X2.1814 Y5.4908
G01 X2.1682 Y5.5052
G01 X2.1501 Y5.5216
G01 X2.1305 Y5.5362
G01 X2.1095 Y5.5487
G01 X2.0874 Y5.5592
G01 X2.0644 Y5.5674
G01 X2.0407 Y5.5734
G01 X2.0189 Y5.5767
G01 X2.0116 Y5.5773
G01 X1.9896 Y5.5781
G01 X1.9677 Y5.5770
G01 X1.9483 Y5.5742
G01 X1.9387 Y5.5723
G01 X1.9198 Y5.5674
G01 X1.9013 Y5.5609
G01 X1.8923 Y5.5572
G01 X1.8747 Y5.5487
G01 X1.8578 Y5.5388
G01 X1.8497 Y5.5334
G01 X1.8341 Y5.5216
G01 X1.8195 Y5.5085
G01 X1.8126 Y5.5017
G01 X1.7995 Y5.4871
G01 X1.7864 Y5.4695
G01 X1.7724 Y5.4465
G01 X1.7611 Y5.4221
G01 X1.7545 Y5.4037
G01 X1.7524 Y5.3967
G01 X1.7478 Y5.3777
G01 X1.7448 Y5.3583
G01 X1.7438 Y5.3486
G01 X1.7430 Y5.3291
G01 X1.7431 Y5.1757
G00 Z2.0000
G00 X2.4510 Y5.1530
G01 F60.00
G01 Z-0.0100
G01 F60.00
G01 X2.5677 Y5.0363
G01 X2.5841 Y5.0215
G01 X2.6037 Y5.0070
G01 X2.6247 Y4.9944
G01 X2.6423 Y4.9859
G01 X2.6513 Y4.9822
G01 X2.6698 Y4.9757
G01 X2.6887 Y4.9709
G01 X2.6983 Y4.9690
G01 X2.7177 Y4.9662
G01 X2.7372 Y4.9651
G01 X6.2979 Y4.9652
G01 X6.3076 Y4.9661
G01 X6.3148 Y4.9675
G01 X6.3241 Y4.9701
G01 X6.3310 Y4.9726
G01 X6.3376 Y4.9756
G01 X6.3440 Y4.9792
G01 X6.3501 Y4.9831
G01 X6.3577 Y4.9891
G01 X6.3631 Y4.9941
G01 X6.3696 Y5.0013
G01 X6.3740 Y5.0071
G01 X6.3780 Y5.0132
G01 X6.3815 Y5.0196
G01 X6.3845 Y5.0262
G01 X6.3871 Y5.0330
G01 X6.3897 Y5.0424
G01 X6.3916 Y5.0544
G01 X6.3921 Y5.0641
G01 X6.3920 Y5.3689
G01 X6.3910 Y5.3786
G01 X6.3891 Y5.3881
G01 X6.3863 Y5.3974
G01 X6.3826 Y5.4064
G01 X6.3792 Y5.4129
G01 X6.3740 Y5.4211
G01 X6.3680 Y5.4287
G01 X6.3613 Y5.4358
G01 X6.3540 Y5.4421
G01 X6.3460 Y5.4477
G01 X6.3397 Y5.4514
G01 X6.3310 Y5.4555
G01 X6.3241 Y5.4581
G01 X6.3148 Y5.4607
G01 X6.3052 Y5.4623
G01 X6.2955 Y5.4630
G01 X2.8452 Y5.4631
G01 X2.8015 Y5.5069
G01 X2.7851 Y5.5216
G01 X2.7655 Y5.5362
G01 X2.7487 Y5.5463
G01 X2.7401 Y5.5509
G01 X2.7224 Y5.5592
G01 X2.7040 Y5.5659
G01 X2.6947 Y5.5687
G01 X2.6757 Y5.5734
G01 X2.6563 Y5.5764
G01 X2.6466 Y5.5773
G01 X2.6271 Y5.5781
G01 X2.6075 Y5.5773
G01 X2.5978 Y5.5764
G01 X2.5761 Y5.5729
G01 X2.5548 Y5.5674
G01 X2.5363 Y5.5609
G01 X2.5273 Y5.5572
G01 X2.5097 Y5.5487
G01 X2.4928 Y5.5388
G01 X2.4847 Y5.5334
G01 X2.4691 Y5.5216
G01 X2.4527 Y5.5069
G01 X2.4377 Y5.4908
G01 X2.4330 Y5.4852
G01 X2.4200 Y5.4675
G01 X2.4086 Y5.4486
G01 X2.3989 Y5.4288
G01 X2.3952 Y5.4199
G01 X2.3887 Y5.4014
G01 X2.3839 Y5.3824
G01 X2.3820 Y5.3729
G01 X2.3792 Y5.3535
G01 X2.3780 Y5.3291
G01 X2.3788 Y5.3095
G01 X2.3798 Y5.2998
G01 X2.3828 Y5.2805
G01 X2.3887 Y5.2568
G01 X2.3952 Y5.2383
G01 X2.3989 Y5.2293
G01 X2.4074 Y5.2117
G01 X2.4174 Y5.1948
G01 X2.4228 Y5.1867
G01 X2.4345 Y5.1711
G01 X2.4510 Y5.1530
G00 Z2.0000
G00 X1.9430 Y6.0420
G01 F60.00
G01 Z-0.0100
G01 F60.00
G01 X1.9487 Y6.0363
G01 X1.9632 Y6.0231
G01 X1.9827 Y6.0084
G01 X2.0057 Y5.9944
G01 X2.0255 Y5.9849
G01 X2.0508 Y5.9757
G01 X2.0745 Y5.9698
G01 X2.0987 Y5.9662
G01 X2.1206 Y5.9650
G01 X6.2931 Y5.9651
G01 X6.3028 Y5.9656
G01 X6.3124 Y5.9670
G01 X6.3195 Y5.9687
G01 X6.3264 Y5.9709
G01 X6.3332 Y5.9736
G01 X6.3397 Y5.9768
G01 X6.3460 Y5.9804
G01 X6.3520 Y5.9846
G01 X6.3577 Y5.9891
G01 X6.3631 Y5.9941
G01 X6.3680 Y5.9994
G01 X6.3726 Y6.0051
G01 X6.3767 Y6.0111
G01 X6.3804 Y6.0174
G01 X6.3836 Y6.0240
G01 X6.3863 Y6.0307
G01 X6.3885 Y6.0377
G01 X6.3902 Y6.0448
G01 X6.3916 Y6.0544
G01 X6.3921 Y6.0641
G01 X6.3920 Y6.3665
G01 X6.3913 Y6.3762
G01 X6.3897 Y6.3858
G01 X6.3878 Y6.3928
G01 X6.3845 Y6.4020
G01 X6.3804 Y6.4107
G01 X6.3767 Y6.4170
G01 X6.3711 Y6.4250
G01 X6.3664 Y6.4306
G01 X6.3596 Y6.4374
G01 X6.3540 Y6.4421
G01 X6.3460 Y6.4477
G01 X6.3397 Y6.4514
G01 X6.3310 Y6.4555
G01 X6.3241 Y6.4581
G01 X6.3148 Y6.4607
G01 X6.3052 Y6.4623
G01 X6.2931 Y6.4631
G01 X2.1632 Y6.4631
G01 X2.1507 Y6.4650
G01 X5.7931 Y6.4650
G01 X6.2931 Y6.4651
G01 X6.3028 Y6.4656
G01 X6.3100 Y6.4665
G01 X6.3171 Y6.4680
G01 X6.3241 Y6.4701
G01 X6.3332 Y6.4736
G01 X6.3397 Y6.4768
G01 X6.3460 Y6.4804
G01 X6.3520 Y6.4846
G01 X6.3596 Y6.4907
G01 X6.3648 Y6.4958
G01 X6.3711 Y6.5032
G01 X6.3754 Y6.5091
G01 X6.3792 Y6.5153
G01 X6.3826 Y6.5217
G01 X6.3854 Y6.5284
G01 X6.3885 Y6.5377
G01 X6.3902 Y6.5448
G01 X6.3916 Y6.5544
G01 X6.3921 Y6.5641
G01 X6.3921 Y6.8641
G01 X6.3916 Y6.8738
G01 X6.3902 Y6.8834
G01 X6.3885 Y6.8905
G01 X6.3854 Y6.8997
G01 X6.3815 Y6.9086
G01 X6.3780 Y6.9150
G01 X6.3740 Y6.9211
G01 X6.3680 Y6.9287
G01 X6.3613 Y6.9358
G01 X6.3559 Y6.9406
G01 X6.3501 Y6.9450
G01 X6.3440 Y6.9490
G01 X6.3376 Y6.9525
G01 X6.3287 Y6.9564
G01 X6.3218 Y6.9588
G01 X6.3124 Y6.9612
G01 X6.3028 Y6.9626
G01 X6.2955 Y6.9630
G01 X2.1493 Y6.9631
G01 X2.1249 Y6.9620
G01 X2.1007 Y6.9584
G01 X2.0770 Y6.9524
G01 X2.0585 Y6.9459
G01 X2.0495 Y6.9422
G01 X2.0319 Y6.9337
G01 X2.0150 Y6.9238
G01 X2.0069 Y6.9184
G01 X1.9913 Y6.9066
G01 X1.9732 Y6.8902
G01 X1.9567 Y6.8721
G01 X1.9450 Y6.8564
G01 X1.9396 Y6.8483
G01 X1.9296 Y6.8315
G01 X1.9192 Y6.8094
G01 X1.9124 Y6.7910
G01 X1.9096 Y6.7817
G01 X1.9045 Y6.7603
G01 X1.9014 Y6.7385
G01 X1.9002 Y6.7141
G01 X1.9014 Y6.6897
G01 X1.9055 Y6.6631
G01 X1.9109 Y6.6418
G01 X1.9201 Y6.6165
G01 X1.9308 Y6.5945
G01 X1.9409 Y6.5777
G01 X1.9450 Y6.5717
G01 X1.9583 Y6.5542
G01 X1.9749 Y6.5363
G01 X1.9932 Y6.5200
G01 X2.0089 Y6.5084
G01 X2.0150 Y6.5044
G01 X2.0340 Y6.4933
G01 X2.0517 Y6.4849
G01 X2.0585 Y6.4822
G01 X2.0747 Y6.4765
G01 X2.0817 Y6.4744
G01 X2.1007 Y6.4698
G01 X2.1178 Y6.4671
G01 X2.0947 Y6.4660
G01 X2.0753 Y6.4632
G01 X2.0657 Y6.4613
G01 X2.0468 Y6.4564
G01 X2.0283 Y6.4499
G01 X2.0193 Y6.4462
G01 X2.0017 Y6.4377
G01 X1.9807 Y6.4252
G01 X1.9649 Y6.4136
G01 X1.9574 Y6.4074
G01 X1.9430 Y6.3942
G01 X1.9265 Y6.3761
G01 X1.9148 Y6.3604
G01 X1.9094 Y6.3523
G01 X1.8994 Y6.3355
G01 X1.8890 Y6.3134
G01 X1.8807 Y6.2904
G01 X1.8759 Y6.2714
G01 X1.8740 Y6.2619
G01 X1.8712 Y6.2425
G01 X1.8700 Y6.2181
G01 X1.8708 Y6.1985
G01 X1.8718 Y6.1888
G01 X1.8748 Y6.1695
G01 X1.8807 Y6.1458
G01 X1.8872 Y6.1273
G01 X1.8909 Y6.1183
G01 X1.8994 Y6.1007
G01 X1.9120 Y6.0797
G01 X1.9235 Y6.0639
G01 X1.9297 Y6.0564
G01 X1.9430 Y6.0420
G00 Z2.0000
G00 X2.0700 Y7.0580
G01 F60.00
G01 Z-0.0100
G01 F60.00
G01 X2.0917 Y7.0363
G01 X2.1100 Y7.0200
G01 X2.1297 Y7.0057
G01 X2.1465 Y6.9956
G01 X2.1530 Y6.9922
G01 X2.1685 Y6.9849
G01 X2.1753 Y6.9822
G01 X2.1938 Y6.9757
G01 X2.2127 Y6.9709
G01 X2.2199 Y6.9693
G01 X2.2392 Y6.9665
G01 X2.2636 Y6.9650
G01 X6.2931 Y6.9651
G01 X6.3028 Y6.9656
G01 X6.3124 Y6.9670
G01 X6.3195 Y6.9687
G01 X6.3264 Y6.9709
G01 X6.3332 Y6.9736
G01 X6.3419 Y6.9779
G01 X6.3501 Y6.9831
G01 X6.3559 Y6.9875
G01 X6.3613 Y6.9924
G01 X6.3664 Y6.9976
G01 X6.3711 Y7.0032
G01 X6.3754 Y7.0091
G01 X6.3792 Y7.0153
G01 X6.3836 Y7.0240
G01 X6.3863 Y7.0307
G01 X6.3885 Y7.0377
G01 X6.3902 Y7.0448
G01 X6.3913 Y7.0520
G01 X6.3921 Y7.0641
G01 X6.3920 Y7.3689
G01 X6.3913 Y7.3762
G01 X6.3902 Y7.3834
G01 X6.3885 Y7.3905
G01 X6.3863 Y7.3974
G01 X6.3836 Y7.4042
G01 X6.3804 Y7.4107
G01 X6.3767 Y7.4170
G01 X6.3726 Y7.4230
G01 X6.3664 Y7.4306
G01 X6.3596 Y7.4374
G01 X6.3520 Y7.4436
G01 X6.3419 Y7.4502
G01 X6.3332 Y7.4546
G01 X6.3241 Y7.4581
G01 X6.3148 Y7.4607
G01 X6.3028 Y7.4626
G01 X6.2931 Y7.4631
G01 X5.9453 Y7.4631
G01 X5.9479 Y7.4651
G01 X6.2931 Y7.4651
G01 X6.3004 Y7.4653
G01 X6.3100 Y7.4665
G01 X6.3171 Y7.4680
G01 X6.3241 Y7.4701
G01 X6.3332 Y7.4736
G01 X6.3419 Y7.4779
G01 X6.3481 Y7.4818
G01 X6.3540 Y7.4860
G01 X6.3613 Y7.4924
G01 X6.3680 Y7.4994
G01 X6.3740 Y7.5071
G01 X6.3780 Y7.5132
G01 X6.3826 Y7.5217
G01 X6.3863 Y7.5307
G01 X6.3891 Y7.5400
G01 X6.3906 Y7.5471
G01 X6.3918 Y7.5568
G01 X6.3921 Y7.5641
G01 X6.3921 Y7.8641
G01 X6.3916 Y7.8738
G01 X6.3902 Y7.8834
G01 X6.3885 Y7.8905
G01 X6.3854 Y7.8997
G01 X6.3826 Y7.9064
G01 X6.3792 Y7.9129
G01 X6.3740 Y7.9211
G01 X6.3696 Y7.9269
G01 X6.3648 Y7.9323
G01 X6.3577 Y7.9390
G01 X6.3520 Y7.9436
G01 X6.3440 Y7.9490
G01 X6.3376 Y7.9525
G01 X6.3287 Y7.9564
G01 X6.3218 Y7.9588
G01 X6.3148 Y7.9607
G01 X6.3052 Y7.9623
G01 X6.2979 Y7.9630
G01 X5.2906 Y7.9630
G01 X5.2810 Y7.9623
G01 X5.2738 Y7.9612
G01 X5.2643 Y7.9588
G01 X5.2574 Y7.9564
G01 X5.2507 Y7.9536
G01 X5.2422 Y7.9490
G01 X5.2341 Y7.9436
G01 X5.2284 Y7.9390
G01 X5.2214 Y7.9323
G01 X5.2136 Y7.9230
G01 X5.2082 Y7.9150
G01 X5.2036 Y7.9064
G01 X5.1999 Y7.8974
G01 X5.1965 Y7.8858
G01 X5.1948 Y7.8762
G01 X5.1941 Y7.8665
G01 X5.1941 Y7.5641
G01 X5.1943 Y7.5568
G01 X5.1951 Y7.5495
G01 X5.1970 Y7.5400
G01 X5.1991 Y7.5330
G01 X5.2016 Y7.5262
G01 X5.2046 Y7.5196
G01 X5.2082 Y7.5132
G01 X5.2136 Y7.5051
G01 X5.2181 Y7.4994
G01 X5.2248 Y7.4924
G01 X5.2322 Y7.4860
G01 X5.2401 Y7.4804
G01 X5.2486 Y7.4756
G01 X5.2574 Y7.4717
G01 X5.2667 Y7.4687
G01 X5.2761 Y7.4665
G01 X5.2858 Y7.4653
G01 X5.2931 Y7.4651
G01 X5.6382 Y7.4651
G01 X5.6408 Y7.4631
G01 X2.3438 Y7.4631
G01 X2.3230 Y7.4709
G01 X2.3137 Y7.4737
G01 X2.2947 Y7.4784
G01 X2.2705 Y7.4820
G01 X2.2461 Y7.4831
G01 X2.2265 Y7.4823
G01 X2.2168 Y7.4814
G01 X2.1975 Y7.4784
G01 X2.1785 Y7.4737
G01 X2.1692 Y7.4709
G01 X2.1508 Y7.4642
G01 X2.1330 Y7.4559
G01 X2.1244 Y7.4513
G01 X2.1077 Y7.4412
G01 X2.0919 Y7.4296
G01 X2.0844 Y7.4234
G01 X2.0700 Y7.4102
G01 X2.0567 Y7.3958
G01 X2.0505 Y7.3883
G01 X2.0390 Y7.3725
G01 X2.0264 Y7.3515
G01 X2.0179 Y7.3338
G01 X2.0142 Y7.3249
G01 X2.0077 Y7.3064
G01 X2.0029 Y7.2874
G01 X2.0010 Y7.2779
G01 X1.9982 Y7.2585
G01 X1.9970 Y7.2341
G01 X1.9978 Y7.2145
G01 X1.9988 Y7.2048
G01 X2.0018 Y7.1855
G01 X2.0064 Y7.1665
G01 X2.0092 Y7.1572
G01 X2.0160 Y7.1388
G01 X2.0242 Y7.1210
G01 X2.0288 Y7.1124
G01 X2.0390 Y7.0957
G01 X2.0505 Y7.0799
G01 X2.0567 Y7.0724
G01 X2.0700 Y7.0580
G00 Z2.0000
G00 X2.0700 Y7.8780
G01 F60.00
G01 Z-0.0100
G01 F60.00
G01 X2.1140 Y7.8340
G01 X2.1302 Y7.8191
G01 X2.1517 Y7.8030
G01 X2.1727 Y7.7904
G01 X2.1948 Y7.7800
G01 X2.2132 Y7.7732
G01 X2.2225 Y7.7704
G01 X2.2391 Y7.7663
G01 X2.2463 Y7.7650
G01 X2.2657 Y7.7622
G01 X2.2852 Y7.7611
G01 X4.6391 Y7.7610
G01 X4.6659 Y7.7625
G01 X4.6853 Y7.7653
G01 X4.6924 Y7.7669
G01 X4.7114 Y7.7717
G01 X4.7299 Y7.7782
G01 X4.7388 Y7.7819
G01 X4.7565 Y7.7904
G01 X4.7795 Y7.8044
G01 X4.7971 Y7.8175
G01 X4.8135 Y7.8323
G01 X4.9462 Y7.9650
G01 X6.2931 Y7.9651
G01 X6.3028 Y7.9656
G01 X6.3100 Y7.9665
G01 X6.3171 Y7.9680
G01 X6.3264 Y7.9709
G01 X6.3332 Y7.9736
G01 X6.3397 Y7.9768
G01 X6.3501 Y7.9831
G01 X6.3559 Y7.9875
G01 X6.3613 Y7.9924
G01 X6.3696 Y8.0013
G01 X6.3767 Y8.0111
G01 X6.3804 Y8.0174
G01 X6.3836 Y8.0240
G01 X6.3863 Y8.0307
G01 X6.3885 Y8.0377
G01 X6.3910 Y8.0495
G01 X6.3918 Y8.0568
G01 X6.3921 Y8.0641
G01 X6.3921 Y8.3641
G01 X6.3913 Y8.3762
G01 X6.3897 Y8.3858
G01 X6.3878 Y8.3928
G01 X6.3845 Y8.4020
G01 X6.3804 Y8.4107
G01 X6.3767 Y8.4170
G01 X6.3711 Y8.4250
G01 X6.3648 Y8.4323
G01 X6.3596 Y8.4374
G01 X6.3520 Y8.4436
G01 X6.3460 Y8.4477
G01 X6.3397 Y8.4514
G01 X6.3310 Y8.4555
G01 X6.3241 Y8.4581
G01 X6.3148 Y8.4607
G01 X6.3052 Y8.4623
G01 X6.2979 Y8.4630
G01 X4.8406 Y8.4631
G01 X4.8187 Y8.4620
G01 X4.7993 Y8.4592
G01 X4.7897 Y8.4573
G01 X4.7708 Y8.4524
G01 X4.7523 Y8.4459
G01 X4.7433 Y8.4422
G01 X4.7257 Y8.4337
G01 X4.7047 Y8.4212
G01 X4.6851 Y8.4066
G01 X4.6687 Y8.3919
G01 X4.5359 Y8.2592
G01 X2.3873 Y8.2592
G01 X2.3824 Y8.2625
G01 X2.3656 Y8.2726
G01 X2.3458 Y8.2822
G01 X2.3369 Y8.2859
G01 X2.3207 Y8.2917
G01 X2.3137 Y8.2937
G01 X2.2923 Y8.2988
G01 X2.2681 Y8.3022
G01 X2.2461 Y8.3031
G01 X2.2192 Y8.3017
G01 X2.1975 Y8.2984
G01 X2.1785 Y8.2937
G01 X2.1692 Y8.2909
G01 X2.1508 Y8.2842
G01 X2.1287 Y8.2737
G01 X2.1118 Y8.2638
G01 X2.1037 Y8.2584
G01 X2.0881 Y8.2466
G01 X2.0700 Y8.2302
G01 X2.0567 Y8.2158
G01 X2.0505 Y8.2083
G01 X2.0390 Y8.1925
G01 X2.0288 Y8.1757
G01 X2.0242 Y8.1671
G01 X2.0160 Y8.1494
G01 X2.0092 Y8.1310
G01 X2.0064 Y8.1217
G01 X2.0018 Y8.1027
G01 X1.9988 Y8.0833
G01 X1.9978 Y8.0736
G01 X1.9970 Y8.0541
G01 X1.9980 Y8.0321
G01 X2.0010 Y8.0103
G01 X2.0029 Y8.0007
G01 X2.0077 Y7.9818
G01 X2.0142 Y7.9633
G01 X2.0179 Y7.9543
G01 X2.0264 Y7.9367
G01 X2.0364 Y7.9198
G01 X2.0418 Y7.9117
G01 X2.0535 Y7.8961
G01 X2.0700 Y7.8780
G00 Z2.0000
G00 X3.5883 Y8.3589
G01 F60.00
G01 Z-0.0100
G01 F60.00
G01 X3.6173 Y8.3453
G01 X3.6542 Y8.3321
G01 X3.6922 Y8.3226
G01 X3.7261 Y8.3174
G01 X3.7358 Y8.3165
G01 X3.7652 Y8.3150
G01 X3.7749 Y8.3150
G01 X3.8092 Y8.3168
G01 X3.8503 Y8.3231
G01 X3.8859 Y8.3321
G01 X3.9228 Y8.3453
G01 X3.9582 Y8.3621
G01 X3.9877 Y8.3796
G01 X3.9958 Y8.3850
G01 X4.0233 Y8.4055
G01 X4.0488 Y8.4285
G01 X4.0557 Y8.4354
G01 X4.0754 Y8.4572
G01 X4.0818 Y8.4650
G01 X6.2931 Y8.4651
G01 X6.3028 Y8.4656
G01 X6.3124 Y8.4670
G01 X6.3195 Y8.4687
G01 X6.3264 Y8.4709
G01 X6.3332 Y8.4736
G01 X6.3397 Y8.4768
G01 X6.3460 Y8.4804
G01 X6.3520 Y8.4846
G01 X6.3577 Y8.4891
G01 X6.3631 Y8.4941
G01 X6.3680 Y8.4994
G01 X6.3726 Y8.5051
G01 X6.3767 Y8.5111
G01 X6.3804 Y8.5174
G01 X6.3836 Y8.5240
G01 X6.3863 Y8.5307
G01 X6.3885 Y8.5377
G01 X6.3902 Y8.5448
G01 X6.3916 Y8.5544
G01 X6.3921 Y8.5641
G01 X6.3921 Y8.8641
G01 X6.3916 Y8.8738
G01 X6.3902 Y8.8834
G01 X6.3885 Y8.8905
G01 X6.3854 Y8.8997
G01 X6.3815 Y8.9086
G01 X6.3780 Y8.9150
G01 X6.3740 Y8.9211
G01 X6.3696 Y8.9269
G01 X6.3648 Y8.9323
G01 X6.3577 Y8.9390
G01 X6.3520 Y8.9436
G01 X6.3440 Y8.9490
G01 X6.3354 Y8.9536
G01 X6.3287 Y8.9564
G01 X6.3218 Y8.9588
G01 X6.3124 Y8.9612
G01 X6.3028 Y8.9626
G01 X6.2955 Y8.9630
G01 X4.0818 Y8.9631
G01 X4.0754 Y8.9710
G01 X4.0523 Y8.9963
G01 X4.0066 Y9.0420
G01 X3.9830 Y9.0634
G01 X3.9755 Y9.0696
G01 X3.9478 Y9.0900
G01 X3.9185 Y9.1077
G01 X3.9099 Y9.1123
G01 X3.8788 Y9.1268
G01 X3.8419 Y9.1400
G01 X3.8039 Y9.1496
G01 X3.7700 Y9.1547
G01 X3.7604 Y9.1557
G01 X3.7261 Y9.1572
G01 X1.1031 Y9.1572
G01 X1.0640 Y9.1553
G01 X1.0300 Y9.1504
G01 X1.0205 Y9.1485
G01 X0.9919 Y9.1413
G01 X0.9826 Y9.1385
G01 X0.9503 Y9.1268
G01 X0.9149 Y9.1101
G01 X0.8813 Y9.0900
G01 X0.8499 Y9.0666
G01 X0.8208 Y9.0403
G01 X0.7945 Y9.0113
G01 X0.7712 Y8.9798
G01 X0.7535 Y8.9505
G01 X0.7489 Y8.9419
G01 X0.7363 Y8.9153
G01 X0.7326 Y8.9063
G01 X0.7211 Y8.8739
G01 X0.7111 Y8.8336
G01 X0.7058 Y8.7972
G01 X0.7039 Y8.7581
G01 X0.7058 Y8.7190
G01 X0.7116 Y8.6802
G01 X0.7211 Y8.6422
G01 X0.7343 Y8.6053
G01 X0.7511 Y8.5699
G01 X0.7712 Y8.5363
G01 X0.7945 Y8.5049
G01 X0.8208 Y8.4758
G01 X0.8499 Y8.4495
G01 X0.8813 Y8.4262
G01 X0.9149 Y8.4061
G01 X0.9503 Y8.3893
G01 X0.9872 Y8.3761
G01 X1.0276 Y8.3661
G01 X1.0640 Y8.3608
G01 X1.1031 Y8.3589
G01 X3.5883 Y8.3589
G00 Z2.0000
G00 X5.1941 Y5.8641
G01 F60.00
G01 Z-0.0100
G01 F60.00
G01 X5.1941 Y5.5641
G01 X5.1946 Y5.5544
G01 X5.1960 Y5.5448
G01 X5.1977 Y5.5377
G01 X5.1999 Y5.5307
G01 X5.2026 Y5.5240
G01 X5.2058 Y5.5174
G01 X5.2094 Y5.5111
G01 X5.2136 Y5.5051
G01 X5.2181 Y5.4994
G01 X5.2231 Y5.4941
G01 X5.2284 Y5.4891
G01 X5.2341 Y5.4846
G01 X5.2401 Y5.4804
G01 X5.2464 Y5.4768
G01 X5.2530 Y5.4736
G01 X5.2597 Y5.4709
G01 X5.2667 Y5.4687
G01 X5.2738 Y5.4670
G01 X5.2834 Y5.4656
G01 X5.2931 Y5.4651
G01 X6.4636 Y5.4650
G01 X6.4848 Y5.4598
G01 X6.5041 Y5.4568
G01 X6.5114 Y5.4560
G01 X6.5309 Y5.4550
G01 X7.2475 Y5.4550
G01 X7.2350 Y5.4336
G01 X7.2266 Y5.4160
G01 X7.2239 Y5.4092
G01 X7.2182 Y5.3930
G01 X7.2161 Y5.3860
G01 X7.2115 Y5.3670
G01 X7.2085 Y5.3476
G01 X7.2077 Y5.3404
G01 X7.2067 Y5.3184
G01 X7.2079 Y5.2940
G01 X7.2115 Y5.2698
G01 X7.2182 Y5.2438
G01 X7.2266 Y5.2208
G01 X7.2350 Y5.2031
G01 X7.2385 Y5.1967
G01 X7.2487 Y5.1800
G01 X7.2602 Y5.1642
G01 X7.2648 Y5.1585
G01 X7.2779 Y5.1440
G01 X7.2977 Y5.1259
G01 X7.3194 Y5.1100
G01 X7.3405 Y5.0976
G01 X7.3582 Y5.0892
G01 X7.3691 Y5.0850
G01 X7.3691 Y3.9941
G01 X7.3700 Y3.9755
G01 X7.3719 Y3.9620
G01 X7.3732 Y3.9548
G01 X7.3772 Y3.9392
G01 X7.3826 Y3.9240
G01 X7.3854 Y3.9173
G01 X7.3914 Y3.9050
G01 X7.3996 Y3.8911
G01 X7.4090 Y3.8780
G01 X7.4135 Y3.8723
G01 X7.4244 Y3.8604
G01 X7.4345 Y3.8511
G01 X7.4401 Y3.8465
G01 X7.4531 Y3.8369
G01 X7.4669 Y3.8286
G01 X7.4733 Y3.8252
G01 X7.4857 Y3.8195
G01 X7.5009 Y3.8139
G01 X7.5165 Y3.8098
G01 X7.5260 Y3.8079
G01 X7.5395 Y3.8060
G01 X7.5581 Y3.8051
G01 X10.9805 Y3.8051
G01 X10.9966 Y3.8060
G01 X11.0126 Y3.8083
G01 X11.0283 Y3.8119
G01 X11.0353 Y3.8139
G01 X11.0504 Y3.8195
G01 X11.0650 Y3.8263
G01 X11.0790 Y3.8343
G01 X11.0871 Y3.8397
G01 X11.0980 Y3.8480
G01 X11.1117 Y3.8604
G01 X11.1242 Y3.8742
G01 X11.1324 Y3.8851
G01 X11.1378 Y3.8932
G01 X11.1459 Y3.9071
G01 X11.1527 Y3.9217
G01 X11.1582 Y3.9369
G01 X11.1624 Y3.9525
G01 X11.1643 Y3.9620
G01 X11.1662 Y3.9755
G01 X11.1671 Y3.9941
G01 X11.1670 Y7.4165
G01 X11.1662 Y7.4326
G01 X11.1639 Y7.4486
G01 X11.1602 Y7.4643
G01 X11.1582 Y7.4713
G01 X11.1527 Y7.4864
G01 X11.1459 Y7.5010
G01 X11.1378 Y7.5150
G01 X11.1324 Y7.5231
G01 X11.1242 Y7.5340
G01 X11.1117 Y7.5477
G01 X11.0980 Y7.5602
G01 X11.0871 Y7.5684
G01 X11.0790 Y7.5738
G01 X11.0650 Y7.5819
G01 X11.0504 Y7.5887
G01 X11.0353 Y7.5942
G01 X11.0197 Y7.5984
G01 X11.0102 Y7.6003
G01 X10.9966 Y7.6022
G01 X10.9781 Y7.6031
G01 X7.5581 Y7.6031
G01 X7.5420 Y7.6024
G01 X7.5347 Y7.6016
G01 X7.5212 Y7.5994
G01 X7.5032 Y7.5949
G01 X7.4857 Y7.5887
G01 X7.4733 Y7.5829
G01 X7.4669 Y7.5796
G01 X7.4531 Y7.5712
G01 X7.4401 Y7.5617
G01 X7.4345 Y7.5570
G01 X7.4244 Y7.5477
G01 X7.4120 Y7.5340
G01 X7.4023 Y7.5211
G01 X7.3983 Y7.5150
G01 X7.3914 Y7.5032
G01 X7.3835 Y7.4864
G01 X7.3772 Y7.4689
G01 X7.3738 Y7.4557
G01 X7.3719 Y7.4462
G01 X7.3698 Y7.4302
G01 X7.3691 Y7.4141
G01 X7.3691 Y5.9531
G01 X6.5932 Y5.9531
G01 X6.5720 Y5.9584
G01 X6.5526 Y5.9614
G01 X6.5429 Y5.9623
G01 X6.5234 Y5.9631
G01 X5.2882 Y5.9630
G01 X5.2785 Y5.9620
G01 X5.2690 Y5.9601
G01 X5.2597 Y5.9573
G01 X5.2507 Y5.9536
G01 X5.2422 Y5.9490
G01 X5.2341 Y5.9436
G01 X5.2284 Y5.9390
G01 X5.2214 Y5.9323
G01 X5.2150 Y5.9250
G01 X5.2094 Y5.9170
G01 X5.2058 Y5.9107
G01 X5.2016 Y5.9020
G01 X5.1983 Y5.8928
G01 X5.1960 Y5.8834
G01 X5.1946 Y5.8738
G01 X5.1941 Y5.8641
G00 Z2.0000
G00 X6.3391 Y2.4127
G01 F60.00
G01 Z-0.0100
G01 F60.00
G01 X6.3390 Y0.7331
G01 X6.3402 Y0.7087
G01 X6.3430 Y0.6893
G01 X6.3449 Y0.6797
G01 X6.3505 Y0.6585
G01 X6.3571 Y0.6400
G01 X6.3599 Y0.6333
G01 X6.3684 Y0.6157
G01 X6.3784 Y0.5988
G01 X6.3824 Y0.5927
G01 X6.3940 Y0.5770
G01 X6.4103 Y0.5587
G01 X6.8960 Y0.0730
G01 X6.9141 Y0.0565
G01 X6.9297 Y0.0448
G01 X6.9378 Y0.0394
G01 X6.9547 Y0.0294
G01 X6.9723 Y0.0209
G01 X6.9813 Y0.0172
G01 X6.9998 Y0.0107
G01 X7.0235 Y0.0048
G01 X7.0428 Y0.0018
G01 X7.0525 Y0.0008
G01 X7.0721 Y0.0000
G01 X7.0916 Y0.0008
G01 X7.1013 Y0.0018
G01 X7.1207 Y0.0048
G01 X7.1467 Y0.0115
G01 X7.1674 Y0.0190
G01 X7.1916 Y0.0306
G01 X7.2125 Y0.0434
G01 X7.2282 Y0.0550
G01 X7.2338 Y0.0597
G01 X7.2482 Y0.0730
G01 X7.2614 Y0.0874
G01 X7.2661 Y0.0930
G01 X7.2764 Y0.1067
G01 X7.2805 Y0.1127
G01 X7.2906 Y0.1295
G01 X7.3002 Y0.1493
G01 X7.3031 Y0.1560
G01 X7.3097 Y0.1745
G01 X7.3159 Y0.1981
G01 X7.3200 Y0.2247
G01 X7.3211 Y0.2466
G01 X7.3200 Y0.2735
G01 X7.3164 Y0.2977
G01 X7.3104 Y0.3214
G01 X7.3031 Y0.3421
G01 X7.2917 Y0.3665
G01 X7.2792 Y0.3875
G01 X7.2646 Y0.4071
G01 X7.2499 Y0.4235
G01 X6.8371 Y0.8362
G01 X6.8370 Y2.9115
G01 X6.8360 Y2.9236
G01 X6.8341 Y2.9331
G01 X6.8313 Y2.9424
G01 X6.8276 Y2.9514
G01 X6.8217 Y2.9620
G01 X6.8161 Y2.9700
G01 X6.8081 Y2.9791
G01 X6.8009 Y2.9856
G01 X6.7951 Y2.9900
G01 X6.7890 Y2.9940
G01 X6.7826 Y2.9975
G01 X6.7760 Y3.0005
G01 X6.7691 Y3.0031
G01 X6.7621 Y3.0051
G01 X6.7550 Y3.0066
G01 X6.7454 Y3.0078
G01 X6.7381 Y3.0081
G01 X6.4356 Y3.0080
G01 X6.4235 Y3.0070
G01 X6.4140 Y3.0051
G01 X6.4047 Y3.0023
G01 X6.3957 Y2.9986
G01 X6.3851 Y2.9927
G01 X6.3772 Y2.9871
G01 X6.3698 Y2.9808
G01 X6.3615 Y2.9719
G01 X6.3558 Y2.9641
G01 X6.3519 Y2.9579
G01 X6.3486 Y2.9514
G01 X6.3457 Y2.9447
G01 X6.3433 Y2.9378
G01 X6.3415 Y2.9308
G01 X6.3398 Y2.9212
G01 X6.3392 Y2.9139
G01 X6.3391 Y2.4127
G00 Z2.0000
G00 X6.8391 Y2.4127
G01 F60.00
G01 Z-0.0100
G01 F60.00
G01 X6.8390 Y1.4566
G01 X6.8402 Y1.4347
G01 X6.8438 Y1.4105
G01 X6.8497 Y1.3868
G01 X6.8571 Y1.3660
G01 X6.8684 Y1.3417
G01 X6.8797 Y1.3227
G01 X6.8940 Y1.3030
G01 X6.9086 Y1.2865
G01 X7.2040 Y0.9909
G01 X7.2040 Y0.7571
G01 X7.2048 Y0.7375
G01 X7.2058 Y0.7278
G01 X7.2088 Y0.7085
G01 X7.2134 Y0.6895
G01 X7.2162 Y0.6802
G01 X7.2230 Y0.6618
G01 X7.2334 Y0.6397
G01 X7.2434 Y0.6228
G01 X7.2488 Y0.6147
G01 X7.2605 Y0.5991
G01 X7.2770 Y0.5810
G01 X7.2914 Y0.5677
G01 X7.2989 Y0.5615
G01 X7.3147 Y0.5500
G01 X7.3357 Y0.5374
G01 X7.3533 Y0.5289
G01 X7.3623 Y0.5252
G01 X7.3785 Y0.5195
G01 X7.3855 Y0.5174
G01 X7.4045 Y0.5128
G01 X7.4287 Y0.5092
G01 X7.4531 Y0.5080
G01 X7.4726 Y0.5088
G01 X7.4823 Y0.5098
G01 X7.5040 Y0.5133
G01 X7.5254 Y0.5187
G01 X7.5461 Y0.5261
G01 X7.5705 Y0.5374
G01 X7.5935 Y0.5514
G01 X7.6092 Y0.5630
G01 X7.6148 Y0.5677
G01 X7.6292 Y0.5810
G01 X7.6424 Y0.5954
G01 X7.6486 Y0.6029
G01 X7.6602 Y0.6187
G01 X7.6727 Y0.6397
G01 X7.6832 Y0.6618
G01 X7.6899 Y0.6802
G01 X7.6927 Y0.6895
G01 X7.6974 Y0.7085
G01 X7.7004 Y0.7278
G01 X7.7012 Y0.7351
G01 X7.7021 Y0.7546
G01 X7.7021 Y1.0941
G01 X7.7010 Y1.1185
G01 X7.6982 Y1.1379
G01 X7.6963 Y1.1474
G01 X7.6914 Y1.1664
G01 X7.6832 Y1.1894
G01 X7.6727 Y1.2115
G01 X7.6628 Y1.2283
G01 X7.6574 Y1.2364
G01 X7.6456 Y1.2521
G01 X7.6292 Y1.2702
G01 X7.3371 Y1.5622
G01 X7.3370 Y2.9115
G01 X7.3360 Y2.9236
G01 X7.3341 Y2.9331
G01 X7.3313 Y2.9424
G01 X7.3276 Y2.9514
G01 X7.3217 Y2.9620
G01 X7.3161 Y2.9700
G01 X7.3081 Y2.9791
G01 X7.3009 Y2.9856
G01 X7.2951 Y2.9900
G01 X7.2890 Y2.9940
G01 X7.2826 Y2.9975
G01 X7.2760 Y3.0005
G01 X7.2691 Y3.0031
G01 X7.2621 Y3.0051
G01 X7.2550 Y3.0066
G01 X7.2454 Y3.0078
G01 X7.2381 Y3.0081
G01 X6.9356 Y3.0080
G01 X6.9235 Y3.0070
G01 X6.9140 Y3.0051
G01 X6.9047 Y3.0023
G01 X6.8957 Y2.9986
G01 X6.8851 Y2.9927
G01 X6.8772 Y2.9871
G01 X6.8698 Y2.9808
G01 X6.8615 Y2.9719
G01 X6.8558 Y2.9641
G01 X6.8519 Y2.9579
G01 X6.8486 Y2.9514
G01 X6.8457 Y2.9447
G01 X6.8433 Y2.9378
G01 X6.8415 Y2.9308
G01 X6.8398 Y2.9212
G01 X6.8392 Y2.9139
G01 X6.8391 Y2.4127
G00 Z2.0000
G00 X7.8391 Y2.5613
G01 F60.00
G01 Z-0.0100
G01 F60.00
G01 X7.8371 Y2.5639
G01 X7.8371 Y2.9091
G01 X7.8368 Y2.9164
G01 X7.8356 Y2.9260
G01 X7.8335 Y2.9355
G01 X7.8304 Y2.9447
G01 X7.8265 Y2.9536
G01 X7.8217 Y2.9620
G01 X7.8161 Y2.9700
G01 X7.8098 Y2.9773
G01 X7.8027 Y2.9840
G01 X7.7951 Y2.9900
G01 X7.7890 Y2.9940
G01 X7.7826 Y2.9975
G01 X7.7760 Y3.0005
G01 X7.7691 Y3.0031
G01 X7.7598 Y3.0057
G01 X7.7526 Y3.0070
G01 X7.7454 Y3.0078
G01 X7.7381 Y3.0081
G01 X7.4356 Y3.0080
G01 X7.4235 Y3.0070
G01 X7.4140 Y3.0051
G01 X7.4047 Y3.0023
G01 X7.3957 Y2.9986
G01 X7.3872 Y2.9940
G01 X7.3791 Y2.9886
G01 X7.3716 Y2.9824
G01 X7.3631 Y2.9737
G01 X7.3571 Y2.9661
G01 X7.3532 Y2.9600
G01 X7.3496 Y2.9536
G01 X7.3457 Y2.9447
G01 X7.3427 Y2.9355
G01 X7.3410 Y2.9284
G01 X7.3396 Y2.9188
G01 X7.3391 Y2.9115
G01 X7.3391 Y1.9066
G01 X7.3396 Y1.8994
G01 X7.3405 Y1.8921
G01 X7.3433 Y1.8803
G01 X7.3476 Y1.8690
G01 X7.3508 Y1.8624
G01 X7.3544 Y1.8561
G01 X7.3615 Y1.8463
G01 X7.3664 Y1.8408
G01 X7.3716 Y1.8357
G01 X7.3811 Y1.8281
G01 X7.3930 Y1.8209
G01 X7.3930 Y1.6886
G01 X7.3938 Y1.6690
G01 X7.3948 Y1.6593
G01 X7.3978 Y1.6400
G01 X7.4045 Y1.6140
G01 X7.4129 Y1.5910
G01 X7.4213 Y1.5733
G01 X7.4248 Y1.5669
G01 X7.4350 Y1.5502
G01 X7.4465 Y1.5344
G01 X7.4511 Y1.5287
G01 X7.4626 Y1.5160
G01 X7.8390 Y1.1394
G01 X7.8390 Y0.7571
G01 X7.8402 Y0.7327
G01 X7.8443 Y0.7061
G01 X7.8505 Y0.6825
G01 X7.8571 Y0.6640
G01 X7.8599 Y0.6573
G01 X7.8684 Y0.6397
G01 X7.8784 Y0.6228
G01 X7.8824 Y0.6167
G01 X7.8925 Y0.6029
G01 X7.8987 Y0.5954
G01 X7.9120 Y0.5810
G01 X7.9301 Y0.5645
G01 X7.9497 Y0.5500
G01 X7.9728 Y0.5363
G01 X7.9928 Y0.5270
G01 X8.0158 Y0.5187
G01 X8.0395 Y0.5128
G01 X8.0612 Y0.5095
G01 X8.0856 Y0.5080
G01 X8.1076 Y0.5088
G01 X8.1149 Y0.5095
G01 X8.1319 Y0.5120
G01 X8.1414 Y0.5139
G01 X8.1604 Y0.5187
G01 X8.1834 Y0.5270
G01 X8.2055 Y0.5374
G01 X8.2265 Y0.5500
G01 X8.2461 Y0.5645
G01 X8.2642 Y0.5810
G01 X8.2806 Y0.5991
G01 X8.2924 Y0.6147
G01 X8.2978 Y0.6228
G01 X8.3077 Y0.6397
G01 X8.3162 Y0.6573
G01 X8.3199 Y0.6663
G01 X8.3264 Y0.6848
G01 X8.3319 Y0.7061
G01 X8.3332 Y0.7133
G01 X8.3362 Y0.7351
G01 X8.3371 Y0.7571
G01 X8.3371 Y1.1718
G01 X8.3930 Y1.1159
G01 X8.3930 Y0.5201
G01 X8.3877 Y0.5124
G01 X8.3776 Y0.4956
G01 X8.3660 Y0.4714
G01 X8.3577 Y0.4484
G01 X8.3513 Y0.4223
G01 X8.3485 Y0.4029
G01 X8.3478 Y0.3956
G01 X8.3470 Y0.3761
G01 X8.3478 Y0.3565
G01 X8.3485 Y0.3492
G01 X8.3513 Y0.3299
G01 X8.3570 Y0.3061
G01 X8.3660 Y0.2808
G01 X8.3764 Y0.2587
G01 X8.3890 Y0.2377
G01 X8.4035 Y0.2181
G01 X8.4200 Y0.2000
G01 X8.4381 Y0.1835
G01 X8.4577 Y0.1690
G01 X8.4787 Y0.1564
G01 X8.5008 Y0.1460
G01 X8.5238 Y0.1377
G01 X8.5475 Y0.1318
G01 X8.5717 Y0.1282
G01 X8.5961 Y0.1270
G01 X8.6205 Y0.1282
G01 X8.6447 Y0.1318
G01 X8.6707 Y0.1385
G01 X8.6914 Y0.1460
G01 X8.7113 Y0.1553
G01 X8.7303 Y0.1664
G01 X8.7384 Y0.1718
G01 X8.7541 Y0.1835
G01 X8.7705 Y0.1983
G01 X8.8215 Y0.2495
G01 X8.8346 Y0.2641
G01 X8.8464 Y0.2797
G01 X8.8518 Y0.2878
G01 X8.8617 Y0.3047
G01 X8.8702 Y0.3223
G01 X8.8739 Y0.3313
G01 X8.8804 Y0.3498
G01 X8.8864 Y0.3735
G01 X8.8900 Y0.3977
G01 X8.8911 Y0.4221
G01 X8.8911 Y1.2191
G01 X8.8900 Y1.2435
G01 X8.8868 Y1.2653
G01 X8.8853 Y1.2724
G01 X8.8797 Y1.2937
G01 X8.8722 Y1.3144
G01 X8.8639 Y1.3321
G01 X8.8593 Y1.3407
G01 X8.8492 Y1.3575
G01 X8.8376 Y1.3733
G01 X8.8314 Y1.3808
G01 X8.8182 Y1.3952
G01 X8.3919 Y1.8215
G01 X8.4024 Y1.8167
G01 X8.4140 Y1.8130
G01 X8.4235 Y1.8111
G01 X8.4356 Y1.8101
G01 X8.7429 Y1.8102
G01 X8.7526 Y1.8111
G01 X8.7621 Y1.8130
G01 X8.7714 Y1.8159
G01 X8.7804 Y1.8196
G01 X8.7890 Y1.8242
G01 X8.7970 Y1.8296
G01 X8.8046 Y1.8357
G01 X8.8114 Y1.8426
G01 X8.8161 Y1.8482
G01 X8.8217 Y1.8561
G01 X8.8265 Y1.8646
G01 X8.8295 Y1.8712
G01 X8.8328 Y1.8803
G01 X8.8347 Y1.8874
G01 X8.8363 Y1.8970
G01 X8.8370 Y1.9042
G01 X8.8371 Y2.3082
G01 X8.8391 Y2.3109
G01 X8.8391 Y1.9091
G01 X8.8393 Y1.9018
G01 X8.8410 Y1.8898
G01 X8.8433 Y1.8803
G01 X8.8466 Y1.8712
G01 X8.8508 Y1.8624
G01 X8.8558 Y1.8541
G01 X8.8615 Y1.8463
G01 X8.8681 Y1.8391
G01 X8.8753 Y1.8325
G01 X8.8831 Y1.8268
G01 X8.8893 Y1.8229
G01 X8.8957 Y1.8196
G01 X8.9024 Y1.8167
G01 X8.9093 Y1.8143
G01 X8.9164 Y1.8125
G01 X8.9235 Y1.8111
G01 X8.9332 Y1.8102
G01 X9.2381 Y1.8101
G01 X9.2454 Y1.8103
G01 X9.2526 Y1.8111
G01 X9.2598 Y1.8125
G01 X9.2668 Y1.8143
G01 X9.2760 Y1.8176
G01 X9.2826 Y1.8206
G01 X9.2910 Y1.8254
G01 X9.2970 Y1.8296
G01 X9.3046 Y1.8357
G01 X9.3098 Y1.8408
G01 X9.3161 Y1.8482
G01 X9.3204 Y1.8541
G01 X9.3242 Y1.8603
G01 X9.3286 Y1.8690
G01 X9.3321 Y1.8780
G01 X9.3341 Y1.8850
G01 X9.3356 Y1.8921
G01 X9.3368 Y1.9018
G01 X9.3371 Y1.9091
G01 X9.3371 Y2.9091
G01 X9.3366 Y2.9188
G01 X9.3352 Y2.9284
G01 X9.3328 Y2.9378
G01 X9.3304 Y2.9447
G01 X9.3254 Y2.9557
G01 X9.3190 Y2.9661
G01 X9.3114 Y2.9756
G01 X9.3063 Y2.9808
G01 X9.3009 Y2.9856
G01 X9.2951 Y2.9900
G01 X9.2890 Y2.9940
G01 X9.2782 Y2.9996
G01 X9.2714 Y3.0023
G01 X9.2645 Y3.0045
G01 X9.2526 Y3.0070
G01 X9.2454 Y3.0078
G01 X9.2381 Y3.0081
G01 X8.9381 Y3.0081
G01 X8.9308 Y3.0078
G01 X8.9235 Y3.0070
G01 X8.9164 Y3.0057
G01 X8.9089 Y3.0037
G01 X9.0802 Y3.1750
G01 X11.3901 Y3.1750
G01 X11.4145 Y3.1762
G01 X11.4339 Y3.1790
G01 X11.4434 Y3.1809
G01 X11.4624 Y3.1857
G01 X11.4809 Y3.1922
G01 X11.4876 Y3.1949
G01 X11.5031 Y3.2022
G01 X11.5117 Y3.2068
G01 X11.5305 Y3.2184
G01 X11.5481 Y3.2315
G01 X11.5645 Y3.2463
G01 X11.8219 Y3.5037
G01 X11.8350 Y3.5182
G01 X11.8396 Y3.5239
G01 X11.8512 Y3.5397
G01 X11.8613 Y3.5564
G01 X11.8659 Y3.5650
G01 X11.8742 Y3.5828
G01 X11.8824 Y3.6058
G01 X11.8873 Y3.6247
G01 X11.8892 Y3.6343
G01 X11.8920 Y3.6537
G01 X11.8931 Y3.6756
G01 X11.8931 Y4.3155
G01 X11.8920 Y4.3375
G01 X11.8879 Y4.3640
G01 X11.8817 Y4.3877
G01 X11.8751 Y4.4061
G01 X11.8722 Y4.4128
G01 X11.8637 Y4.4305
G01 X11.8538 Y4.4473
G01 X11.8484 Y4.4554
G01 X11.8366 Y4.4711
G01 X11.8235 Y4.4857
G01 X11.8167 Y4.4925
G01 X11.8021 Y4.5056
G01 X11.7864 Y4.5174
G01 X11.7783 Y4.5228
G01 X11.7615 Y4.5327
G01 X11.7371 Y4.5441
G01 X11.7164 Y4.5514
G01 X11.6974 Y4.5563
G01 X11.6903 Y4.5578
G01 X11.6709 Y4.5607
G01 X11.6441 Y4.5621
G01 X11.6245 Y4.5613
G01 X11.6148 Y4.5604
G01 X11.5955 Y4.5574
G01 X11.5765 Y4.5527
G01 X11.5672 Y4.5499
G01 X11.5488 Y4.5432
G01 X11.5310 Y4.5349
G01 X11.5224 Y4.5303
G01 X11.5057 Y4.5202
G01 X11.4899 Y4.5086
G01 X11.4824 Y4.5024
G01 X11.4680 Y4.4892
G01 X11.4500 Y4.4692
G01 X11.4370 Y4.4515
G01 X11.4268 Y4.4347
G01 X11.4222 Y4.4261
G01 X11.4140 Y4.4084
G01 X11.4057 Y4.3854
G01 X11.4009 Y4.3664
G01 X11.3990 Y4.3569
G01 X11.3960 Y4.3351
G01 X11.3950 Y4.3131
G01 X11.3950 Y3.7812
G01 X11.2869 Y3.6731
G01 X8.9746 Y3.6731
G01 X8.9527 Y3.6720
G01 X8.9333 Y3.6692
G01 X8.9237 Y3.6673
G01 X8.9025 Y3.6617
G01 X8.8818 Y3.6542
G01 X8.8618 Y3.6449
G01 X8.8428 Y3.6338
G01 X8.8347 Y3.6284
G01 X8.8191 Y3.6166
G01 X8.8010 Y3.6002
G01 X8.4626 Y3.2617
G01 X8.4495 Y3.2471
G01 X8.4378 Y3.2314
G01 X8.4337 Y3.2254
G01 X8.4236 Y3.2086
G01 X8.4120 Y3.1844
G01 X8.4030 Y3.1590
G01 X8.3978 Y3.1377
G01 X8.3940 Y3.1111
G01 X8.3930 Y3.0891
G01 X8.3930 Y2.9972
G01 X8.3811 Y2.9900
G01 X8.3716 Y2.9824
G01 X8.3664 Y2.9773
G01 X8.3615 Y2.9719
G01 X8.3544 Y2.9620
G01 X8.3508 Y2.9557
G01 X8.3476 Y2.9492
G01 X8.3433 Y2.9378
G01 X8.3405 Y2.9260
G01 X8.3392 Y2.9139
G01 X8.3391 Y1.9091
G01 X8.3398 Y1.8970
G01 X8.3420 Y1.8850
G01 X8.3457 Y1.8734
G01 X8.3505 Y1.8629
G01 X8.3371 Y1.8762
G01 X8.3370 Y2.9115
G01 X8.3366 Y2.9188
G01 X8.3352 Y2.9284
G01 X8.3335 Y2.9355
G01 X8.3304 Y2.9447
G01 X8.3276 Y2.9514
G01 X8.3230 Y2.9600
G01 X8.3190 Y2.9661
G01 X8.3130 Y2.9737
G01 X8.3046 Y2.9824
G01 X8.2970 Y2.9886
G01 X8.2890 Y2.9940
G01 X8.2804 Y2.9986
G01 X8.2714 Y3.0023
G01 X8.2621 Y3.0051
G01 X8.2526 Y3.0070
G01 X8.2405 Y3.0080
G01 X7.9381 Y3.0081
G01 X7.9308 Y3.0078
G01 X7.9235 Y3.0070
G01 X7.9140 Y3.0051
G01 X7.9070 Y3.0031
G01 X7.9002 Y3.0005
G01 X7.8936 Y2.9975
G01 X7.8872 Y2.9940
G01 X7.8811 Y2.9900
G01 X7.8734 Y2.9840
G01 X7.8664 Y2.9773
G01 X7.8600 Y2.9700
G01 X7.8544 Y2.9620
G01 X7.8496 Y2.9536
G01 X7.8457 Y2.9447
G01 X7.8427 Y2.9355
G01 X7.8405 Y2.9260
G01 X7.8393 Y2.9164
G01 X7.8391 Y2.9091
G01 X7.8391 Y2.5613
G00 Z2.0000
G00 X9.4381 Y1.8101
G01 F60.00
G01 Z-0.0100
G01 F60.00
G01 X9.7381 Y1.8101
G01 X9.7478 Y1.8106
G01 X9.7550 Y1.8115
G01 X9.7621 Y1.8130
G01 X9.7691 Y1.8151
G01 X9.7760 Y1.8176
G01 X9.7826 Y1.8206
G01 X9.7890 Y1.8242
G01 X9.7951 Y1.8281
G01 X9.8046 Y1.8357
G01 X9.8098 Y1.8408
G01 X9.8146 Y1.8463
G01 X9.8190 Y1.8521
G01 X9.8230 Y1.8582
G01 X9.8265 Y1.8646
G01 X9.8295 Y1.8712
G01 X9.8335 Y1.8827
G01 X9.8352 Y1.8898
G01 X9.8363 Y1.8970
G01 X9.8371 Y1.9091
G01 X9.8371 Y2.9091
G01 X9.8368 Y2.9164
G01 X9.8360 Y2.9236
G01 X9.8347 Y2.9308
G01 X9.8328 Y2.9378
G01 X9.8304 Y2.9447
G01 X9.8276 Y2.9514
G01 X9.8230 Y2.9600
G01 X9.8190 Y2.9661
G01 X9.8146 Y2.9719
G01 X9.8081 Y2.9791
G01 X9.8027 Y2.9840
G01 X9.7970 Y2.9886
G01 X9.7910 Y2.9927
G01 X9.7847 Y2.9964
G01 X9.7782 Y2.9996
G01 X9.7714 Y3.0023
G01 X9.7645 Y3.0045
G01 X9.7526 Y3.0070
G01 X9.7454 Y3.0078
G01 X9.7381 Y3.0081
G01 X9.4381 Y3.0081
G01 X9.4284 Y3.0076
G01 X9.4211 Y3.0066
G01 X9.4140 Y3.0051
G01 X9.4070 Y3.0031
G01 X9.4002 Y3.0005
G01 X9.3936 Y2.9975
G01 X9.3872 Y2.9940
G01 X9.3811 Y2.9900
G01 X9.3716 Y2.9824
G01 X9.3664 Y2.9773
G01 X9.3615 Y2.9719
G01 X9.3544 Y2.9620
G01 X9.3508 Y2.9557
G01 X9.3476 Y2.9492
G01 X9.3449 Y2.9424
G01 X9.3427 Y2.9355
G01 X9.3410 Y2.9284
G01 X9.3398 Y2.9212
G01 X9.3391 Y2.9091
G01 X9.3391 Y1.9091
G01 X9.3393 Y1.9018
G01 X9.3401 Y1.8945
G01 X9.3420 Y1.8850
G01 X9.3449 Y1.8757
G01 X9.3486 Y1.8667
G01 X9.3532 Y1.8582
G01 X9.3586 Y1.8501
G01 X9.3647 Y1.8426
G01 X9.3698 Y1.8374
G01 X9.3772 Y1.8310
G01 X9.3831 Y1.8268
G01 X9.3914 Y1.8218
G01 X9.4002 Y1.8176
G01 X9.4093 Y1.8143
G01 X9.4188 Y1.8120
G01 X9.4284 Y1.8106
G01 X9.4381 Y1.8101
G00 Z2.0000
G00 X9.9381 Y1.8101
G01 F60.00
G01 Z-0.0100
G01 F60.00
G01 X10.2381 Y1.8101
G01 X10.2478 Y1.8106
G01 X10.2550 Y1.8115
G01 X10.2621 Y1.8130
G01 X10.2691 Y1.8151
G01 X10.2760 Y1.8176
G01 X10.2826 Y1.8206
G01 X10.2890 Y1.8242
G01 X10.2951 Y1.8281
G01 X10.3046 Y1.8357
G01 X10.3098 Y1.8408
G01 X10.3146 Y1.8463
G01 X10.3190 Y1.8521
G01 X10.3230 Y1.8582
G01 X10.3265 Y1.8646
G01 X10.3295 Y1.8712
G01 X10.3335 Y1.8827
G01 X10.3352 Y1.8898
G01 X10.3363 Y1.8970
G01 X10.3371 Y1.9091
G01 X10.3371 Y2.9091
G01 X10.3368 Y2.9164
G01 X10.3360 Y2.9236
G01 X10.3347 Y2.9308
G01 X10.3328 Y2.9378
G01 X10.3304 Y2.9447
G01 X10.3276 Y2.9514
G01 X10.3230 Y2.9600
G01 X10.3190 Y2.9661
G01 X10.3146 Y2.9719
G01 X10.3081 Y2.9791
G01 X10.3027 Y2.9840
G01 X10.2970 Y2.9886
G01 X10.2910 Y2.9927
G01 X10.2847 Y2.9964
G01 X10.2782 Y2.9996
G01 X10.2714 Y3.0023
G01 X10.2645 Y3.0045
G01 X10.2526 Y3.0070
G01 X10.2454 Y3.0078
G01 X10.2381 Y3.0081
G01 X9.9381 Y3.0081
G01 X9.9284 Y3.0076
G01 X9.9211 Y3.0066
G01 X9.9140 Y3.0051
G01 X9.9070 Y3.0031
G01 X9.9002 Y3.0005
G01 X9.8936 Y2.9975
G01 X9.8872 Y2.9940
G01 X9.8811 Y2.9900
G01 X9.8716 Y2.9824
G01 X9.8664 Y2.9773
G01 X9.8615 Y2.9719
G01 X9.8544 Y2.9620
G01 X9.8508 Y2.9557
G01 X9.8476 Y2.9492
G01 X9.8449 Y2.9424
G01 X9.8427 Y2.9355
G01 X9.8410 Y2.9284
G01 X9.8398 Y2.9212
G01 X9.8391 Y2.9091
G01 X9.8391 Y1.9091
G01 X9.8393 Y1.9018
G01 X9.8401 Y1.8945
G01 X9.8420 Y1.8850
G01 X9.8449 Y1.8757
G01 X9.8486 Y1.8667
G01 X9.8532 Y1.8582
G01 X9.8586 Y1.8501
G01 X9.8647 Y1.8426
G01 X9.8698 Y1.8374
G01 X9.8772 Y1.8310
G01 X9.8831 Y1.8268
G01 X9.8914 Y1.8218
G01 X9.9002 Y1.8176
G01 X9.9093 Y1.8143
G01 X9.9188 Y1.8120
G01 X9.9284 Y1.8106
G01 X9.9381 Y1.8101
G00 Z2.0000
G00 X10.4381 Y1.8101
G01 F60.00
G01 Z-0.0100
G01 F60.00
G01 X10.7381 Y1.8101
G01 X10.7478 Y1.8106
G01 X10.7550 Y1.8115
G01 X10.7621 Y1.8130
G01 X10.7691 Y1.8151
G01 X10.7760 Y1.8176
G01 X10.7826 Y1.8206
G01 X10.7890 Y1.8242
G01 X10.7951 Y1.8281
G01 X10.8046 Y1.8357
G01 X10.8098 Y1.8408
G01 X10.8146 Y1.8463
G01 X10.8190 Y1.8521
G01 X10.8230 Y1.8582
G01 X10.8265 Y1.8646
G01 X10.8295 Y1.8712
G01 X10.8335 Y1.8827
G01 X10.8352 Y1.8898
G01 X10.8363 Y1.8970
G01 X10.8371 Y1.9091
G01 X10.8371 Y2.9091
G01 X10.8368 Y2.9164
G01 X10.8360 Y2.9236
G01 X10.8347 Y2.9308
G01 X10.8328 Y2.9378
G01 X10.8304 Y2.9447
G01 X10.8276 Y2.9514
G01 X10.8230 Y2.9600
G01 X10.8190 Y2.9661
G01 X10.8146 Y2.9719
G01 X10.8081 Y2.9791
G01 X10.8027 Y2.9840
G01 X10.7970 Y2.9886
G01 X10.7910 Y2.9927
G01 X10.7847 Y2.9964
G01 X10.7782 Y2.9996
G01 X10.7714 Y3.0023
G01 X10.7645 Y3.0045
G01 X10.7526 Y3.0070
G01 X10.7454 Y3.0078
G01 X10.7381 Y3.0081
G01 X10.4381 Y3.0081
G01 X10.4284 Y3.0076
G01 X10.4211 Y3.0066
G01 X10.4140 Y3.0051
G01 X10.4070 Y3.0031
G01 X10.4002 Y3.0005
G01 X10.3936 Y2.9975
G01 X10.3872 Y2.9940
G01 X10.3811 Y2.9900
G01 X10.3716 Y2.9824
G01 X10.3664 Y2.9773
G01 X10.3615 Y2.9719
G01 X10.3544 Y2.9620
G01 X10.3508 Y2.9557
G01 X10.3476 Y2.9492
G01 X10.3449 Y2.9424
G01 X10.3427 Y2.9355
G01 X10.3410 Y2.9284
G01 X10.3398 Y2.9212
G01 X10.3391 Y2.9091
G01 X10.3391 Y1.9091
G01 X10.3393 Y1.9018
G01 X10.3401 Y1.8945
G01 X10.3420 Y1.8850
G01 X10.3449 Y1.8757
G01 X10.3486 Y1.8667
G01 X10.3532 Y1.8582
G01 X10.3586 Y1.8501
G01 X10.3647 Y1.8426
G01 X10.3698 Y1.8374
G01 X10.3772 Y1.8310
G01 X10.3831 Y1.8268
G01 X10.3914 Y1.8218
G01 X10.4002 Y1.8176
G01 X10.4093 Y1.8143
G01 X10.4188 Y1.8120
G01 X10.4284 Y1.8106
G01 X10.4381 Y1.8101
G00 Z2.0000
G00 X10.9381 Y1.8101
G01 F60.00
G01 Z-0.0100
G01 F60.00
G01 X11.2381 Y1.8101
G01 X11.2478 Y1.8106
G01 X11.2550 Y1.8115
G01 X11.2621 Y1.8130
G01 X11.2691 Y1.8151
G01 X11.2760 Y1.8176
G01 X11.2826 Y1.8206
G01 X11.2890 Y1.8242
G01 X11.2951 Y1.8281
G01 X11.3046 Y1.8357
G01 X11.3098 Y1.8408
G01 X11.3146 Y1.8463
G01 X11.3190 Y1.8521
G01 X11.3230 Y1.8582
G01 X11.3265 Y1.8646
G01 X11.3295 Y1.8712
G01 X11.3335 Y1.8827
G01 X11.3352 Y1.8898
G01 X11.3363 Y1.8970
G01 X11.3371 Y1.9091
G01 X11.3371 Y2.9091
G01 X11.3368 Y2.9164
G01 X11.3360 Y2.9236
G01 X11.3347 Y2.9308
G01 X11.3328 Y2.9378
G01 X11.3304 Y2.9447
G01 X11.3276 Y2.9514
G01 X11.3230 Y2.9600
G01 X11.3190 Y2.9661
G01 X11.3146 Y2.9719
G01 X11.3081 Y2.9791
G01 X11.3027 Y2.9840
G01 X11.2970 Y2.9886
G01 X11.2910 Y2.9927
G01 X11.2847 Y2.9964
G01 X11.2782 Y2.9996
G01 X11.2714 Y3.0023
G01 X11.2645 Y3.0045
G01 X11.2526 Y3.0070
G01 X11.2454 Y3.0078
G01 X11.2381 Y3.0081
G01 X10.9381 Y3.0081
G01 X10.9284 Y3.0076
G01 X10.9211 Y3.0066
G01 X10.9140 Y3.0051
G01 X10.9070 Y3.0031
G01 X10.9002 Y3.0005
G01 X10.8936 Y2.9975
G01 X10.8872 Y2.9940
G01 X10.8811 Y2.9900
G01 X10.8716 Y2.9824
G01 X10.8664 Y2.9773
G01 X10.8615 Y2.9719
G01 X10.8544 Y2.9620
G01 X10.8508 Y2.9557
G01 X10.8476 Y2.9492
G01 X10.8449 Y2.9424
G01 X10.8427 Y2.9355
G01 X10.8410 Y2.9284
G01 X10.8398 Y2.9212
G01 X10.8391 Y2.9091
G01 X10.8391 Y1.9091
G01 X10.8393 Y1.9018
G01 X10.8401 Y1.8945
G01 X10.8420 Y1.8850
G01 X10.8449 Y1.8757
G01 X10.8486 Y1.8667
G01 X10.8532 Y1.8582
G01 X10.8586 Y1.8501
G01 X10.8647 Y1.8426
G01 X10.8698 Y1.8374
G01 X10.8772 Y1.8310
G01 X10.8831 Y1.8268
G01 X10.8914 Y1.8218
G01 X10.9002 Y1.8176
G01 X10.9093 Y1.8143
G01 X10.9188 Y1.8120
G01 X10.9284 Y1.8106
G01 X10.9381 Y1.8101
G00 Z2.0000
G00 X11.4381 Y1.8101
G01 F60.00
G01 Z-0.0100
G01 F60.00
G01 X11.7381 Y1.8101
G01 X11.7478 Y1.8106
G01 X11.7550 Y1.8115
G01 X11.7621 Y1.8130
G01 X11.7691 Y1.8151
G01 X11.7760 Y1.8176
G01 X11.7826 Y1.8206
G01 X11.7890 Y1.8242
G01 X11.7951 Y1.8281
G01 X11.8046 Y1.8357
G01 X11.8098 Y1.8408
G01 X11.8146 Y1.8463
G01 X11.8190 Y1.8521
G01 X11.8230 Y1.8582
G01 X11.8265 Y1.8646
G01 X11.8295 Y1.8712
G01 X11.8335 Y1.8827
G01 X11.8352 Y1.8898
G01 X11.8363 Y1.8970
G01 X11.8371 Y1.9091
G01 X11.8371 Y2.9091
G01 X11.8368 Y2.9164
G01 X11.8360 Y2.9236
G01 X11.8347 Y2.9308
G01 X11.8328 Y2.9378
G01 X11.8304 Y2.9447
G01 X11.8276 Y2.9514
G01 X11.8230 Y2.9600
G01 X11.8190 Y2.9661
G01 X11.8146 Y2.9719
G01 X11.8081 Y2.9791
G01 X11.8027 Y2.9840
G01 X11.7970 Y2.9886
G01 X11.7910 Y2.9927
G01 X11.7847 Y2.9964
G01 X11.7782 Y2.9996
G01 X11.7714 Y3.0023
G01 X11.7645 Y3.0045
G01 X11.7526 Y3.0070
G01 X11.7454 Y3.0078
G01 X11.7381 Y3.0081
G01 X11.4381 Y3.0081
G01 X11.4284 Y3.0076
G01 X11.4211 Y3.0066
G01 X11.4140 Y3.0051
G01 X11.4070 Y3.0031
G01 X11.4002 Y3.0005
G01 X11.3936 Y2.9975
G01 X11.3872 Y2.9940
G01 X11.3811 Y2.9900
G01 X11.3716 Y2.9824
G01 X11.3664 Y2.9773
G01 X11.3615 Y2.9719
G01 X11.3544 Y2.9620
G01 X11.3508 Y2.9557
G01 X11.3476 Y2.9492
G01 X11.3449 Y2.9424
G01 X11.3427 Y2.9355
G01 X11.3410 Y2.9284
G01 X11.3398 Y2.9212
G01 X11.3391 Y2.9091
G01 X11.3391 Y1.9091
G01 X11.3393 Y1.9018
G01 X11.3401 Y1.8945
G01 X11.3420 Y1.8850
G01 X11.3449 Y1.8757
G01 X11.3486 Y1.8667
G01 X11.3532 Y1.8582
G01 X11.3586 Y1.8501
G01 X11.3647 Y1.8426
G01 X11.3698 Y1.8374
G01 X11.3772 Y1.8310
G01 X11.3831 Y1.8268
G01 X11.3914 Y1.8218
G01 X11.4002 Y1.8176
G01 X11.4093 Y1.8143
G01 X11.4188 Y1.8120
G01 X11.4284 Y1.8106
G01 X11.4381 Y1.8101
G00 Z2.0000
G00 X11.9381 Y1.8101
G01 F60.00
G01 Z-0.0100
G01 F60.00
G01 X12.2381 Y1.8101
G01 X12.2478 Y1.8106
G01 X12.2550 Y1.8115
G01 X12.2621 Y1.8130
G01 X12.2691 Y1.8151
G01 X12.2760 Y1.8176
G01 X12.2826 Y1.8206
G01 X12.2890 Y1.8242
G01 X12.2951 Y1.8281
G01 X12.3046 Y1.8357
G01 X12.3098 Y1.8408
G01 X12.3146 Y1.8463
G01 X12.3190 Y1.8521
G01 X12.3230 Y1.8582
G01 X12.3265 Y1.8646
G01 X12.3295 Y1.8712
G01 X12.3335 Y1.8827
G01 X12.3352 Y1.8898
G01 X12.3363 Y1.8970
G01 X12.3371 Y1.9091
G01 X12.3371 Y2.9091
G01 X12.3368 Y2.9164
G01 X12.3360 Y2.9236
G01 X12.3347 Y2.9308
G01 X12.3328 Y2.9378
G01 X12.3304 Y2.9447
G01 X12.3276 Y2.9514
G01 X12.3230 Y2.9600
G01 X12.3190 Y2.9661
G01 X12.3146 Y2.9719
G01 X12.3081 Y2.9791
G01 X12.3027 Y2.9840
G01 X12.2970 Y2.9886
G01 X12.2910 Y2.9927
G01 X12.2847 Y2.9964
G01 X12.2782 Y2.9996
G01 X12.2714 Y3.0023
G01 X12.2645 Y3.0045
G01 X12.2526 Y3.0070
G01 X12.2454 Y3.0078
G01 X12.2381 Y3.0081
G01 X11.9381 Y3.0081
G01 X11.9284 Y3.0076
G01 X11.9211 Y3.0066
G01 X11.9140 Y3.0051
G01 X11.9070 Y3.0031
G01 X11.9002 Y3.0005
G01 X11.8936 Y2.9975
G01 X11.8872 Y2.9940
G01 X11.8811 Y2.9900
G01 X11.8716 Y2.9824
G01 X11.8664 Y2.9773
G01 X11.8615 Y2.9719
G01 X11.8544 Y2.9620
G01 X11.8508 Y2.9557
G01 X11.8476 Y2.9492
G01 X11.8449 Y2.9424
G01 X11.8427 Y2.9355
G01 X11.8410 Y2.9284
G01 X11.8398 Y2.9212
G01 X11.8391 Y2.9091
G01 X11.8391 Y1.9091
G01 X11.8393 Y1.9018
G01 X11.8401 Y1.8945
G01 X11.8420 Y1.8850
G01 X11.8449 Y1.8757
G01 X11.8486 Y1.8667
G01 X11.8532 Y1.8582
G01 X11.8586 Y1.8501
G01 X11.8647 Y1.8426
G01 X11.8698 Y1.8374
G01 X11.8772 Y1.8310
G01 X11.8831 Y1.8268
G01 X11.8914 Y1.8218
G01 X11.9002 Y1.8176
G01 X11.9093 Y1.8143
G01 X11.9188 Y1.8120
G01 X11.9284 Y1.8106
G01 X11.9381 Y1.8101
G00 Z2.0000
G00 X12.3631 Y2.9751
G01 F60.00
G01 Z-0.0100
G01 F60.00
G01 X13.3631 Y2.9751
G01 X13.3728 Y2.9756
G01 X13.3824 Y2.9770
G01 X13.3918 Y2.9793
G01 X13.3987 Y2.9817
G01 X13.4054 Y2.9846
G01 X13.4119 Y2.9879
G01 X13.4220 Y2.9946
G01 X13.4277 Y2.9991
G01 X13.4331 Y3.0041
G01 X13.4411 Y3.0132
G01 X13.4480 Y3.0232
G01 X13.4515 Y3.0296
G01 X13.4545 Y3.0362
G01 X13.4571 Y3.0430
G01 X13.4591 Y3.0500
G01 X13.4613 Y3.0620
G01 X13.4621 Y3.0741
G01 X13.4620 Y3.3765
G01 X13.4613 Y3.3862
G01 X13.4602 Y3.3934
G01 X13.4585 Y3.4005
G01 X13.4554 Y3.4097
G01 X13.4526 Y3.4164
G01 X13.4492 Y3.4229
G01 X13.4454 Y3.4291
G01 X13.4411 Y3.4350
G01 X13.4331 Y3.4441
G01 X13.4277 Y3.4490
G01 X13.4220 Y3.4536
G01 X13.4160 Y3.4577
G01 X13.4097 Y3.4614
G01 X13.4032 Y3.4646
G01 X13.3964 Y3.4673
G01 X13.3895 Y3.4695
G01 X13.3824 Y3.4712
G01 X13.3752 Y3.4723
G01 X13.3679 Y3.4730
G01 X12.3631 Y3.4731
G01 X12.3534 Y3.4726
G01 X12.3438 Y3.4712
G01 X12.3367 Y3.4695
G01 X12.3274 Y3.4664
G01 X12.3164 Y3.4614
G01 X12.3101 Y3.4577
G01 X12.3041 Y3.4536
G01 X12.2948 Y3.4458
G01 X12.2897 Y3.4406
G01 X12.2850 Y3.4350
G01 X12.2782 Y3.4250
G01 X12.2726 Y3.4142
G01 X12.2683 Y3.4028
G01 X12.2665 Y3.3958
G01 X12.2651 Y3.3886
G01 X12.2643 Y3.3814
G01 X12.2641 Y3.3741
G01 X12.2641 Y3.0741
G01 X12.2643 Y3.0668
G01 X12.2651 Y3.0595
G01 X12.2670 Y3.0500
G01 X12.2699 Y3.0407
G01 X12.2736 Y3.0317
G01 X12.2769 Y3.0253
G01 X12.2821 Y3.0171
G01 X12.2881 Y3.0094
G01 X12.2948 Y3.0024
G01 X12.3022 Y2.9960
G01 X12.3101 Y2.9904
G01 X12.3186 Y2.9856
G01 X12.3274 Y2.9817
G01 X12.3343 Y2.9793
G01 X12.3438 Y2.9770
G01 X12.3534 Y2.9756
G01 X12.3631 Y2.9751
G00 Z2.0000
G00 X12.3631 Y3.4751
G01 F60.00
G01 Z-0.0100
G01 F60.00
G01 X13.3631 Y3.4751
G01 X13.3728 Y3.4756
G01 X13.3824 Y3.4770
G01 X13.3918 Y3.4793
G01 X13.3987 Y3.4817
G01 X13.4054 Y3.4846
G01 X13.4119 Y3.4879
G01 X13.4220 Y3.4946
G01 X13.4277 Y3.4991
G01 X13.4331 Y3.5041
G01 X13.4411 Y3.5132
G01 X13.4480 Y3.5232
G01 X13.4515 Y3.5296
G01 X13.4545 Y3.5362
G01 X13.4571 Y3.5430
G01 X13.4591 Y3.5500
G01 X13.4613 Y3.5620
G01 X13.4621 Y3.5741
G01 X13.4620 Y3.8765
G01 X13.4613 Y3.8862
G01 X13.4602 Y3.8934
G01 X13.4585 Y3.9005
G01 X13.4554 Y3.9097
G01 X13.4526 Y3.9164
G01 X13.4492 Y3.9229
G01 X13.4454 Y3.9291
G01 X13.4411 Y3.9350
G01 X13.4331 Y3.9441
G01 X13.4277 Y3.9490
G01 X13.4220 Y3.9536
G01 X13.4160 Y3.9577
G01 X13.4097 Y3.9614
G01 X13.4032 Y3.9646
G01 X13.3964 Y3.9673
G01 X13.3895 Y3.9695
G01 X13.3824 Y3.9712
G01 X13.3752 Y3.9723
G01 X13.3679 Y3.9730
G01 X12.3631 Y3.9731
G01 X12.3534 Y3.9726
G01 X12.3438 Y3.9712
G01 X12.3367 Y3.9695
G01 X12.3274 Y3.9664
G01 X12.3164 Y3.9614
G01 X12.3101 Y3.9577
G01 X12.3041 Y3.9536
G01 X12.2948 Y3.9458
G01 X12.2897 Y3.9406
G01 X12.2850 Y3.9350
G01 X12.2782 Y3.9250
G01 X12.2726 Y3.9142
G01 X12.2683 Y3.9028
G01 X12.2665 Y3.8958
G01 X12.2651 Y3.8886
G01 X12.2643 Y3.8814
G01 X12.2641 Y3.8741
G01 X12.2641 Y3.5741
G01 X12.2643 Y3.5668
G01 X12.2651 Y3.5595
G01 X12.2670 Y3.5500
G01 X12.2699 Y3.5407
G01 X12.2736 Y3.5317
G01 X12.2769 Y3.5253
G01 X12.2821 Y3.5171
G01 X12.2881 Y3.5094
G01 X12.2948 Y3.5024
G01 X12.3022 Y3.4960
G01 X12.3101 Y3.4904
G01 X12.3186 Y3.4856
G01 X12.3274 Y3.4817
G01 X12.3343 Y3.4793
G01 X12.3438 Y3.4770
G01 X12.3534 Y3.4756
G01 X12.3631 Y3.4751
G00 Z2.0000
G00 X12.3631 Y3.9751
G01 F60.00
G01 Z-0.0100
G01 F60.00
G01 X13.3631 Y3.9751
G01 X13.3728 Y3.9756
G01 X13.3824 Y3.9770
G01 X13.3918 Y3.9793
G01 X13.3987 Y3.9817
G01 X13.4054 Y3.9846
G01 X13.4119 Y3.9879
G01 X13.4220 Y3.9946
G01 X13.4277 Y3.9991
G01 X13.4331 Y4.0041
G01 X13.4411 Y4.0132
G01 X13.4480 Y4.0232
G01 X13.4515 Y4.0296
G01 X13.4545 Y4.0362
G01 X13.4571 Y4.0430
G01 X13.4591 Y4.0500
G01 X13.4613 Y4.0620
G01 X13.4621 Y4.0741
G01 X13.4620 Y4.3765
G01 X13.4613 Y4.3862
G01 X13.4602 Y4.3934
G01 X13.4585 Y4.4005
G01 X13.4554 Y4.4097
G01 X13.4526 Y4.4164
G01 X13.4492 Y4.4229
G01 X13.4426 Y4.4330
G01 X13.4380 Y4.4387
G01 X13.4331 Y4.4441
G01 X13.4277 Y4.4490
G01 X13.4220 Y4.4536
G01 X13.4160 Y4.4577
G01 X13.4097 Y4.4614
G01 X13.4032 Y4.4646
G01 X13.3964 Y4.4673
G01 X13.3895 Y4.4695
G01 X13.3824 Y4.4712
G01 X13.3752 Y4.4723
G01 X13.3679 Y4.4730
G01 X12.3631 Y4.4731
G01 X12.3534 Y4.4726
G01 X12.3438 Y4.4712
G01 X12.3367 Y4.4695
G01 X12.3274 Y4.4664
G01 X12.3207 Y4.4636
G01 X12.3143 Y4.4602
G01 X12.3041 Y4.4536
G01 X12.2984 Y4.4490
G01 X12.2931 Y4.4441
G01 X12.2850 Y4.4350
G01 X12.2782 Y4.4250
G01 X12.2726 Y4.4142
G01 X12.2683 Y4.4028
G01 X12.2665 Y4.3958
G01 X12.2651 Y4.3886
G01 X12.2643 Y4.3814
G01 X12.2641 Y4.3741
G01 X12.2641 Y4.0741
G01 X12.2643 Y4.0668
G01 X12.2651 Y4.0595
G01 X12.2670 Y4.0500
G01 X12.2699 Y4.0407
G01 X12.2736 Y4.0317
G01 X12.2769 Y4.0253
G01 X12.2821 Y4.0171
G01 X12.2881 Y4.0094
G01 X12.2948 Y4.0024
G01 X12.3022 Y3.9960
G01 X12.3101 Y3.9904
G01 X12.3186 Y3.9856
G01 X12.3274 Y3.9817
G01 X12.3343 Y3.9793
G01 X12.3438 Y3.9770
G01 X12.3534 Y3.9756
G01 X12.3631 Y3.9751
G00 Z2.0000
G00 X12.3631 Y4.4751
G01 F60.00
G01 Z-0.0100
G01 F60.00
G01 X13.3631 Y4.4751
G01 X13.3728 Y4.4756
G01 X13.3800 Y4.4765
G01 X13.3895 Y4.4787
G01 X13.3987 Y4.4817
G01 X13.4097 Y4.4868
G01 X13.4160 Y4.4904
G01 X13.4220 Y4.4946
G01 X13.4277 Y4.4991
G01 X13.4331 Y4.5041
G01 X13.4411 Y4.5132
G01 X13.4480 Y4.5232
G01 X13.4515 Y4.5296
G01 X13.4545 Y4.5362
G01 X13.4571 Y4.5430
G01 X13.4591 Y4.5500
G01 X13.4613 Y4.5620
G01 X13.4621 Y4.5741
G01 X13.4620 Y4.8765
G01 X13.4613 Y4.8862
G01 X13.4602 Y4.8934
G01 X13.4585 Y4.9005
G01 X13.4554 Y4.9097
G01 X13.4526 Y4.9164
G01 X13.4492 Y4.9229
G01 X13.4426 Y4.9330
G01 X13.4380 Y4.9387
G01 X13.4331 Y4.9441
G01 X13.4277 Y4.9490
G01 X13.4220 Y4.9536
G01 X13.4160 Y4.9577
G01 X13.4097 Y4.9614
G01 X13.4032 Y4.9646
G01 X13.3964 Y4.9673
G01 X13.3895 Y4.9695
G01 X13.3824 Y4.9712
G01 X13.3752 Y4.9723
G01 X13.3679 Y4.9730
G01 X12.3631 Y4.9731
G01 X12.3534 Y4.9726
G01 X12.3438 Y4.9712
G01 X12.3367 Y4.9695
G01 X12.3274 Y4.9664
G01 X12.3207 Y4.9636
G01 X12.3143 Y4.9602
G01 X12.3041 Y4.9536
G01 X12.2984 Y4.9490
G01 X12.2931 Y4.9441
G01 X12.2850 Y4.9350
G01 X12.2782 Y4.9250
G01 X12.2726 Y4.9142
G01 X12.2683 Y4.9028
G01 X12.2665 Y4.8958
G01 X12.2651 Y4.8886
G01 X12.2643 Y4.8814
G01 X12.2641 Y4.8741
G01 X12.2641 Y4.5741
G01 X12.2643 Y4.5668
G01 X12.2651 Y4.5595
G01 X12.2670 Y4.5500
G01 X12.2699 Y4.5407
G01 X12.2736 Y4.5317
G01 X12.2769 Y4.5253
G01 X12.2821 Y4.5171
G01 X12.2881 Y4.5094
G01 X12.2948 Y4.5024
G01 X12.3022 Y4.4960
G01 X12.3101 Y4.4904
G01 X12.3186 Y4.4856
G01 X12.3274 Y4.4817
G01 X12.3367 Y4.4787
G01 X12.3438 Y4.4770
G01 X12.3534 Y4.4756
G01 X12.3631 Y4.4751
G00 Z2.0000
G00 X12.3631 Y4.9751
G01 F60.00
G01 Z-0.0100
G01 F60.00
G01 X13.3631 Y4.9751
G01 X13.3728 Y4.9756
G01 X13.3800 Y4.9765
G01 X13.3895 Y4.9787
G01 X13.3987 Y4.9817
G01 X13.4097 Y4.9868
G01 X13.4160 Y4.9904
G01 X13.4220 Y4.9946
G01 X13.4277 Y4.9991
G01 X13.4331 Y5.0041
G01 X13.4411 Y5.0132
G01 X13.4480 Y5.0232
G01 X13.4515 Y5.0296
G01 X13.4545 Y5.0362
G01 X13.4571 Y5.0430
G01 X13.4591 Y5.0500
G01 X13.4613 Y5.0620
G01 X13.4621 Y5.0741
G01 X13.4620 Y5.3765
G01 X13.4613 Y5.3862
G01 X13.4602 Y5.3934
G01 X13.4585 Y5.4005
G01 X13.4554 Y5.4097
G01 X13.4526 Y5.4164
G01 X13.4492 Y5.4229
G01 X13.4426 Y5.4330
G01 X13.4380 Y5.4387
G01 X13.4331 Y5.4441
G01 X13.4277 Y5.4490
G01 X13.4220 Y5.4536
G01 X13.4160 Y5.4577
G01 X13.4097 Y5.4614
G01 X13.4032 Y5.4646
G01 X13.3964 Y5.4673
G01 X13.3895 Y5.4695
G01 X13.3824 Y5.4712
G01 X13.3752 Y5.4723
G01 X13.3679 Y5.4730
G01 X12.3631 Y5.4731
G01 X12.3534 Y5.4726
G01 X12.3438 Y5.4712
G01 X12.3367 Y5.4695
G01 X12.3274 Y5.4664
G01 X12.3207 Y5.4636
G01 X12.3143 Y5.4602
G01 X12.3041 Y5.4536
G01 X12.2984 Y5.4490
G01 X12.2931 Y5.4441
G01 X12.2850 Y5.4350
G01 X12.2782 Y5.4250
G01 X12.2726 Y5.4142
G01 X12.2683 Y5.4028
G01 X12.2665 Y5.3958
G01 X12.2651 Y5.3886
G01 X12.2643 Y5.3814
G01 X12.2641 Y5.3741
G01 X12.2641 Y5.0741
G01 X12.2643 Y5.0668
G01 X12.2651 Y5.0595
G01 X12.2670 Y5.0500
G01 X12.2699 Y5.0407
G01 X12.2736 Y5.0317
G01 X12.2769 Y5.0253
G01 X12.2821 Y5.0171
G01 X12.2881 Y5.0094
G01 X12.2948 Y5.0024
G01 X12.3022 Y4.9960
G01 X12.3101 Y4.9904
G01 X12.3186 Y4.9856
G01 X12.3274 Y4.9817
G01 X12.3367 Y4.9787
G01 X12.3438 Y4.9770
G01 X12.3534 Y4.9756
G01 X12.3631 Y4.9751
G00 Z2.0000
G00 X12.3631 Y5.4751
G01 F60.00
G01 Z-0.0100
G01 F60.00
G01 X13.3631 Y5.4751
G01 X13.3728 Y5.4756
G01 X13.3800 Y5.4765
G01 X13.3895 Y5.4787
G01 X13.3987 Y5.4817
G01 X13.4097 Y5.4868
G01 X13.4160 Y5.4904
G01 X13.4220 Y5.4946
G01 X13.4277 Y5.4991
G01 X13.4331 Y5.5041
G01 X13.4411 Y5.5132
G01 X13.4480 Y5.5232
G01 X13.4515 Y5.5296
G01 X13.4545 Y5.5362
G01 X13.4571 Y5.5430
G01 X13.4591 Y5.5500
G01 X13.4613 Y5.5620
G01 X13.4621 Y5.5741
G01 X13.4620 Y5.8765
G01 X13.4613 Y5.8862
G01 X13.4602 Y5.8934
G01 X13.4585 Y5.9005
G01 X13.4554 Y5.9097
G01 X13.4526 Y5.9164
G01 X13.4492 Y5.9229
G01 X13.4426 Y5.9330
G01 X13.4380 Y5.9387
G01 X13.4331 Y5.9441
G01 X13.4277 Y5.9490
G01 X13.4220 Y5.9536
G01 X13.4160 Y5.9577
G01 X13.4097 Y5.9614
G01 X13.4032 Y5.9646
G01 X13.3964 Y5.9673
G01 X13.3895 Y5.9695
G01 X13.3824 Y5.9712
G01 X13.3752 Y5.9723
G01 X13.3679 Y5.9730
G01 X12.3631 Y5.9731
G01 X12.3534 Y5.9726
G01 X12.3438 Y5.9712
G01 X12.3367 Y5.9695
G01 X12.3274 Y5.9664
G01 X12.3207 Y5.9636
G01 X12.3143 Y5.9602
G01 X12.3041 Y5.9536
G01 X12.2984 Y5.9490
G01 X12.2931 Y5.9441
G01 X12.2850 Y5.9350
G01 X12.2782 Y5.9250
G01 X12.2726 Y5.9142
G01 X12.2683 Y5.9028
G01 X12.2665 Y5.8958
G01 X12.2651 Y5.8886
G01 X12.2643 Y5.8814
G01 X12.2641 Y5.8741
G01 X12.2641 Y5.5741
G01 X12.2643 Y5.5668
G01 X12.2651 Y5.5595
G01 X12.2670 Y5.5500
G01 X12.2699 Y5.5407
G01 X12.2736 Y5.5317
G01 X12.2769 Y5.5253
G01 X12.2821 Y5.5171
G01 X12.2881 Y5.5094
G01 X12.2948 Y5.5024
G01 X12.3022 Y5.4960
G01 X12.3101 Y5.4904
G01 X12.3186 Y5.4856
G01 X12.3274 Y5.4817
G01 X12.3367 Y5.4787
G01 X12.3438 Y5.4770
G01 X12.3534 Y5.4756
G01 X12.3631 Y5.4751
G00 Z2.0000
G00 X12.3631 Y5.9751
G01 F60.00
G01 Z-0.0100
G01 F60.00
G01 X13.3631 Y5.9751
G01 X13.3728 Y5.9756
G01 X13.3800 Y5.9765
G01 X13.3895 Y5.9787
G01 X13.3987 Y5.9817
G01 X13.4097 Y5.9868
G01 X13.4160 Y5.9904
G01 X13.4220 Y5.9946
G01 X13.4277 Y5.9991
G01 X13.4331 Y6.0041
G01 X13.4411 Y6.0132
G01 X13.4480 Y6.0232
G01 X13.4515 Y6.0296
G01 X13.4545 Y6.0362
G01 X13.4571 Y6.0430
G01 X13.4591 Y6.0500
G01 X13.4613 Y6.0620
G01 X13.4621 Y6.0741
G01 X13.4620 Y6.3765
G01 X13.4613 Y6.3862
G01 X13.4602 Y6.3934
G01 X13.4585 Y6.4005
G01 X13.4554 Y6.4097
G01 X13.4526 Y6.4164
G01 X13.4492 Y6.4229
G01 X13.4426 Y6.4330
G01 X13.4380 Y6.4387
G01 X13.4331 Y6.4441
G01 X13.4277 Y6.4490
G01 X13.4220 Y6.4536
G01 X13.4160 Y6.4577
G01 X13.4097 Y6.4614
G01 X13.4032 Y6.4646
G01 X13.3964 Y6.4673
G01 X13.3895 Y6.4695
G01 X13.3824 Y6.4712
G01 X13.3752 Y6.4723
G01 X13.3679 Y6.4730
G01 X12.3631 Y6.4731
G01 X12.3534 Y6.4726
G01 X12.3438 Y6.4712
G01 X12.3367 Y6.4695
G01 X12.3274 Y6.4664
G01 X12.3207 Y6.4636
G01 X12.3143 Y6.4602
G01 X12.3041 Y6.4536
G01 X12.2984 Y6.4490
G01 X12.2931 Y6.4441
G01 X12.2850 Y6.4350
G01 X12.2782 Y6.4250
G01 X12.2726 Y6.4142
G01 X12.2683 Y6.4028
G01 X12.2665 Y6.3958
G01 X12.2651 Y6.3886
G01 X12.2643 Y6.3814
G01 X12.2641 Y6.3741
G01 X12.2641 Y6.0741
G01 X12.2643 Y6.0668
G01 X12.2651 Y6.0595
G01 X12.2670 Y6.0500
G01 X12.2699 Y6.0407
G01 X12.2736 Y6.0317
G01 X12.2769 Y6.0253
G01 X12.2821 Y6.0171
G01 X12.2881 Y6.0094
G01 X12.2948 Y6.0024
G01 X12.3022 Y5.9960
G01 X12.3101 Y5.9904
G01 X12.3186 Y5.9856
G01 X12.3274 Y5.9817
G01 X12.3367 Y5.9787
G01 X12.3438 Y5.9770
G01 X12.3534 Y5.9756
G01 X12.3631 Y5.9751
G00 Z2.0000
G00 X12.3631 Y6.4751
G01 F60.00
G01 Z-0.0100
G01 F60.00
G01 X13.3631 Y6.4751
G01 X13.3728 Y6.4756
G01 X13.3800 Y6.4765
G01 X13.3895 Y6.4787
G01 X13.3987 Y6.4817
G01 X13.4097 Y6.4868
G01 X13.4160 Y6.4904
G01 X13.4220 Y6.4946
G01 X13.4277 Y6.4991
G01 X13.4331 Y6.5041
G01 X13.4411 Y6.5132
G01 X13.4480 Y6.5232
G01 X13.4515 Y6.5296
G01 X13.4545 Y6.5362
G01 X13.4571 Y6.5430
G01 X13.4591 Y6.5500
G01 X13.4613 Y6.5620
G01 X13.4621 Y6.5741
G01 X13.4620 Y6.8765
G01 X13.4613 Y6.8862
G01 X13.4602 Y6.8934
G01 X13.4585 Y6.9005
G01 X13.4554 Y6.9097
G01 X13.4526 Y6.9164
G01 X13.4492 Y6.9229
G01 X13.4426 Y6.9330
G01 X13.4380 Y6.9387
G01 X13.4331 Y6.9441
G01 X13.4277 Y6.9490
G01 X13.4220 Y6.9536
G01 X13.4160 Y6.9577
G01 X13.4097 Y6.9614
G01 X13.4032 Y6.9646
G01 X13.3964 Y6.9673
G01 X13.3895 Y6.9695
G01 X13.3824 Y6.9712
G01 X13.3752 Y6.9723
G01 X13.3679 Y6.9730
G01 X12.3631 Y6.9731
G01 X12.3534 Y6.9726
G01 X12.3438 Y6.9712
G01 X12.3367 Y6.9695
G01 X12.3274 Y6.9664
G01 X12.3207 Y6.9636
G01 X12.3143 Y6.9602
G01 X12.3041 Y6.9536
G01 X12.2984 Y6.9490
G01 X12.2931 Y6.9441
G01 X12.2850 Y6.9350
G01 X12.2782 Y6.9250
G01 X12.2726 Y6.9142
G01 X12.2683 Y6.9028
G01 X12.2665 Y6.8958
G01 X12.2651 Y6.8886
G01 X12.2643 Y6.8814
G01 X12.2641 Y6.8741
G01 X12.2641 Y6.5741
G01 X12.2643 Y6.5668
G01 X12.2651 Y6.5595
G01 X12.2670 Y6.5500
G01 X12.2699 Y6.5407
G01 X12.2736 Y6.5317
G01 X12.2769 Y6.5253
G01 X12.2821 Y6.5171
G01 X12.2881 Y6.5094
G01 X12.2948 Y6.5024
G01 X12.3022 Y6.4960
G01 X12.3101 Y6.4904
G01 X12.3186 Y6.4856
G01 X12.3274 Y6.4817
G01 X12.3367 Y6.4787
G01 X12.3438 Y6.4770
G01 X12.3534 Y6.4756
G01 X12.3631 Y6.4751
G00 Z2.0000
G00 X12.3631 Y6.9751
G01 F60.00
G01 Z-0.0100
G01 F60.00
G01 X13.3631 Y6.9751
G01 X13.3728 Y6.9756
G01 X13.3800 Y6.9765
G01 X13.3895 Y6.9787
G01 X13.3987 Y6.9817
G01 X13.4097 Y6.9868
G01 X13.4160 Y6.9904
G01 X13.4220 Y6.9946
G01 X13.4277 Y6.9991
G01 X13.4331 Y7.0041
G01 X13.4411 Y7.0132
G01 X13.4480 Y7.0232
G01 X13.4515 Y7.0296
G01 X13.4545 Y7.0362
G01 X13.4571 Y7.0430
G01 X13.4591 Y7.0500
G01 X13.4613 Y7.0620
G01 X13.4621 Y7.0741
G01 X13.4620 Y7.3765
G01 X13.4613 Y7.3862
G01 X13.4602 Y7.3934
G01 X13.4585 Y7.4005
G01 X13.4554 Y7.4097
G01 X13.4526 Y7.4164
G01 X13.4492 Y7.4229
G01 X13.4426 Y7.4330
G01 X13.4380 Y7.4387
G01 X13.4331 Y7.4441
G01 X13.4277 Y7.4490
G01 X13.4220 Y7.4536
G01 X13.4160 Y7.4577
G01 X13.4097 Y7.4614
G01 X13.4032 Y7.4646
G01 X13.3964 Y7.4673
G01 X13.3895 Y7.4695
G01 X13.3824 Y7.4712
G01 X13.3752 Y7.4723
G01 X13.3679 Y7.4730
G01 X12.3631 Y7.4731
G01 X12.3534 Y7.4726
G01 X12.3438 Y7.4712
G01 X12.3367 Y7.4695
G01 X12.3274 Y7.4664
G01 X12.3207 Y7.4636
G01 X12.3143 Y7.4602
G01 X12.3041 Y7.4536
G01 X12.2984 Y7.4490
G01 X12.2931 Y7.4441
G01 X12.2850 Y7.4350
G01 X12.2782 Y7.4250
G01 X12.2726 Y7.4142
G01 X12.2683 Y7.4028
G01 X12.2665 Y7.3958
G01 X12.2651 Y7.3886
G01 X12.2643 Y7.3814
G01 X12.2641 Y7.3741
G01 X12.2641 Y7.0741
G01 X12.2643 Y7.0668
G01 X12.2651 Y7.0595
G01 X12.2670 Y7.0500
G01 X12.2699 Y7.0407
G01 X12.2736 Y7.0317
G01 X12.2769 Y7.0253
G01 X12.2821 Y7.0171
G01 X12.2881 Y7.0094
G01 X12.2948 Y7.0024
G01 X12.3022 Y6.9960
G01 X12.3101 Y6.9904
G01 X12.3186 Y6.9856
G01 X12.3274 Y6.9817
G01 X12.3367 Y6.9787
G01 X12.3438 Y6.9770
G01 X12.3534 Y6.9756
G01 X12.3631 Y6.9751
G00 Z2.0000
G00 X12.3631 Y7.4751
G01 F60.00
G01 Z-0.0100
G01 F60.00
G01 X13.3631 Y7.4751
G01 X13.3728 Y7.4756
G01 X13.3800 Y7.4765
G01 X13.3895 Y7.4787
G01 X13.3987 Y7.4817
G01 X13.4097 Y7.4868
G01 X13.4160 Y7.4904
G01 X13.4220 Y7.4946
G01 X13.4277 Y7.4991
G01 X13.4331 Y7.5041
G01 X13.4411 Y7.5132
G01 X13.4480 Y7.5232
G01 X13.4515 Y7.5296
G01 X13.4545 Y7.5362
G01 X13.4571 Y7.5430
G01 X13.4591 Y7.5500
G01 X13.4613 Y7.5620
G01 X13.4621 Y7.5741
G01 X13.4620 Y7.8765
G01 X13.4613 Y7.8862
G01 X13.4602 Y7.8934
G01 X13.4585 Y7.9005
G01 X13.4554 Y7.9097
G01 X13.4526 Y7.9164
G01 X13.4492 Y7.9229
G01 X13.4426 Y7.9330
G01 X13.4380 Y7.9387
G01 X13.4331 Y7.9441
G01 X13.4277 Y7.9490
G01 X13.4220 Y7.9536
G01 X13.4160 Y7.9577
G01 X13.4097 Y7.9614
G01 X13.4032 Y7.9646
G01 X13.3964 Y7.9673
G01 X13.3895 Y7.9695
G01 X13.3824 Y7.9712
G01 X13.3752 Y7.9723
G01 X13.3679 Y7.9730
G01 X12.3631 Y7.9731
G01 X12.3534 Y7.9726
G01 X12.3438 Y7.9712
G01 X12.3367 Y7.9695
G01 X12.3274 Y7.9664
G01 X12.3207 Y7.9636
G01 X12.3143 Y7.9602
G01 X12.3041 Y7.9536
G01 X12.2984 Y7.9490
G01 X12.2931 Y7.9441
G01 X12.2850 Y7.9350
G01 X12.2782 Y7.9250
G01 X12.2726 Y7.9142
G01 X12.2683 Y7.9028
G01 X12.2665 Y7.8958
G01 X12.2651 Y7.8886
G01 X12.2643 Y7.8814
G01 X12.2641 Y7.8741
G01 X12.2641 Y7.5741
G01 X12.2643 Y7.5668
G01 X12.2651 Y7.5595
G01 X12.2670 Y7.5500
G01 X12.2699 Y7.5407
G01 X12.2736 Y7.5317
G01 X12.2769 Y7.5253
G01 X12.2821 Y7.5171
G01 X12.2881 Y7.5094
G01 X12.2948 Y7.5024
G01 X12.3022 Y7.4960
G01 X12.3101 Y7.4904
G01 X12.3186 Y7.4856
G01 X12.3274 Y7.4817
G01 X12.3367 Y7.4787
G01 X12.3438 Y7.4770
G01 X12.3534 Y7.4756
G01 X12.3631 Y7.4751
G00 Z2.0000
G00 X12.3631 Y7.9751
G01 F60.00
G01 Z-0.0100
G01 F60.00
G01 X13.3631 Y7.9751
G01 X13.3728 Y7.9756
G01 X13.3800 Y7.9765
G01 X13.3895 Y7.9787
G01 X13.3987 Y7.9817
G01 X13.4097 Y7.9868
G01 X13.4160 Y7.9904
G01 X13.4220 Y7.9946
G01 X13.4313 Y8.0024
G01 X13.4364 Y8.0076
G01 X13.4411 Y8.0132
G01 X13.4480 Y8.0232
G01 X13.4515 Y8.0296
G01 X13.4545 Y8.0362
G01 X13.4571 Y8.0430
G01 X13.4591 Y8.0500
G01 X13.4613 Y8.0620
G01 X13.4621 Y8.0741
G01 X13.4620 Y8.3765
G01 X13.4613 Y8.3862
G01 X13.4602 Y8.3934
G01 X13.4578 Y8.4028
G01 X13.4554 Y8.4097
G01 X13.4526 Y8.4164
G01 X13.4492 Y8.4229
G01 X13.4426 Y8.4330
G01 X13.4380 Y8.4387
G01 X13.4331 Y8.4441
G01 X13.4277 Y8.4490
G01 X13.4220 Y8.4536
G01 X13.4160 Y8.4577
G01 X13.4097 Y8.4614
G01 X13.4032 Y8.4646
G01 X13.3964 Y8.4673
G01 X13.3895 Y8.4695
G01 X13.3824 Y8.4712
G01 X13.3752 Y8.4723
G01 X13.3679 Y8.4730
G01 X12.3631 Y8.4731
G01 X12.3558 Y8.4728
G01 X12.3461 Y8.4716
G01 X12.3367 Y8.4695
G01 X12.3274 Y8.4664
G01 X12.3164 Y8.4614
G01 X12.3101 Y8.4577
G01 X12.3041 Y8.4536
G01 X12.2948 Y8.4458
G01 X12.2865 Y8.4369
G01 X12.2794 Y8.4270
G01 X12.2758 Y8.4207
G01 X12.2726 Y8.4142
G01 X12.2683 Y8.4028
G01 X12.2665 Y8.3958
G01 X12.2651 Y8.3886
G01 X12.2643 Y8.3814
G01 X12.2641 Y8.3741
G01 X12.2641 Y8.0741
G01 X12.2643 Y8.0668
G01 X12.2651 Y8.0595
G01 X12.2670 Y8.0500
G01 X12.2699 Y8.0407
G01 X12.2736 Y8.0317
G01 X12.2782 Y8.0232
G01 X12.2836 Y8.0151
G01 X12.2897 Y8.0076
G01 X12.2948 Y8.0024
G01 X12.3022 Y7.9960
G01 X12.3101 Y7.9904
G01 X12.3186 Y7.9856
G01 X12.3274 Y7.9817
G01 X12.3367 Y7.9787
G01 X12.3438 Y7.9770
G01 X12.3534 Y7.9756
G01 X12.3631 Y7.9751
G00 Z2.0000
G00 X12.3631 Y8.4751
G01 F60.00
G01 Z-0.0100
G01 F60.00
G01 X13.3631 Y8.4751
G01 X13.3728 Y8.4756
G01 X13.3824 Y8.4770
G01 X13.3895 Y8.4787
G01 X13.3987 Y8.4817
G01 X13.4054 Y8.4846
G01 X13.4119 Y8.4879
G01 X13.4220 Y8.4946
G01 X13.4313 Y8.5024
G01 X13.4364 Y8.5076
G01 X13.4411 Y8.5132
G01 X13.4480 Y8.5232
G01 X13.4515 Y8.5296
G01 X13.4545 Y8.5362
G01 X13.4571 Y8.5430
G01 X13.4591 Y8.5500
G01 X13.4613 Y8.5620
G01 X13.4621 Y8.5741
G01 X13.4620 Y8.8765
G01 X13.4613 Y8.8862
G01 X13.4602 Y8.8934
G01 X13.4578 Y8.9028
G01 X13.4554 Y8.9097
G01 X13.4526 Y8.9164
G01 X13.4492 Y8.9229
G01 X13.4426 Y8.9330
G01 X13.4380 Y8.9387
G01 X13.4331 Y8.9441
G01 X13.4277 Y8.9490
G01 X13.4220 Y8.9536
G01 X13.4160 Y8.9577
G01 X13.4097 Y8.9614
G01 X13.4032 Y8.9646
G01 X13.3964 Y8.9673
G01 X13.3895 Y8.9695
G01 X13.3824 Y8.9712
G01 X13.3752 Y8.9723
G01 X13.3679 Y8.9730
G01 X12.3631 Y8.9731
G01 X12.3558 Y8.9728
G01 X12.3461 Y8.9716
G01 X12.3367 Y8.9695
G01 X12.3274 Y8.9664
G01 X12.3164 Y8.9614
G01 X12.3101 Y8.9577
G01 X12.3041 Y8.9536
G01 X12.2948 Y8.9458
G01 X12.2865 Y8.9369
G01 X12.2794 Y8.9270
G01 X12.2758 Y8.9207
G01 X12.2726 Y8.9142
G01 X12.2683 Y8.9028
G01 X12.2665 Y8.8958
G01 X12.2651 Y8.8886
G01 X12.2643 Y8.8814
G01 X12.2641 Y8.8741
G01 X12.2641 Y8.5741
G01 X12.2643 Y8.5668
G01 X12.2651 Y8.5595
G01 X12.2670 Y8.5500
G01 X12.2699 Y8.5407
G01 X12.2736 Y8.5317
G01 X12.2782 Y8.5232
G01 X12.2836 Y8.5151
G01 X12.2897 Y8.5076
G01 X12.2948 Y8.5024
G01 X12.3022 Y8.4960
G01 X12.3101 Y8.4904
G01 X12.3186 Y8.4856
G01 X12.3274 Y8.4817
G01 X12.3367 Y8.4787
G01 X12.3461 Y8.4765
G01 X12.3558 Y8.4753
G01 X12.3631 Y8.4751
G00 Z2.0000
G00 X11.8591 Y10.0691
G01 F60.00
G01 Z-0.0100
G01 F60.00
G01 X11.8591 Y9.0691
G01 X11.8596 Y9.0594
G01 X11.8610 Y9.0498
G01 X11.8627 Y9.0427
G01 X11.8657 Y9.0334
G01 X11.8708 Y9.0224
G01 X11.8744 Y9.0161
G01 X11.8786 Y9.0101
G01 X11.8864 Y9.0008
G01 X11.8916 Y8.9957
G01 X11.8972 Y8.9910
G01 X11.9031 Y8.9868
G01 X11.9093 Y8.9829
G01 X11.9202 Y8.9776
G01 X11.9270 Y8.9751
G01 X11.9340 Y8.9730
G01 X11.9460 Y8.9708
G01 X11.9581 Y8.9701
G01 X12.2605 Y8.9701
G01 X12.2702 Y8.9708
G01 X12.2774 Y8.9720
G01 X12.2868 Y8.9743
G01 X12.2937 Y8.9767
G01 X12.3004 Y8.9796
G01 X12.3069 Y8.9829
G01 X12.3131 Y8.9868
G01 X12.3190 Y8.9910
G01 X12.3246 Y8.9957
G01 X12.3298 Y9.0008
G01 X12.3346 Y9.0063
G01 X12.3390 Y9.0121
G01 X12.3430 Y9.0182
G01 X12.3465 Y9.0246
G01 X12.3513 Y9.0357
G01 X12.3535 Y9.0427
G01 X12.3552 Y9.0498
G01 X12.3563 Y9.0570
G01 X12.3570 Y9.0642
G01 X12.3571 Y10.0691
G01 X12.3566 Y10.0788
G01 X12.3556 Y10.0860
G01 X12.3535 Y10.0955
G01 X12.3504 Y10.1047
G01 X12.3454 Y10.1157
G01 X12.3390 Y10.1261
G01 X12.3346 Y10.1319
G01 X12.3298 Y10.1373
G01 X12.3209 Y10.1456
G01 X12.3110 Y10.1527
G01 X12.3047 Y10.1564
G01 X12.2982 Y10.1596
G01 X12.2868 Y10.1638
G01 X12.2798 Y10.1657
G01 X12.2726 Y10.1670
G01 X12.2654 Y10.1678
G01 X12.2581 Y10.1681
G01 X11.9581 Y10.1681
G01 X11.9508 Y10.1678
G01 X11.9435 Y10.1670
G01 X11.9340 Y10.1651
G01 X11.9247 Y10.1623
G01 X11.9157 Y10.1586
G01 X11.9072 Y10.1540
G01 X11.8991 Y10.1486
G01 X11.8916 Y10.1424
G01 X11.8864 Y10.1373
G01 X11.8800 Y10.1300
G01 X11.8744 Y10.1220
G01 X11.8696 Y10.1136
G01 X11.8657 Y10.1047
G01 X11.8627 Y10.0955
G01 X11.8605 Y10.0860
G01 X11.8593 Y10.0764
G01 X11.8591 Y10.0691
G00 Z2.0000
G00 X11.3591 Y10.0691
G01 F60.00
G01 Z-0.0100
G01 F60.00
G01 X11.3591 Y9.0691
G01 X11.3596 Y9.0594
G01 X11.3610 Y9.0498
G01 X11.3627 Y9.0427
G01 X11.3657 Y9.0334
G01 X11.3708 Y9.0224
G01 X11.3744 Y9.0161
G01 X11.3786 Y9.0101
G01 X11.3864 Y9.0008
G01 X11.3916 Y8.9957
G01 X11.3972 Y8.9910
G01 X11.4031 Y8.9868
G01 X11.4093 Y8.9829
G01 X11.4202 Y8.9776
G01 X11.4270 Y8.9751
G01 X11.4340 Y8.9730
G01 X11.4460 Y8.9708
G01 X11.4581 Y8.9701
G01 X11.7605 Y8.9701
G01 X11.7702 Y8.9708
G01 X11.7774 Y8.9720
G01 X11.7868 Y8.9743
G01 X11.7937 Y8.9767
G01 X11.8004 Y8.9796
G01 X11.8069 Y8.9829
G01 X11.8131 Y8.9868
G01 X11.8190 Y8.9910
G01 X11.8246 Y8.9957
G01 X11.8298 Y9.0008
G01 X11.8346 Y9.0063
G01 X11.8390 Y9.0121
G01 X11.8430 Y9.0182
G01 X11.8465 Y9.0246
G01 X11.8513 Y9.0357
G01 X11.8535 Y9.0427
G01 X11.8552 Y9.0498
G01 X11.8563 Y9.0570
G01 X11.8570 Y9.0642
G01 X11.8571 Y10.0691
G01 X11.8566 Y10.0788
G01 X11.8556 Y10.0860
G01 X11.8535 Y10.0955
G01 X11.8504 Y10.1047
G01 X11.8454 Y10.1157
G01 X11.8390 Y10.1261
G01 X11.8346 Y10.1319
G01 X11.8298 Y10.1373
G01 X11.8209 Y10.1456
G01 X11.8110 Y10.1527
G01 X11.8047 Y10.1564
G01 X11.7982 Y10.1596
G01 X11.7868 Y10.1638
G01 X11.7798 Y10.1657
G01 X11.7726 Y10.1670
G01 X11.7654 Y10.1678
G01 X11.7581 Y10.1681
G01 X11.4581 Y10.1681
G01 X11.4508 Y10.1678
G01 X11.4435 Y10.1670
G01 X11.4340 Y10.1651
G01 X11.4247 Y10.1623
G01 X11.4157 Y10.1586
G01 X11.4072 Y10.1540
G01 X11.3991 Y10.1486
G01 X11.3916 Y10.1424
G01 X11.3864 Y10.1373
G01 X11.3800 Y10.1300
G01 X11.3744 Y10.1220
G01 X11.3696 Y10.1136
G01 X11.3657 Y10.1047
G01 X11.3627 Y10.0955
G01 X11.3605 Y10.0860
G01 X11.3593 Y10.0764
G01 X11.3591 Y10.0691
G00 Z2.0000
G00 X10.8591 Y10.0691
G01 F60.00
G01 Z-0.0100
G01 F60.00
G01 X10.8591 Y9.0691
G01 X10.8596 Y9.0594
G01 X10.8610 Y9.0498
G01 X10.8627 Y9.0427
G01 X10.8657 Y9.0334
G01 X10.8708 Y9.0224
G01 X10.8744 Y9.0161
G01 X10.8786 Y9.0101
G01 X10.8864 Y9.0008
G01 X10.8916 Y8.9957
G01 X10.8972 Y8.9910
G01 X10.9031 Y8.9868
G01 X10.9093 Y8.9829
G01 X10.9202 Y8.9776
G01 X10.9270 Y8.9751
G01 X10.9340 Y8.9730
G01 X10.9460 Y8.9708
G01 X10.9581 Y8.9701
G01 X11.2605 Y8.9701
G01 X11.2702 Y8.9708
G01 X11.2774 Y8.9720
G01 X11.2868 Y8.9743
G01 X11.2937 Y8.9767
G01 X11.3004 Y8.9796
G01 X11.3069 Y8.9829
G01 X11.3131 Y8.9868
G01 X11.3190 Y8.9910
G01 X11.3246 Y8.9957
G01 X11.3298 Y9.0008
G01 X11.3346 Y9.0063
G01 X11.3390 Y9.0121
G01 X11.3430 Y9.0182
G01 X11.3465 Y9.0246
G01 X11.3513 Y9.0357
G01 X11.3535 Y9.0427
G01 X11.3552 Y9.0498
G01 X11.3563 Y9.0570
G01 X11.3570 Y9.0642
G01 X11.3571 Y10.0691
G01 X11.3566 Y10.0788
G01 X11.3556 Y10.0860
G01 X11.3535 Y10.0955
G01 X11.3504 Y10.1047
G01 X11.3454 Y10.1157
G01 X11.3390 Y10.1261
G01 X11.3346 Y10.1319
G01 X11.3298 Y10.1373
G01 X11.3209 Y10.1456
G01 X11.3110 Y10.1527
G01 X11.3047 Y10.1564
G01 X11.2982 Y10.1596
G01 X11.2868 Y10.1638
G01 X11.2798 Y10.1657
G01 X11.2726 Y10.1670
G01 X11.2654 Y10.1678
G01 X11.2581 Y10.1681
G01 X10.9581 Y10.1681
G01 X10.9508 Y10.1678
G01 X10.9435 Y10.1670
G01 X10.9340 Y10.1651
G01 X10.9247 Y10.1623
G01 X10.9157 Y10.1586
G01 X10.9072 Y10.1540
G01 X10.8991 Y10.1486
G01 X10.8916 Y10.1424
G01 X10.8864 Y10.1373
G01 X10.8800 Y10.1300
G01 X10.8744 Y10.1220
G01 X10.8696 Y10.1136
G01 X10.8657 Y10.1047
G01 X10.8627 Y10.0955
G01 X10.8605 Y10.0860
G01 X10.8593 Y10.0764
G01 X10.8591 Y10.0691
G00 Z2.0000
G00 X10.3591 Y10.0691
G01 F60.00
G01 Z-0.0100
G01 F60.00
G01 X10.3591 Y9.0691
G01 X10.3596 Y9.0594
G01 X10.3610 Y9.0498
G01 X10.3627 Y9.0427
G01 X10.3657 Y9.0334
G01 X10.3708 Y9.0224
G01 X10.3744 Y9.0161
G01 X10.3786 Y9.0101
G01 X10.3864 Y9.0008
G01 X10.3916 Y8.9957
G01 X10.3972 Y8.9910
G01 X10.4031 Y8.9868
G01 X10.4093 Y8.9829
G01 X10.4202 Y8.9776
G01 X10.4270 Y8.9751
G01 X10.4340 Y8.9730
G01 X10.4460 Y8.9708
G01 X10.4581 Y8.9701
G01 X10.7605 Y8.9701
G01 X10.7702 Y8.9708
G01 X10.7774 Y8.9720
G01 X10.7868 Y8.9743
G01 X10.7937 Y8.9767
G01 X10.8004 Y8.9796
G01 X10.8069 Y8.9829
G01 X10.8131 Y8.9868
G01 X10.8190 Y8.9910
G01 X10.8246 Y8.9957
G01 X10.8298 Y9.0008
G01 X10.8346 Y9.0063
G01 X10.8390 Y9.0121
G01 X10.8430 Y9.0182
G01 X10.8465 Y9.0246
G01 X10.8513 Y9.0357
G01 X10.8535 Y9.0427
G01 X10.8552 Y9.0498
G01 X10.8563 Y9.0570
G01 X10.8570 Y9.0642
G01 X10.8571 Y10.0691
G01 X10.8566 Y10.0788
G01 X10.8556 Y10.0860
G01 X10.8535 Y10.0955
G01 X10.8504 Y10.1047
G01 X10.8454 Y10.1157
G01 X10.8390 Y10.1261
G01 X10.8346 Y10.1319
G01 X10.8298 Y10.1373
G01 X10.8209 Y10.1456
G01 X10.8110 Y10.1527
G01 X10.8047 Y10.1564
G01 X10.7982 Y10.1596
G01 X10.7868 Y10.1638
G01 X10.7798 Y10.1657
G01 X10.7726 Y10.1670
G01 X10.7654 Y10.1678
G01 X10.7581 Y10.1681
G01 X10.4581 Y10.1681
G01 X10.4508 Y10.1678
G01 X10.4435 Y10.1670
G01 X10.4340 Y10.1651
G01 X10.4247 Y10.1623
G01 X10.4157 Y10.1586
G01 X10.4072 Y10.1540
G01 X10.3991 Y10.1486
G01 X10.3916 Y10.1424
G01 X10.3864 Y10.1373
G01 X10.3800 Y10.1300
G01 X10.3744 Y10.1220
G01 X10.3696 Y10.1136
G01 X10.3657 Y10.1047
G01 X10.3627 Y10.0955
G01 X10.3605 Y10.0860
G01 X10.3593 Y10.0764
G01 X10.3591 Y10.0691
G00 Z2.0000
G00 X9.8591 Y10.0691
G01 F60.00
G01 Z-0.0100
G01 F60.00
G01 X9.8591 Y9.0691
G01 X9.8596 Y9.0594
G01 X9.8610 Y9.0498
G01 X9.8627 Y9.0427
G01 X9.8657 Y9.0334
G01 X9.8708 Y9.0224
G01 X9.8744 Y9.0161
G01 X9.8786 Y9.0101
G01 X9.8864 Y9.0008
G01 X9.8916 Y8.9957
G01 X9.8972 Y8.9910
G01 X9.9031 Y8.9868
G01 X9.9093 Y8.9829
G01 X9.9202 Y8.9776
G01 X9.9270 Y8.9751
G01 X9.9340 Y8.9730
G01 X9.9460 Y8.9708
G01 X9.9581 Y8.9701
G01 X10.2605 Y8.9701
G01 X10.2702 Y8.9708
G01 X10.2774 Y8.9720
G01 X10.2868 Y8.9743
G01 X10.2937 Y8.9767
G01 X10.3004 Y8.9796
G01 X10.3069 Y8.9829
G01 X10.3131 Y8.9868
G01 X10.3190 Y8.9910
G01 X10.3246 Y8.9957
G01 X10.3298 Y9.0008
G01 X10.3346 Y9.0063
G01 X10.3390 Y9.0121
G01 X10.3430 Y9.0182
G01 X10.3465 Y9.0246
G01 X10.3513 Y9.0357
G01 X10.3535 Y9.0427
G01 X10.3552 Y9.0498
G01 X10.3563 Y9.0570
G01 X10.3570 Y9.0642
G01 X10.3571 Y10.0691
G01 X10.3566 Y10.0788
G01 X10.3556 Y10.0860
G01 X10.3535 Y10.0955
G01 X10.3504 Y10.1047
G01 X10.3454 Y10.1157
G01 X10.3390 Y10.1261
G01 X10.3346 Y10.1319
G01 X10.3298 Y10.1373
G01 X10.3209 Y10.1456
G01 X10.3110 Y10.1527
G01 X10.3047 Y10.1564
G01 X10.2982 Y10.1596
G01 X10.2868 Y10.1638
G01 X10.2798 Y10.1657
G01 X10.2726 Y10.1670
G01 X10.2654 Y10.1678
G01 X10.2581 Y10.1681
G01 X9.9581 Y10.1681
G01 X9.9508 Y10.1678
G01 X9.9435 Y10.1670
G01 X9.9340 Y10.1651
G01 X9.9247 Y10.1623
G01 X9.9157 Y10.1586
G01 X9.9072 Y10.1540
G01 X9.8991 Y10.1486
G01 X9.8916 Y10.1424
G01 X9.8864 Y10.1373
G01 X9.8800 Y10.1300
G01 X9.8744 Y10.1220
G01 X9.8696 Y10.1136
G01 X9.8657 Y10.1047
G01 X9.8627 Y10.0955
G01 X9.8605 Y10.0860
G01 X9.8593 Y10.0764
G01 X9.8591 Y10.0691
G00 Z2.0000
G00 X6.0812 Y13.4821
G01 F60.00
G01 Z-0.0100
G01 F60.00
G01 X6.9130 Y12.6504
G01 X6.9130 Y10.1572
G01 X6.9011 Y10.1500
G01 X6.8916 Y10.1424
G01 X6.8864 Y10.1373
G01 X6.8815 Y10.1319
G01 X6.8744 Y10.1220
G01 X6.8686 Y10.1114
G01 X6.8641 Y10.1001
G01 X6.8620 Y10.0931
G01 X6.8605 Y10.0860
G01 X6.8592 Y10.0739
G01 X6.8591 Y9.0691
G01 X6.8596 Y9.0594
G01 X6.8610 Y9.0498
G01 X6.8627 Y9.0427
G01 X6.8657 Y9.0334
G01 X6.8686 Y9.0267
G01 X6.8719 Y9.0203
G01 X6.8758 Y9.0141
G01 X6.8800 Y9.0082
G01 X6.8881 Y8.9991
G01 X6.8934 Y8.9941
G01 X6.8991 Y8.9896
G01 X6.9093 Y8.9829
G01 X6.9157 Y8.9796
G01 X6.9224 Y8.9767
G01 X6.9340 Y8.9730
G01 X6.9411 Y8.9715
G01 X6.9484 Y8.9706
G01 X6.9581 Y8.9701
G01 X7.2629 Y8.9702
G01 X7.2702 Y8.9708
G01 X7.2774 Y8.9720
G01 X7.2868 Y8.9743
G01 X7.2937 Y8.9767
G01 X7.3004 Y8.9796
G01 X7.3069 Y8.9829
G01 X7.3131 Y8.9868
G01 X7.3190 Y8.9910
G01 X7.3263 Y8.9974
G01 X7.3330 Y9.0044
G01 X7.3404 Y9.0141
G01 X7.3454 Y9.0224
G01 X7.3495 Y9.0312
G01 X7.3528 Y9.0403
G01 X7.3552 Y9.0498
G01 X7.3566 Y9.0594
G01 X7.3571 Y9.0691
G01 X7.3571 Y9.4142
G01 X7.3591 Y9.4169
G01 X7.3591 Y9.0691
G01 X7.3593 Y9.0618
G01 X7.3605 Y9.0521
G01 X7.3627 Y9.0427
G01 X7.3649 Y9.0357
G01 X7.3686 Y9.0267
G01 X7.3719 Y9.0203
G01 X7.3771 Y9.0121
G01 X7.3815 Y9.0063
G01 X7.3881 Y8.9991
G01 X7.3953 Y8.9925
G01 X7.4031 Y8.9868
G01 X7.4093 Y8.9829
G01 X7.4180 Y8.9786
G01 X7.4270 Y8.9751
G01 X7.4340 Y8.9730
G01 X7.4435 Y8.9711
G01 X7.4532 Y8.9702
G01 X7.7605 Y8.9701
G01 X7.7678 Y8.9706
G01 X7.7774 Y8.9720
G01 X7.7845 Y8.9737
G01 X7.7937 Y8.9767
G01 X7.8004 Y8.9796
G01 X7.8069 Y8.9829
G01 X7.8131 Y8.9868
G01 X7.8190 Y8.9910
G01 X7.8246 Y8.9957
G01 X7.8298 Y9.0008
G01 X7.8361 Y9.0082
G01 X7.8404 Y9.0141
G01 X7.8442 Y9.0203
G01 X7.8476 Y9.0267
G01 X7.8504 Y9.0334
G01 X7.8528 Y9.0403
G01 X7.8547 Y9.0474
G01 X7.8560 Y9.0545
G01 X7.8568 Y9.0618
G01 X7.8571 Y9.0691
G01 X7.8571 Y13.0911
G01 X7.8559 Y13.1155
G01 X7.8524 Y13.1397
G01 X7.8464 Y13.1634
G01 X7.8391 Y13.1841
G01 X7.8277 Y13.2085
G01 X7.8152 Y13.2295
G01 X7.8006 Y13.2491
G01 X7.7842 Y13.2672
G01 X6.6612 Y14.3901
G01 X6.6448 Y14.4048
G01 X6.6291 Y14.4166
G01 X6.6210 Y14.4220
G01 X6.6042 Y14.4319
G01 X6.5821 Y14.4424
G01 X6.5637 Y14.4491
G01 X6.5544 Y14.4519
G01 X6.5330 Y14.4570
G01 X6.5112 Y14.4602
G01 X6.4868 Y14.4613
G01 X6.0230 Y14.4612
G01 X6.0035 Y14.4602
G01 X5.9841 Y14.4574
G01 X5.9769 Y14.4561
G01 X5.9579 Y14.4513
G01 X5.9326 Y14.4424
G01 X5.9083 Y14.4308
G01 X5.8915 Y14.4207
G01 X5.8855 Y14.4166
G01 X5.8699 Y14.4048
G01 X5.8553 Y14.3917
G01 X5.7406 Y14.2772
G01 X5.7258 Y14.2608
G01 X5.7113 Y14.2412
G01 X5.6987 Y14.2202
G01 X5.6902 Y14.2025
G01 X5.6865 Y14.1936
G01 X5.6800 Y14.1751
G01 X5.6741 Y14.1514
G01 X5.6705 Y14.1272
G01 X5.6694 Y14.1076
G01 X5.6694 Y14.0979
G01 X5.6705 Y14.0784
G01 X5.6733 Y14.0590
G01 X5.6746 Y14.0518
G01 X5.6787 Y14.0352
G01 X5.6815 Y14.0259
G01 X5.6883 Y14.0075
G01 X5.6987 Y13.9854
G01 X5.7087 Y13.9685
G01 X5.7141 Y13.9604
G01 X5.7258 Y13.9448
G01 X5.7389 Y13.9302
G01 X5.7458 Y13.9233
G01 X5.7604 Y13.9102
G01 X5.7760 Y13.8985
G01 X5.7841 Y13.8931
G01 X5.8010 Y13.8831
G01 X5.8186 Y13.8746
G01 X5.8276 Y13.8709
G01 X5.8461 Y13.8644
G01 X5.8650 Y13.8596
G01 X5.8746 Y13.8577
G01 X5.8940 Y13.8549
G01 X5.9159 Y13.8537
G01 X5.9428 Y13.8549
G01 X5.9622 Y13.8577
G01 X5.9717 Y13.8596
G01 X5.9907 Y13.8644
G01 X6.0092 Y13.8709
G01 X6.0159 Y13.8736
G01 X6.0336 Y13.8820
G01 X6.0568 Y13.8957
G01 X6.0764 Y13.9102
G01 X6.0928 Y13.9250
G01 X6.1310 Y13.9632
G01 X6.3836 Y13.9632
G01 X7.3590 Y12.9879
G01 X7.3590 Y12.9059
G01 X7.3530 Y12.9135
G01 X7.3382 Y12.9297
G01 X6.4334 Y13.8344
G01 X6.4153 Y13.8508
G01 X6.3956 Y13.8654
G01 X6.3747 Y13.8779
G01 X6.3548 Y13.8874
G01 X6.3319 Y13.8959
G01 X6.3106 Y13.9015
G01 X6.3011 Y13.9034
G01 X6.2841 Y13.9059
G01 X6.2768 Y13.9065
G01 X6.2573 Y13.9073
G01 X6.2328 Y13.9061
G01 X6.2087 Y13.9026
G01 X6.1850 Y13.8966
G01 X6.1619 Y13.8884
G01 X6.1442 Y13.8801
G01 X6.1356 Y13.8755
G01 X6.1209 Y13.8667
G01 X6.1149 Y13.8626
G01 X6.0993 Y13.8508
G01 X6.0811 Y13.8344
G01 X6.0647 Y13.8163
G01 X6.0502 Y13.7966
G01 X6.0376 Y13.7757
G01 X6.0272 Y13.7536
G01 X6.0189 Y13.7306
G01 X6.0140 Y13.7116
G01 X6.0122 Y13.7021
G01 X6.0097 Y13.6851
G01 X6.0090 Y13.6778
G01 X6.0082 Y13.6583
G01 X6.0094 Y13.6338
G01 X6.0130 Y13.6097
G01 X6.0189 Y13.5860
G01 X6.0272 Y13.5629
G01 X6.0354 Y13.5452
G01 X6.0400 Y13.5366
G01 X6.0489 Y13.5219
G01 X6.0530 Y13.5159
G01 X6.0647 Y13.5003
G01 X6.0812 Y13.4821
G00 Z2.0000
G00 X5.6260 Y13.1540
G01 F60.00
G01 Z-0.0100
G01 F60.00
G01 X6.3590 Y12.4209
G01 X6.3591 Y9.0691
G01 X6.3598 Y9.0570
G01 X6.3610 Y9.0498
G01 X6.3627 Y9.0427
G01 X6.3649 Y9.0357
G01 X6.3686 Y9.0267
G01 X6.3719 Y9.0203
G01 X6.3771 Y9.0121
G01 X6.3815 Y9.0063
G01 X6.3864 Y9.0008
G01 X6.3916 Y8.9957
G01 X6.3972 Y8.9910
G01 X6.4031 Y8.9868
G01 X6.4093 Y8.9829
G01 X6.4157 Y8.9796
G01 X6.4224 Y8.9767
G01 X6.4293 Y8.9743
G01 X6.4388 Y8.9720
G01 X6.4484 Y8.9706
G01 X6.4581 Y8.9701
G01 X6.7581 Y8.9701
G01 X6.7654 Y8.9703
G01 X6.7726 Y8.9711
G01 X6.7845 Y8.9737
G01 X6.7914 Y8.9759
G01 X6.7982 Y8.9786
G01 X6.8047 Y8.9818
G01 X6.8131 Y8.9868
G01 X6.8190 Y8.9910
G01 X6.8263 Y8.9974
G01 X6.8314 Y9.0026
G01 X6.8361 Y9.0082
G01 X6.8404 Y9.0141
G01 X6.8442 Y9.0203
G01 X6.8486 Y9.0290
G01 X6.8513 Y9.0357
G01 X6.8535 Y9.0427
G01 X6.8556 Y9.0521
G01 X6.8566 Y9.0594
G01 X6.8570 Y9.0666
G01 X6.8571 Y12.5241
G01 X6.8563 Y12.5436
G01 X6.8554 Y12.5533
G01 X6.8524 Y12.5727
G01 X6.8471 Y12.5940
G01 X6.8382 Y12.6194
G01 X6.8299 Y12.6371
G01 X6.8253 Y12.6457
G01 X6.8152 Y12.6625
G01 X6.8036 Y12.6783
G01 X6.7974 Y12.6858
G01 X6.7842 Y12.7002
G01 X5.9765 Y13.5079
G01 X5.9601 Y13.5226
G01 X5.9405 Y13.5372
G01 X5.9195 Y13.5497
G01 X5.9018 Y13.5582
G01 X5.8951 Y13.5611
G01 X5.8767 Y13.5677
G01 X5.8554 Y13.5733
G01 X5.8459 Y13.5752
G01 X5.8289 Y13.5777
G01 X5.8216 Y13.5783
G01 X5.8021 Y13.5791
G01 X5.7777 Y13.5780
G01 X5.7535 Y13.5744
G01 X5.7298 Y13.5684
G01 X5.7068 Y13.5602
G01 X5.6890 Y13.5519
G01 X5.6825 Y13.5486
G01 X5.6678 Y13.5398
G01 X5.6597 Y13.5344
G01 X5.6441 Y13.5226
G01 X5.6260 Y13.5062
G01 X5.6095 Y13.4881
G01 X5.5950 Y13.4685
G01 X5.5824 Y13.4475
G01 X5.5720 Y13.4254
G01 X5.5637 Y13.4024
G01 X5.5589 Y13.3834
G01 X5.5570 Y13.3739
G01 X5.5545 Y13.3569
G01 X5.5538 Y13.3496
G01 X5.5530 Y13.3301
G01 X5.5542 Y13.3057
G01 X5.5578 Y13.2815
G01 X5.5624 Y13.2625
G01 X5.5645 Y13.2555
G01 X5.5702 Y13.2393
G01 X5.5739 Y13.2303
G01 X5.5824 Y13.2127
G01 X5.5950 Y13.1917
G01 X5.6095 Y13.1721
G01 X5.6260 Y13.1540
G00 Z2.0000
G00 X6.7024 Y14.4280
G01 F60.00
G01 Z-0.0100
G01 F60.00
G01 X7.8590 Y13.2713
G01 X7.8590 Y9.5691
G01 X7.8591 Y9.0691
G01 X7.8596 Y9.0594
G01 X7.8605 Y9.0521
G01 X7.8627 Y9.0427
G01 X7.8649 Y9.0357
G01 X7.8676 Y9.0290
G01 X7.8708 Y9.0224
G01 X7.8744 Y9.0161
G01 X7.8800 Y9.0082
G01 X7.8847 Y9.0026
G01 X7.8898 Y8.9974
G01 X7.8972 Y8.9910
G01 X7.9031 Y8.9868
G01 X7.9093 Y8.9829
G01 X7.9157 Y8.9796
G01 X7.9224 Y8.9767
G01 X7.9293 Y8.9743
G01 X7.9388 Y8.9720
G01 X7.9484 Y8.9706
G01 X7.9581 Y8.9701
G01 X8.2581 Y8.9701
G01 X8.2654 Y8.9703
G01 X8.2726 Y8.9711
G01 X8.2798 Y8.9725
G01 X8.2868 Y8.9743
G01 X8.2937 Y8.9767
G01 X8.3004 Y8.9796
G01 X8.3069 Y8.9829
G01 X8.3151 Y8.9881
G01 X8.3209 Y8.9925
G01 X8.3263 Y8.9974
G01 X8.3330 Y9.0044
G01 X8.3376 Y9.0101
G01 X8.3417 Y9.0161
G01 X8.3465 Y9.0246
G01 X8.3495 Y9.0312
G01 X8.3521 Y9.0380
G01 X8.3541 Y9.0450
G01 X8.3556 Y9.0521
G01 X8.3566 Y9.0594
G01 X8.3570 Y9.0666
G01 X8.3571 Y13.3745
G01 X8.3560 Y13.3989
G01 X8.3532 Y13.4183
G01 X8.3513 Y13.4278
G01 X8.3464 Y13.4468
G01 X8.3382 Y13.4698
G01 X8.3299 Y13.4875
G01 X8.3253 Y13.4961
G01 X8.3152 Y13.5129
G01 X8.3036 Y13.5286
G01 X8.2974 Y13.5362
G01 X8.2842 Y13.5506
G01 X7.0547 Y14.7802
G01 X7.0403 Y14.7934
G01 X7.0328 Y14.7996
G01 X7.0170 Y14.8112
G01 X7.0002 Y14.8213
G01 X6.9938 Y14.8249
G01 X6.9761 Y14.8332
G01 X6.9555 Y14.8409
G01 X6.9462 Y14.8437
G01 X6.9296 Y14.8479
G01 X6.9224 Y14.8492
G01 X6.9030 Y14.8519
G01 X6.8786 Y14.8531
G01 X6.8542 Y14.8520
G01 X6.8300 Y14.8484
G01 X6.8063 Y14.8424
G01 X6.7833 Y14.8342
G01 X6.7612 Y14.8237
G01 X6.7443 Y14.8138
G01 X6.7382 Y14.8098
G01 X6.7225 Y14.7981
G01 X6.7060 Y14.7836
G01 X6.6991 Y14.7767
G01 X6.6876 Y14.7640
G01 X6.6831 Y14.7583
G01 X6.6715 Y14.7425
G01 X6.6589 Y14.7215
G01 X6.6485 Y14.6994
G01 X6.6402 Y14.6764
G01 X6.6343 Y14.6527
G01 X6.6307 Y14.6285
G01 X6.6295 Y14.6041
G01 X6.6303 Y14.5845
G01 X6.6313 Y14.5748
G01 X6.6338 Y14.5579
G01 X6.6353 Y14.5508
G01 X6.6410 Y14.5295
G01 X6.6476 Y14.5110
G01 X6.6504 Y14.5043
G01 X6.6589 Y14.4867
G01 X6.6715 Y14.4657
G01 X6.6860 Y14.4461
G01 X6.7024 Y14.4280
G00 Z2.0000
G00 X7.3200 Y14.5939
G01 F60.00
G01 Z-0.0100
G01 F60.00
G01 X8.3590 Y13.5548
G01 X8.3590 Y9.5691
G01 X8.3591 Y9.0691
G01 X8.3596 Y9.0594
G01 X8.3610 Y9.0498
G01 X8.3627 Y9.0427
G01 X8.3649 Y9.0357
G01 X8.3676 Y9.0290
G01 X8.3708 Y9.0224
G01 X8.3744 Y9.0161
G01 X8.3800 Y9.0082
G01 X8.3847 Y9.0026
G01 X8.3898 Y8.9974
G01 X8.3972 Y8.9910
G01 X8.4031 Y8.9868
G01 X8.4093 Y8.9829
G01 X8.4157 Y8.9796
G01 X8.4224 Y8.9767
G01 X8.4293 Y8.9743
G01 X8.4388 Y8.9720
G01 X8.4484 Y8.9706
G01 X8.4581 Y8.9701
G01 X8.7581 Y8.9701
G01 X8.7702 Y8.9708
G01 X8.7821 Y8.9730
G01 X8.7891 Y8.9751
G01 X8.7982 Y8.9786
G01 X8.8047 Y8.9818
G01 X8.8110 Y8.9854
G01 X8.8190 Y8.9910
G01 X8.8246 Y8.9957
G01 X8.8298 Y9.0008
G01 X8.8361 Y9.0082
G01 X8.8404 Y9.0141
G01 X8.8454 Y9.0224
G01 X8.8486 Y9.0290
G01 X8.8513 Y9.0357
G01 X8.8535 Y9.0427
G01 X8.8552 Y9.0498
G01 X8.8566 Y9.0594
G01 X8.8570 Y9.0666
G01 X8.8571 Y13.6580
G01 X8.8563 Y13.6775
G01 X8.8554 Y13.6872
G01 X8.8524 Y13.7066
G01 X8.8477 Y13.7256
G01 X8.8449 Y13.7349
G01 X8.8382 Y13.7533
G01 X8.8266 Y13.7775
G01 X8.8152 Y13.7964
G01 X8.8036 Y13.8122
G01 X8.7990 Y13.8178
G01 X8.7859 Y13.8324
G01 X7.6722 Y14.9461
G01 X7.6578 Y14.9593
G01 X7.6503 Y14.9655
G01 X7.6345 Y14.9771
G01 X7.6156 Y14.9885
G01 X7.5936 Y14.9991
G01 X7.5730 Y15.0068
G01 X7.5660 Y15.0090
G01 X7.5494 Y15.0132
G01 X7.5399 Y15.0151
G01 X7.5205 Y15.0179
G01 X7.4961 Y15.0190
G01 X7.4717 Y15.0179
G01 X7.4475 Y15.0143
G01 X7.4238 Y15.0083
G01 X7.4008 Y15.0001
G01 X7.3787 Y14.9896
G01 X7.3618 Y14.9797
G01 X7.3537 Y14.9743
G01 X7.3400 Y14.9640
G01 X7.3344 Y14.9593
G01 X7.3183 Y14.9444
G01 X7.3051 Y14.9298
G01 X7.3005 Y14.9242
G01 X7.2890 Y14.9084
G01 X7.2764 Y14.8874
G01 X7.2660 Y14.8653
G01 X7.2577 Y14.8423
G01 X7.2518 Y14.8186
G01 X7.2482 Y14.7944
G01 X7.2470 Y14.7700
G01 X7.2478 Y14.7504
G01 X7.2485 Y14.7431
G01 X7.2510 Y14.7262
G01 X7.2529 Y14.7166
G01 X7.2585 Y14.6954
G01 X7.2651 Y14.6769
G01 X7.2679 Y14.6702
G01 X7.2764 Y14.6526
G01 X7.2890 Y14.6316
G01 X7.3035 Y14.6120
G01 X7.3200 Y14.5939
G00 Z2.0000
G00 X5.2417 Y15.4078
G01 F60.00
G01 Z-0.0100
G01 F60.00
G01 X5.2286 Y15.3932
G01 X5.2169 Y15.3775
G01 X5.2115 Y15.3695
G01 X5.2015 Y15.3526
G01 X5.1930 Y15.3350
G01 X5.1893 Y15.3260
G01 X5.1828 Y15.3075
G01 X5.1773 Y15.2862
G01 X5.1738 Y15.2645
G01 X5.1730 Y15.2572
G01 X5.1720 Y15.2352
G01 X5.1728 Y15.2156
G01 X5.1738 Y15.2060
G01 X5.1768 Y15.1866
G01 X5.1814 Y15.1676
G01 X5.1842 Y15.1583
G01 X5.1909 Y15.1399
G01 X5.1992 Y15.1221
G01 X5.2037 Y15.1136
G01 X5.2139 Y15.0968
G01 X5.2284 Y15.0772
G01 X5.2415 Y15.0626
G01 X5.2484 Y15.0557
G01 X5.2630 Y15.0426
G01 X5.2826 Y15.0281
G01 X5.2993 Y15.0179
G01 X5.3079 Y15.0133
G01 X5.3256 Y15.0050
G01 X5.3440 Y14.9983
G01 X5.3533 Y14.9955
G01 X5.3723 Y14.9908
G01 X5.3917 Y14.9878
G01 X5.4014 Y14.9869
G01 X5.4209 Y14.9860
G01 X5.4478 Y14.9875
G01 X5.4671 Y14.9903
G01 X5.4743 Y14.9918
G01 X5.4932 Y14.9967
G01 X5.5140 Y15.0040
G01 X5.5384 Y15.0153
G01 X5.5613 Y15.0293
G01 X5.5808 Y15.0440
G01 X5.5954 Y15.0572
G01 X5.6132 Y15.0749
G01 X7.6223 Y15.0749
G01 X8.8590 Y13.8383
G01 X8.8590 Y9.5691
G01 X8.8591 Y9.0691
G01 X8.8596 Y9.0594
G01 X8.8610 Y9.0498
G01 X8.8627 Y9.0427
G01 X8.8657 Y9.0334
G01 X8.8686 Y9.0267
G01 X8.8732 Y9.0182
G01 X8.8771 Y9.0121
G01 X8.8815 Y9.0063
G01 X8.8864 Y9.0008
G01 X8.8916 Y8.9957
G01 X8.8972 Y8.9910
G01 X8.9031 Y8.9868
G01 X8.9114 Y8.9818
G01 X8.9202 Y8.9776
G01 X8.9270 Y8.9751
G01 X8.9340 Y8.9730
G01 X8.9411 Y8.9715
G01 X8.9484 Y8.9706
G01 X8.9581 Y8.9701
G01 X9.2629 Y8.9702
G01 X9.2750 Y8.9715
G01 X9.2821 Y8.9730
G01 X9.2891 Y8.9751
G01 X9.3004 Y8.9796
G01 X9.3110 Y8.9854
G01 X9.3209 Y8.9925
G01 X9.3298 Y9.0008
G01 X9.3376 Y9.0101
G01 X9.3417 Y9.0161
G01 X9.3454 Y9.0224
G01 X9.3504 Y9.0334
G01 X9.3541 Y9.0450
G01 X9.3563 Y9.0570
G01 X9.3571 Y9.0691
G01 X9.3571 Y13.9415
G01 X9.3560 Y13.9659
G01 X9.3532 Y13.9853
G01 X9.3513 Y13.9948
G01 X9.3464 Y14.0138
G01 X9.3399 Y14.0323
G01 X9.3362 Y14.0412
G01 X9.3277 Y14.0589
G01 X9.3165 Y14.0778
G01 X9.3006 Y14.0995
G01 X9.2842 Y14.1176
G01 X7.9016 Y15.5001
G01 X7.8835 Y15.5165
G01 X7.8678 Y15.5283
G01 X7.8597 Y15.5337
G01 X7.8429 Y15.5436
G01 X7.8252 Y15.5521
G01 X7.8185 Y15.5550
G01 X7.8001 Y15.5616
G01 X7.7788 Y15.5672
G01 X7.7693 Y15.5691
G01 X7.7499 Y15.5719
G01 X7.7255 Y15.5730
G01 X5.5101 Y15.5730
G01 X5.4905 Y15.5722
G01 X5.4809 Y15.5713
G01 X5.4615 Y15.5683
G01 X5.4425 Y15.5636
G01 X5.4332 Y15.5608
G01 X5.4148 Y15.5541
G01 X5.3971 Y15.5459
G01 X5.3885 Y15.5413
G01 X5.3718 Y15.5311
G01 X5.3522 Y15.5166
G01 X5.3358 Y15.5019
G01 X5.2417 Y15.4078
G00 Z2.0000
G00 X4.6180 Y15.4646
G01 F60.00
G01 Z-0.0100
G01 F60.00
G01 X4.6180 Y15.2351
G01 X4.6192 Y15.2107
G01 X4.6228 Y15.1865
G01 X4.6287 Y15.1628
G01 X4.6370 Y15.1398
G01 X4.6486 Y15.1155
G01 X4.6600 Y15.0967
G01 X4.6715 Y15.0809
G01 X4.6777 Y15.0734
G01 X4.6910 Y15.0590
G01 X4.7091 Y15.0425
G01 X4.7247 Y15.0308
G01 X4.7328 Y15.0254
G01 X4.7497 Y15.0154
G01 X4.7673 Y15.0069
G01 X4.7763 Y15.0032
G01 X4.7948 Y14.9967
G01 X4.8185 Y14.9908
G01 X4.8378 Y14.9878
G01 X4.8475 Y14.9868
G01 X4.8671 Y14.9860
G01 X4.8866 Y14.9868
G01 X4.8963 Y14.9878
G01 X4.9157 Y14.9908
G01 X4.9394 Y14.9967
G01 X4.9624 Y15.0050
G01 X4.9845 Y15.0154
G01 X5.0055 Y15.0280
G01 X5.0251 Y15.0425
G01 X5.0432 Y15.0590
G01 X5.0611 Y15.0790
G01 X5.0728 Y15.0947
G01 X5.0768 Y15.1008
G01 X5.0867 Y15.1177
G01 X5.0952 Y15.1353
G01 X5.0989 Y15.1443
G01 X5.1054 Y15.1628
G01 X5.1114 Y15.1865
G01 X5.1150 Y15.2107
G01 X5.1161 Y15.2326
G01 X5.1161 Y15.3614
G01 X5.3837 Y15.6289
G01 X7.8518 Y15.6289
G01 X9.3590 Y14.1217
G01 X9.3590 Y9.5691
G01 X9.3591 Y9.0691
G01 X9.3596 Y9.0594
G01 X9.3610 Y9.0498
G01 X9.3627 Y9.0427
G01 X9.3657 Y9.0334
G01 X9.3686 Y9.0267
G01 X9.3732 Y9.0182
G01 X9.3771 Y9.0121
G01 X9.3815 Y9.0063
G01 X9.3864 Y9.0008
G01 X9.3934 Y8.9941
G01 X9.3991 Y8.9896
G01 X9.4051 Y8.9854
G01 X9.4136 Y8.9806
G01 X9.4202 Y8.9776
G01 X9.4293 Y8.9743
G01 X9.4364 Y8.9725
G01 X9.4435 Y8.9711
G01 X9.4508 Y8.9703
G01 X9.4581 Y8.9701
G01 X9.7629 Y8.9702
G01 X9.7726 Y8.9711
G01 X9.7798 Y8.9725
G01 X9.7868 Y8.9743
G01 X9.7937 Y8.9767
G01 X9.8004 Y8.9796
G01 X9.8069 Y8.9829
G01 X9.8151 Y8.9881
G01 X9.8209 Y8.9925
G01 X9.8298 Y9.0008
G01 X9.8361 Y9.0082
G01 X9.8417 Y9.0161
G01 X9.8476 Y9.0267
G01 X9.8521 Y9.0380
G01 X9.8547 Y9.0474
G01 X9.8566 Y9.0594
G01 X9.8571 Y9.0691
G01 X9.8571 Y14.2249
G01 X9.8560 Y14.2493
G01 X9.8532 Y14.2687
G01 X9.8513 Y14.2782
G01 X9.8471 Y14.2948
G01 X9.8449 Y14.3018
G01 X9.8382 Y14.3202
G01 X9.8277 Y14.3423
G01 X9.8152 Y14.3633
G01 X9.8006 Y14.3829
G01 X9.7842 Y14.4010
G01 X8.1294 Y16.0558
G01 X8.1130 Y16.0705
G01 X8.0973 Y16.0823
G01 X8.0892 Y16.0877
G01 X8.0724 Y16.0976
G01 X8.0547 Y16.1061
G01 X8.0458 Y16.1098
G01 X8.0273 Y16.1163
G01 X8.0036 Y16.1223
G01 X7.9794 Y16.1259
G01 X7.9550 Y16.1270
G01 X5.2806 Y16.1270
G01 X5.2562 Y16.1259
G01 X5.2320 Y16.1223
G01 X5.2130 Y16.1176
G01 X5.2037 Y16.1148
G01 X5.1853 Y16.1081
G01 X5.1675 Y16.0998
G01 X5.1590 Y16.0953
G01 X5.1422 Y16.0851
G01 X5.1264 Y16.0735
G01 X5.1189 Y16.0674
G01 X5.1045 Y16.0541
G01 X4.6893 Y15.6390
G01 X4.6746 Y15.6226
G01 X4.6600 Y15.6030
G01 X4.6474 Y15.5820
G01 X4.6370 Y15.5599
G01 X4.6287 Y15.5369
G01 X4.6228 Y15.5132
G01 X4.6192 Y15.4890
G01 X4.6180 Y15.4646
G00 Z2.0000
M05
G00 Z2.0000
G00 Z15.00


